wycongwisc/urdf-loader-test-vr/sample files/sawyer animations/11_stirring_base_0.csv
time,j0,j1,j2,j3,j4,j5,j6
0.0073549747467041016,0.8275202674772933,0.6798735289619524,-0.889476488665658,1.4878119957743419,-2.1291637741109892,1.2119338142962333,2.630236440363317
0.0074388980865478516,0.8267804049925546,0.6788769138058225,-0.8888127631730228,1.4872930839640097,-2.128162252571156,1.2127002153393647,2.6315458205958975
0.007689952850341797,0.8267765169246308,0.6788047058185674,-0.8889667185136522,1.4873634827088462,-2.1281383791269364,1.2127749326930564,2.631551899013402
0.00924992561340332,0.826599984075953,0.6788357260882385,-0.8890986659577074,1.4875575809459205,-2.128256186447123,1.2129064295634837,2.6318308757683995
0.010766983032226562,0.8266159337715142,0.6788942300031074,-0.8890386491813632,1.4875206834238572,-2.128306865314956,1.212904073690612,2.6318729285034212
0.01273488998413086,0.826541832557427,0.6790427865502467,-0.8891470055923895,1.487669231258234,-2.128379389909384,1.2130860989007108,2.6321738780182744
0.014255046844482422,0.8260047591764444,0.6777821743696812,-0.8891731205537381,1.487307386830806,-2.12765709375244,1.2131063699426115,2.632770015322285
0.01581287384033203,0.8252307584883158,0.6774449348453732,-0.8897821435816027,1.487686953172074,-2.128784534643265,1.212726057765281,2.6342023805135812
0.017345905303955078,0.8252683716665179,0.6779827654448473,-0.8896185964500563,1.4879290254800384,-2.1291249196251734,1.2132952059146103,2.6345965280029207
0.020313024520874023,0.8252684374486999,0.6779399406745501,-0.8897474776675339,1.4879969804222388,-2.129118228624112,1.213354548245904,2.6345934160666347
0.020411014556884766,0.8251005295935112,0.677984174378963,-0.8898800726720527,1.4881951915777598,-2.1292613765351436,1.2134887398381287,2.6349258546649863
0.024025917053222656,0.8251214319816014,0.6780418968917735,-0.8898316652350512,1.4881644735400463,-2.1293054292453415,1.2134868524287397,2.6349529476625064
0.024084091186523438,0.830298225814912,0.6837866112105152,-0.8975827677539657,1.4881453317413318,-2.1323542794753902,1.2046529559735857,2.6324536609386957
0.02564096450805664,0.8260171325217716,0.6810656707028301,-0.8999638146348067,1.4832211896884226,-2.1337605171675067,1.2031565941643734,2.6359202218824156
0.02738189697265625,0.8239516050927828,0.6856519367407602,-0.9061341506059498,1.4877156524886643,-2.1361863370831378,1.2050323955348565,2.6396436119668296
0.029208898544311523,0.8205093614342839,0.6878246505918126,-0.9047173612924425,1.4819552179840054,-2.138909853910579,1.2048718882348504,2.6463547898667357
0.030987024307250977,0.8196413261013147,0.6878671061718752,-0.9097083836013596,1.4855950408114742,-2.14086479186363,1.2073296487961511,2.6457656782138654
0.03423595428466797,0.8191394071303991,0.6884824989428299,-0.908192136859971,1.4845177754189638,-2.141188942374477,1.2064413099807854,2.6465654548073303
0.03432488441467285,0.8185874077857068,0.6893635844585585,-0.9115780271637732,1.486986768074203,-2.14251666051613,1.2068280850050466,2.6476270860295834
0.03577089309692383,0.8184890856576479,0.6897170305958945,-0.9100692171607884,1.4865669928517187,-2.143646850917952,1.2065428389294375,2.6504211343171646
0.03746294975280762,0.8182734114487221,0.6899882816677282,-0.9125338948252945,1.4888575119328469,-2.144872115410882,1.2074859781016727,2.651717637872283
0.0404820442199707,0.8176442872477357,0.6905337282629185,-0.9116162618145486,1.4889578166836366,-2.146011714408278,1.2076789379093973,2.6545405753948703
0.04055500030517578,0.8177461475781509,0.6909758407732242,-0.9133754789119568,1.4904852881433175,-2.1470722012591428,1.2086343136991848,2.6551578812219776
0.04536294937133789,0.8167480993784687,0.6907912047942568,-0.9127604858267431,1.4906055258035842,-2.148379983259402,1.2090079183901465,2.657434497772229
0.04696798324584961,0.817264712122643,0.6914074062148219,-0.9128971997573735,1.4912098041496407,-2.1485090737161063,1.2096954477381707,2.6566593074121267
0.04854702949523926,0.8182490432329841,0.6921885356377137,-0.9114227562053042,1.4916345784788332,-2.14682369677026,1.2116623192456963,2.6574616575393306
0.05157208442687988,0.8180103201917237,0.6924813433685005,-0.9114871702621721,1.4919657530533421,-2.1469459884587296,1.2115425692238775,2.6572075062017757
0.051651954650878906,0.8180658454696165,0.6924500797509602,-0.911648914934438,1.4920081384686001,-2.1470109951811187,1.2116201852647503,2.6572019141829655
0.05336809158325195,0.817786135977205,0.6924703803555965,-0.9119187485957404,1.4923581946018911,-2.1474623750226884,1.2117702050084078,2.6576726998274007
0.056478023529052734,0.815744957963933,0.6913461857463713,-0.9136916825187844,1.4913818491094253,-2.1474106235355412,1.2112028870654497,2.6568884905587775
0.05656099319458008,0.8155609723650848,0.6913793837303427,-0.9134312607029897,1.4912172568652597,-2.1473433149791576,1.2110742726903767,2.6569719232150444
0.05816197395324707,0.8152628684653084,0.6914432423044237,-0.9134770164397303,1.4904274509541802,-2.1472031313636775,1.2109815677859188,2.656630487100047
0.05965304374694824,0.815274109618335,0.6914389032236871,-0.9136327159605729,1.4904945207703546,-2.1471810669091966,1.2110066335894178,2.6565107004791466
0.06306099891662598,0.8151864919270375,0.6914643845562526,-0.9137434123751851,1.4902306641447984,-2.1469038121706596,1.2108181072834943,2.6562089382182643
0.0631399154663086,0.8152622132680807,0.6915167627956729,-0.9137415203337923,1.4901629121714655,-2.1468986293092454,1.2107586235216323,2.6561975406006644
0.06656694412231445,0.8144608156313815,0.6911024468127216,-0.9134068477750017,1.490507198093453,-2.1458868310395784,1.2102943077983466,2.65633330840761
0.06662607192993164,0.815865405375118,0.6905519585741462,-0.9132714448892771,1.4924523158350975,-2.1441827476259667,1.2095496163724178,2.6560201487875954
0.06812691688537598,0.8163385413610416,0.6905107321183201,-0.9133219940389509,1.4918528299961449,-2.144358871085778,1.2097254862958942,2.6561712958345707
0.06974005699157715,0.8164204384474159,0.6907194274619233,-0.9130814188632541,1.4918509394622625,-2.144482747215403,1.2095324738377635,2.6561462526663413
0.07128405570983887,0.817160651216407,0.6906286900141344,-0.9129246200891983,1.4919938385494889,-2.144387685715829,1.208935089524083,2.656135699881243
0.07317996025085449,0.8171427222830377,0.690537433525835,-0.9130074257447951,1.492052505835141,-2.1442779572861617,1.2089278939675405,2.656120151273977
0.0750730037689209,0.8162415975664361,0.6892657480685762,-0.9136682548082994,1.492942431372355,-2.1414378061862647,1.2102980374723795,2.656422698396313
0.07674407958984375,0.8164272650655212,0.6891748614444948,-0.9136204313841196,1.4926639950697866,-2.14141297180831,1.2104093774239866,2.6565597704463864
0.07824087142944336,0.8163918335735683,0.6892320864306698,-0.9135010817755446,1.4926413530750553,-2.1413650740687165,1.2103879369239823,2.65657134236253
0.07977795600891113,0.8165376409488614,0.6894492808087191,-0.9133202150828162,1.4925005291710776,-2.1409902942988315,1.2105979036245145,2.656428798012022
0.08133697509765625,0.8165470459465755,0.6894255977628078,-0.9133901637262829,1.492517711257117,-2.1409842727334287,1.210600762470571,2.6564073103041155
0.08301687240600586,0.816514015688478,0.6894082106409217,-0.9134801409433976,1.4924969729609978,-2.140975803673288,1.2104707538084176,2.656395645241554
0.0878760814666748,0.8160837540514962,0.6895218445111146,-0.9127758403890215,1.491802186881911,-2.140812356098664,1.210177531321642,2.6565347357664097
0.08956003189086914,0.8146702253340553,0.6899900865136854,-0.9134499420643505,1.4886206999500473,-2.139973106422382,1.2100237583193965,2.6538938344789367
0.0910940170288086,0.8149205340540593,0.6897704818014969,-0.9134787648313545,1.4886542700619085,-2.1393632977398633,1.2093650539077028,2.6534425868860474
0.09293007850646973,0.8151216989599166,0.6897683619115583,-0.9134841744382397,1.4884482777589958,-2.1393018122944896,1.2092515171767955,2.6533553406265966
0.09455704689025879,0.815035035326562,0.6901372386522344,-0.9134723373839421,1.488644557673222,-2.1394956184409706,1.2088805284277302,2.6530014031658298
0.09641790390014648,0.8151600963546362,0.6898816649804919,-0.9139518453691614,1.488091263022543,-2.1402083875563394,1.2074887001091634,2.6525595590616775
0.09795808792114258,0.8151459553088735,0.6896480730453394,-0.9140517690417506,1.4880484485612728,-2.139984189473884,1.2075219224310734,2.6526098758863896
0.09950709342956543,0.8152697144621517,0.6896221977854247,-0.9140701642114365,1.487896746132767,-2.139449227456604,1.2072415776316114,2.6521787860169908
0.10102486610412598,0.8153125099134667,0.6896961700068954,-0.914005095376192,1.487821843300296,-2.1395073417254347,1.2071870583515947,2.6521654860380233
0.10301399230957031,0.8153627638752771,0.689670916090414,-0.9141272420846107,1.4876610325346633,-2.139335271864518,1.2068852348164354,2.6519913633031837
0.10759997367858887,0.8152381795531507,0.6892989087972217,-0.915206123816135,1.488449695130976,-2.137687134844624,1.2077537022633906,2.6507650249881127
0.1092519760131836,0.8172863069641386,0.6905229698581588,-0.9140758218552766,1.4905795584247314,-2.1368724758896374,1.208223151454659,2.65097005876769
0.10936307907104492,0.8179596365935673,0.6897609075700891,-0.9139555881993598,1.4917311363885837,-2.1367342680048433,1.208288917003832,2.6524332000984656
0.11270904541015625,0.8181639847918591,0.690110716778822,-0.9135767455987448,1.4920418307291825,-2.1371733703466393,1.2082558511557828,2.6528832592533775
0.11278390884399414,0.8180191146070903,0.6899848945719512,-0.9136499482546127,1.4922510506796973,-2.1370271023680494,1.20827330212589,2.6529618484582858
0.11297798156738281,0.8181602348682627,0.6900988754801701,-0.91366002874895,1.4928606832821005,-2.137398964035262,1.2085980180006366,2.6537675926509383
0.11456608772277832,0.8188908870770432,0.6906174104238032,-0.9143563265221263,1.492628892292054,-2.1376738596352247,1.2091763838962366,2.65231169947121
0.11636590957641602,0.8167562059069263,0.6915084617062492,-0.9152304820939006,1.4903577172055067,-2.1386560145415165,1.2091129295723773,2.6505971403483906
0.11799788475036621,0.816358352716172,0.6911492423316938,-0.9151666506688944,1.4902991161334147,-2.1381902362601486,1.20907212921398,2.6507728874119505
0.12109994888305664,0.815948788696173,0.6912373646135695,-0.9154767626976835,1.4897171865879433,-2.137818152525379,1.209186476215712,2.6501473923621877
0.1211860179901123,0.8159634314611127,0.6913423688390017,-0.9153888399426563,1.489506938588793,-2.137805791631758,1.2090312549874909,2.650057818786605
0.12291288375854492,0.8159800985139366,0.6912824233214487,-0.9154826302668782,1.489447582903805,-2.1376930788997406,1.2089950067371709,2.6500105052903997
0.1246190071105957,0.8168688793826556,0.6919122244406913,-0.916329466857292,1.4893135409472427,-2.1380263669666713,1.2096983741368825,2.648196997007556
0.12679696083068848,0.8168536741676529,0.6923750830134738,-0.9156118200170128,1.4891832722563993,-2.137878750350479,1.2097284170608187,2.648038642918601
0.13300704956054688,0.817525434265813,0.6933211593301963,-0.9149881184509819,1.4888630863996064,-2.136341704438259,1.2110887271132726,2.647024600359439
0.13470101356506348,0.8182432169994953,0.6934501464193887,-0.9156720945656001,1.489183832327604,-2.1366116658279957,1.2116561357761453,2.6462644033356124
0.13782095909118652,0.818865951460117,0.6938937717339988,-0.915358524959389,1.4901761607026112,-2.1359256864424303,1.2126449176961158,2.6464571922621274
0.13933396339416504,0.8187699869163304,0.6939400722334178,-0.9151324262043604,1.4900957040240286,-2.135957571593038,1.2125276785643826,2.6465914269503843
0.13938689231872559,0.8187430622044299,0.693922483678739,-0.9151298032974741,1.4900058461098373,-2.1362383953818123,1.2124044296775496,2.6468759544433667
0.14090204238891602,0.818760903729638,0.6938933190184685,-0.9152413513320364,1.4900631752835323,-2.136229718144013,1.2124506471227927,2.646851701920862
0.14252209663391113,0.818709254038032,0.6939113398190784,-0.9153108373499079,1.4901630266440282,-2.1362345976776598,1.2124856999912232,2.6469362637232665
0.14430689811706543,0.8192074148100625,0.6934332561377433,-0.9160136114181672,1.4904910367676347,-2.1360558073177507,1.213068209130524,2.6461665825337986
0.14589309692382812,0.8188287293082024,0.6935295671479628,-0.9160382234392183,1.4906681525677192,-2.135897815397029,1.213059113921622,2.645979419171297
0.14736199378967285,0.8178060474546808,0.6938322179204947,-0.916488658990808,1.4898103663648645,-2.135479976025783,1.213852674217327,2.6452720290814766
0.14898896217346191,0.8178980785638889,0.6938949777792296,-0.9164141447282708,1.4896286742211948,-2.135583772697996,1.2138437871665686,2.645310182501215
0.1505439281463623,0.8178128685660068,0.6939592046014138,-0.9164722810198148,1.4894870424339477,-2.135607124883796,1.213743228816593,2.6452412747393472
0.15211200714111328,0.817798252993336,0.6939627590102994,-0.9165288292683916,1.489456826586098,-2.135532759526541,1.2137281138015525,2.645227132622329
0.15416502952575684,0.8182408024980232,0.6941428510017403,-0.9171748488007222,1.4899290253541098,-2.135450677014209,1.2139371049101295,2.644488379303142
0.15571093559265137,0.819293498073411,0.6939551888824919,-0.9168092835968233,1.4912383429960854,-2.1342684396534204,1.2136931553965429,2.644454107149334
0.1572859287261963,0.8194465822721284,0.6941567912712944,-0.9164659159016091,1.4910597944024617,-2.13443045510162,1.2135352999950388,2.6445460063182176
0.16034507751464844,0.820054213141497,0.6940996157928169,-0.9163731106133893,1.4913053276259314,-2.134302935990756,1.2131351013447014,2.644577612604831
0.16198492050170898,0.8200518385847076,0.6940719031051429,-0.9164037591581017,1.4913098855462508,-2.1341926871737797,1.213067071402988,2.6445694633653107
0.16205501556396484,0.8200924382723593,0.6941007640895481,-0.9164082958516312,1.4912533133154953,-2.134165824167498,1.2130239791923891,2.6445730112658645
0.16405391693115234,0.8200856560406582,0.6941235167181596,-0.9164500070882707,1.4912638614069391,-2.1341059813380365,1.2129791315798817,2.644561685147411
0.16578388214111328,0.8198059549148315,0.6929383515868177,-0.9173854775217021,1.4919469778878045,-2.132934180974043,1.2137033353659121,2.643416535478035
0.1673569679260254,0.8196633344854024,0.6931549835182215,-0.9173742571865358,1.4922011739720202,-2.1329909796890703,1.213538058057511,2.643186776701391
0.16887903213500977,0.8197573828110293,0.6931844642346833,-0.917607022643382,1.4922009649267582,-2.1330215320439074,1.2131532557994813,2.642813238224184
0.17043399810791016,0.8198185333955531,0.6930805873541471,-0.9176043566853619,1.492065368663114,-2.1329680997088736,1.2131681670946788,2.6428903656086193
0.1769869327545166,0.8198659581045796,0.693042083833085,-0.9175657836343744,1.491906775897051,-2.1327991337158743,1.212975432391895,2.6428117508737974
0.17704987525939941,0.8190407308806602,0.6933791708079057,-0.9167215024724961,1.4922377418095492,-2.132979000009256,1.212081718824986,2.6419382165326675
0.17855286598205566,0.8195739901926044,0.6938325626516881,-0.9170778545579691,1.4916168824518405,-2.133248522459292,1.2120768248099312,2.6411006487866144
0.1817610263824463,0.8184745730243758,0.6934940418992349,-0.9173570454209985,1.4878416515316746,-2.1310586611782045,1.2100549578286264,2.637505883510102
0.18382596969604492,0.8190882612359224,0.6936923810817347,-0.9175638818397737,1.4879787209468254,-2.1309085923935855,1.209718812846537,2.6367969309393247
0.18388795852661133,0.8192010508617711,0.6935728358769513,-0.9173701831025961,1.4878724890591914,-2.1304706227070414,1.2092623627401677,2.6366199563295414
0.18553805351257324,0.8185014691484358,0.6939310578051915,-0.9170664732561903,1.4882218311300408,-2.1301815082201565,1.2086847866147645,2.6357023601283185
0.18714690208435059,0.819200282902191,0.6946222416277628,-0.9173672450845903,1.4876078420332526,-2.1283511442708645,1.208009072790843,2.632471857592173
0.18874788284301758,0.8194964468850554,0.6941355375881675,-0.9172661649311816,1.4868598455000008,-2.128129470235024,1.2080451198601467,2.6328417503255674
0.190263032913208,0.8197165137639972,0.6938254181660523,-0.9169786727607019,1.48573613763403,-2.127296322135619,1.2068618933214261,2.63196704579457
0.19182586669921875,0.8196907460719823,0.6939817232006457,-0.9171547646703839,1.4859882282126904,-2.127287705878603,1.206777946660019,2.6316111660706896
0.1937570571899414,0.8200702663973176,0.6937824122044287,-0.9171796818099006,1.4852228117027169,-2.126304562129508,1.2058689323272211,2.630544256211565
0.1952810287475586,0.8201255591187357,0.6938654897755345,-0.9172141855880849,1.4852321391486232,-2.1263752084890903,1.2058559694851527,2.6304685253676405
0.197037935256958,0.8191961030115243,0.693765749080667,-0.9174292631839172,1.4856728515060194,-2.1255305554995103,1.2056723245286336,2.6299742286071024
0.19864487648010254,0.8194129132547954,0.693686669052276,-0.9177134365741917,1.485686766772914,-2.125424525407229,1.2058684242968587,2.629810661746657
0.2001960277557373,0.819778194157792,0.6938408708865951,-0.9177060684520558,1.4856491315814295,-2.1242530744898493,1.206061651003084,2.628913089385051
0.20343899726867676,0.8197102808468825,0.6939430795070557,-0.9174614877040083,1.4855446621025419,-2.124292728440841,1.2059006376972234,2.6289635125913855
0.20515990257263184,0.8198125154322184,0.6939532387326746,-0.9174145013929808,1.4852238937308966,-2.1243666885657375,1.2055547282792392,2.6288746308481326
0.20522809028625488,0.8195613773347958,0.6939384316045454,-0.9171216321902641,1.4853075657795434,-2.1242164511792705,1.2053548021232168,2.62901650376313
0.20673298835754395,0.8196394089734069,0.6938163523495788,-0.9171301139765525,1.4852713254417569,-2.1241697721330675,1.2053492853899062,2.6291308366726867
0.2083449363708496,0.8199982433641602,0.693708338361186,-0.9170701511227297,1.4856534029901436,-2.1241758453801234,1.2050144727546426,2.629406313162417
0.2098701000213623,0.8200594451010158,0.693809574054688,-0.9170855723841637,1.4856643190131753,-2.124128761854531,1.2050309074951011,2.629485260075633
0.21147608757019043,0.820036306568679,0.693833428042593,-0.9171417211202537,1.4856834724082655,-2.1241162677194456,1.2050081698245945,2.6294973894845803
0.2131969928741455,0.8200342487058636,0.6938442544398512,-0.9171257463187966,1.4856697807500099,-2.124116129527185,1.2049981744660545,2.6295126776160367
0.21777796745300293,0.8200614197461749,0.693581129284698,-0.917385322490349,1.485574659544043,-2.124051611701777,1.2050681241786527,2.6295627085949778
0.2194499969482422,0.8195142703905365,0.6931756666630962,-0.9179214808088995,1.4852894622444657,-2.1241845947056786,1.2046342019458525,2.629495102475607
0.22107291221618652,0.8194940021663643,0.6933485200302235,-0.9177806867679615,1.4852763529231585,-2.1242643427630843,1.2045610720550037,2.629451509616172
0.22295498847961426,0.8195502471318407,0.6933638702422164,-0.9177977021646462,1.485226036424345,-2.124286375447471,1.2045851612634835,2.62944258489816
0.22456789016723633,0.8199478438256064,0.6934590171589083,-0.9172517258253763,1.4859158641183776,-2.125266697871643,1.2036819880664595,2.630478135196808
0.22758102416992188,0.8201047135011366,0.693097788729672,-0.9175933573560155,1.486664177269033,-2.12535564868821,1.2037719904594322,2.631051844487749
0.2291550636291504,0.8201347878851842,0.6933366435787042,-0.9173760166495623,1.4868714575322206,-2.125612912762732,1.2037484385694759,2.6313234386822497
0.22922086715698242,0.8201173608968263,0.6932493619550133,-0.9175082595235515,1.4870952799093387,-2.125616110266023,1.2038906359705843,2.631584507918571
0.23081707954406738,0.8200991865977714,0.6933673007116836,-0.9174241194198761,1.487143767938657,-2.125717780363792,1.2039047723825835,2.6317305901718773
0.2327570915222168,0.8200730619922685,0.6933591001639444,-0.9175136876830107,1.4872366189150852,-2.125716203859845,1.203979746535588,2.6318525980798873
0.23461389541625977,0.8196674650111183,0.6935407446005677,-0.9170039724508434,1.4871569970086262,-2.125864400305988,1.2034897086534397,2.632035316229727
0.2364499568939209,0.8191862168148234,0.6931736986625276,-0.9175585025613193,1.4862171955683394,-2.1269778960980457,1.201842965841862,2.6326571789557125
0.23803210258483887,0.8193049312855171,0.6931243054365939,-0.9179407652906779,1.4863713041602145,-2.127012555561216,1.2020090348228716,2.6325000110328878
0.24119997024536133,0.8192161900536767,0.6931645367525071,-0.9179404733978601,1.486473784188513,-2.126997283008434,1.2019884602891433,2.632473565604201
0.24126100540161133,0.8190862280236355,0.6933349279890054,-0.9179996806428042,1.4866871875378016,-2.1270052431867636,1.2023493783073393,2.632716822036266
0.2429499626159668,0.8191236823509427,0.6933211290972955,-0.9180135191128553,1.4866315991115862,-2.1270405387204643,1.2023531584294296,2.6327496709034843
0.24457502365112305,0.8186601388150623,0.693738643360226,-0.9169672140756413,1.4858049604493637,-2.127264825925376,1.2016175450793998,2.6329696564816834
0.24651503562927246,0.8189361284037444,0.693777381941411,-0.917168491416037,1.485348778623217,-2.1274376948943647,1.2017129792723733,2.6328303694457067
0.24804902076721191,0.8181061867650404,0.6941055701849907,-0.9175780406545464,1.4835595162434938,-2.1277462819618576,1.2010343760829434,2.6315465649932417
0.24956297874450684,0.8178424721013097,0.6939258749173332,-0.9176101639739546,1.483720305836108,-2.127411135461422,1.2009687092076322,2.6315244834462455
0.2510349750518799,0.8179143275882168,0.6938754727095231,-0.917710746059283,1.4835418000740317,-2.126939678408888,1.2009043191742326,2.631140548830639
0.2527589797973633,0.8179670231484991,0.6939862464719705,-0.9176302740727365,1.483332523587503,-2.1269057819245885,1.2006718614221437,2.630976211545309
0.25449299812316895,0.8183650006413368,0.6930191720932983,-0.9168675841547012,1.4846039898265495,-2.12620684022305,1.2013798522593357,2.6330713486028454
0.2561008930206299,0.8179952787431264,0.6928872118104517,-0.9172701357347024,1.484992392064779,-2.12658484665186,1.201486837440685,2.6335241344937206
0.26055192947387695,0.8180388554717621,0.6930570505628592,-0.9172702513735767,1.4850319929205607,-2.1267277825359674,1.2016448674801783,2.633647929838403
0.2640268802642822,0.8179552460058102,0.6930780816440801,-0.9173163059745685,1.4851458435026483,-2.1267136463961376,1.2017069573020394,2.6337506079138646
0.2657010555267334,0.8173253388153043,0.6929111660634335,-0.9164477286396704,1.4845625964444775,-2.1264202073057548,1.2013263573626658,2.634207208671049
0.2657890319824219,0.8166469688619835,0.692740112974065,-0.9166015810744497,1.483379330546491,-2.126568111225236,1.2013101209320172,2.634221587169902
0.2674689292907715,0.8167013887384084,0.6927951238876542,-0.9168902749217861,1.483469134825445,-2.1266424877081067,1.2014031812470287,2.6340020335228482
0.27045202255249023,0.8163621338504988,0.6928932027465603,-0.9170945860232198,1.4832356736089198,-2.126598083527999,1.2014033470575092,2.633726912535491
0.27051305770874023,0.8163519746951692,0.6929277256877818,-0.9170897020499056,1.4830295478722437,-2.126563539866223,1.201386619240216,2.633712677078021
0.27216291427612305,0.8162894665118486,0.692947104351742,-0.9171349415252088,1.4830348279527115,-2.126488868150832,1.2013483677849204,2.6336673304830813
0.27379608154296875,0.8158644821488182,0.6917226551722327,-0.9172288322460054,1.4828765633285217,-2.1253692473335963,1.2015256411654092,2.6342324161132775
0.2754800319671631,0.8159953967885261,0.6918653776375229,-0.9170083810106475,1.4831599323351723,-2.1250991106227035,1.2016688958193724,2.6343309547392235
0.27707505226135254,0.8160366800081937,0.691866218792089,-0.9170909732251026,1.483185439353335,-2.1251763591757498,1.2016118830928755,2.6343894416522597
0.278702974319458,0.8160352852752135,0.6918699835624648,-0.9170774484805361,1.4831845966443056,-2.125168212243142,1.2016126867836594,2.6344004601618907
0.2799398899078369,0.8160361762201843,0.6918711535693148,-0.9170754112997057,1.4831848625726607,-2.1251665331466936,1.201613765465855,2.6344026226437256
0.28148603439331055,0.8160418379970603,0.6918624342575104,-0.9170872375431894,1.4831813912470246,-2.1251635779615303,1.2016169636467346,2.6344122075962138
0.28313207626342773,0.816040025795295,0.6918618630766606,-0.9170913450277547,1.4831835902829678,-2.125161300208053,1.2016137524732713,2.6344200500274773
0.2863888740539551,0.8155581254085362,0.6918156533978436,-0.9162522046008125,1.483514337800384,-2.1243194522039954,1.201546814386271,2.6348399559978946
0.2864539623260498,0.8177330641912601,0.6925657438150501,-0.9144889662918428,1.4850667688493728,-2.121593870147722,1.2036871293134734,2.6355414938752353
0.28963708877563477,0.8179821078976085,0.6926977827001315,-0.91475480198535,1.4850679688024597,-2.121787623617565,1.2037332046305922,2.635406579301885
0.28974199295043945,0.8179114572603811,0.6927536660951329,-0.9150449842795003,1.4850765125141236,-2.122753835778594,1.203285220612743,2.635705320512353
0.29116392135620117,0.8177198746320314,0.6926761708008417,-0.914974303738854,1.485178880599909,-2.122592971953743,1.203239900013308,2.6357867690470034
0.29274702072143555,0.817741247311717,0.6926238659740499,-0.9150288859228275,1.4851747586543205,-2.12256761166495,1.2032894524106204,2.635821481804077
0.2960948944091797,0.8174383366499935,0.6920949520678213,-0.9157710466010853,1.4853495215866095,-2.1228911182435257,1.2031287432137852,2.6360222137075504
0.2961618900299072,0.8170026846385313,0.6920955038949294,-0.915935788095582,1.4850316626334397,-2.123918725395171,1.2024827067444257,2.636729121790757
0.29778099060058594,0.8168324065494426,0.6920904788798256,-0.9161104825536709,1.4853078290272357,-2.12390676632159,1.2024909560658699,2.6366642482343243
0.30427002906799316,0.8164587607939693,0.6920421036253331,-0.9163647216611978,1.4854967844370734,-2.1244167131747456,1.2027164153362104,2.637352675343987
0.3045370578765869,0.8164907350766686,0.6922344194936287,-0.9163068005113406,1.4855783827494546,-2.1244529720598937,1.2028566893121466,2.6374297718970503
0.3063089847564697,0.8163964577245754,0.6925357411579487,-0.9157050318758759,1.485704973243772,-2.124376856601026,1.2026269120184199,2.6373149416401724
0.3079249858856201,0.8169405574415196,0.6926977826233264,-0.9156295547835731,1.4855635869230688,-2.124280848349775,1.202830708261557,2.637167422558341
0.3094749450683594,0.8178220004159934,0.6929855700914616,-0.9148877477425371,1.4858521052595706,-2.1228328171430455,1.2029901779532886,2.636644031712024
0.31125497817993164,0.8181467371477169,0.6928941781854475,-0.9149715489547011,1.4855791621478736,-2.1227381764272457,1.2023185222916806,2.6363058697160984
0.3145439624786377,0.8180983072384957,0.6929174843942938,-0.9149518130214853,1.4856233884282954,-2.1227018193336233,1.202287413558662,2.636277989906989
0.3146178722381592,0.8177009254700065,0.6928323236979288,-0.9154035895510665,1.4860986931837765,-2.1224356136417373,1.202190015117319,2.635899296345148
0.31626009941101074,0.8177608493956383,0.6926828184405535,-0.9155754799279465,1.4860820075043342,-2.1223958191762593,1.2019644779546146,2.6358479307684304
0.31932997703552246,0.8178299978926242,0.6927357848847429,-0.9155464356557336,1.4860075397377006,-2.122370997903954,1.2018141828014504,2.63580110559534
0.31939005851745605,0.8178625932677764,0.6927178453077901,-0.9156106386092823,1.48598396748163,-2.122281294042441,1.2017572156106369,2.635771386422278
0.3208920955657959,0.8178911191336933,0.6927778511397048,-0.9156109359570946,1.4859383665926647,-2.122249149071648,1.2016889925814533,2.635757269567187
0.3227529525756836,0.8179028819172502,0.6927908959638022,-0.9156697772970032,1.4859257199371452,-2.122187913153618,1.201656362421017,2.6357565337425384
0.32444190979003906,0.8179159631505679,0.6928511102984949,-0.915678831512044,1.485894549388391,-2.1221658991965975,1.2016129997603966,2.635771983189568
0.3259871006011963,0.8179189446692873,0.6928705075591917,-0.9157351970806464,1.4858876971166526,-2.122114337186041,1.2015921327622436,2.635794583131851
0.3275899887084961,0.8179279317195305,0.6929323016766549,-0.9157465366484892,1.485865337743039,-2.1221009522794385,1.2015593470861952,2.635819545110455
0.3291020393371582,0.8179285842999201,0.6929561103278236,-0.9158048907388293,1.485864996656454,-2.1220555256281854,1.2015438684339435,2.6358472576465184
0.332366943359375,0.817936034240272,0.6930158287788855,-0.9158145250104807,1.4858439691862568,-2.1220448498715405,1.201515027849703,2.6358766957876236
0.33246898651123047,0.8179351401997219,0.6930392294807115,-0.9158717589486776,1.4858436546348055,-2.1219996747163403,1.2015009905197147,2.635909218941636
0.3341960906982422,0.8179425475342448,0.6930986576798467,-0.9158813608697071,1.485824389703762,-2.121991343216946,1.2014740173631833,2.6359379908036464
0.3358900547027588,0.8178381563800747,0.6930185435010073,-0.9162278816708399,1.4862461781837109,-2.121809803728441,1.2014899353615986,2.6356921272111777
0.33741092681884766,0.8181418975835278,0.692929835974216,-0.9161122775977573,1.4863133772417958,-2.121402114619195,1.201129159878704,2.6356077806305227
0.3405430316925049,0.8182189280795711,0.6929416279603786,-0.9161738113862313,1.4862779086574731,-2.1214467710648823,1.2011597519452113,2.635580198223498
0.3421468734741211,0.8182135359713,0.6929760511152966,-0.9161678324992722,1.486278965460937,-2.121459988423591,1.201137364009369,2.6355589816150657
0.34223198890686035,0.8182128628248648,0.6930432519837885,-0.916260620955038,1.4861336677952175,-2.1213985655135748,1.2009885916754286,2.6354883918478955
0.3469080924987793,0.8186571970797099,0.6935450020732254,-0.9154638063060988,1.486090077670302,-2.121512727768454,1.2009082210951718,2.6356893466610543
0.348552942276001,0.8202398058808109,0.6936328754458762,-0.9148382591109768,1.4877212581936703,-2.1203875317296323,1.201469744372535,2.636161275983273
0.3501548767089844,0.8204140550941141,0.6936696110195496,-0.9147485847883384,1.4875051672583661,-2.1205629502969314,1.2014464292195712,2.6362818851931227
0.3520479202270508,0.8204408424200424,0.6936698713946853,-0.9147681364500915,1.4875825745424869,-2.1208096843420976,1.2012212907027704,2.6364720165831503
0.3537468910217285,0.8209002568978392,0.6925142577651077,-0.9142087913184572,1.4896816025142763,-2.1206802754756087,1.200887294542902,2.6387304043346367
0.3573489189147949,0.8218292227227019,0.693110392494078,-0.9144975947074945,1.490839190138933,-2.1216945884066596,1.2013425406903306,2.6392281083472637
0.3574059009552002,0.8217966841446201,0.6926096572136251,-0.9144483004065527,1.4906831016553603,-2.121421138129813,1.2014603456285518,2.6397513227291056
0.35899901390075684,0.8219353808190859,0.6926154023124542,-0.9144171668200062,1.492184206821386,-2.1221648277741645,1.2019864103589006,2.6414114621753315
0.3605499267578125,0.8218815969155285,0.6927990953635789,-0.9143935774695188,1.4920600575722076,-2.1223386290855353,1.2021979099761202,2.6415659585755913
0.3638930320739746,0.8217331741962665,0.6928316796098004,-0.9144255363794528,1.4921055087021917,-2.122328797690863,1.2022817921087599,2.641687700585173
0.36747288703918457,0.8196856513612464,0.6921588414561892,-0.9158139095001673,1.4886950699906185,-2.123488133615676,1.2008500457711795,2.6414672466205484
0.36901307106018066,0.8192691167270538,0.6923953937780992,-0.9156001400531469,1.4889273953504978,-2.123504154784032,1.2005891663154267,2.641294116660902
0.3691079616546631,0.81839274041671,0.6926321345735433,-0.9160965112519559,1.4883351968140615,-2.123841318014466,1.2003599565530387,2.6406873801980084
0.37052202224731445,0.8185239120444748,0.6925000324783482,-0.9161891311066365,1.488176534951061,-2.123811110481927,1.2004610517431857,2.640759884402632
0.37057995796203613,0.8184904229741075,0.6924880070653546,-0.916140026667672,1.4881426808368918,-2.12375477558272,1.2004472221140703,2.6407872931953125
0.37221598625183105,0.8185042292321587,0.6925928246048938,-0.9161579525590893,1.4879971383819226,-2.1235357382696716,1.2004744700637933,2.640653983931025
0.3739359378814697,0.8202178007099623,0.6914022863061385,-0.9151596932208956,1.4899175984864657,-2.121031833575456,1.2005081877294546,2.642578233953517
0.3771228790283203,0.8202250467601734,0.691908599204033,-0.9144478125204204,1.4904148593588353,-2.1213054115482297,1.199887406177135,2.642006938703685
0.3803870677947998,0.8220042616937342,0.693145128668819,-0.9139632046795275,1.4923081382707302,-2.1223341086156373,1.199882805428771,2.642778694109194
0.3804800510406494,0.822184078533115,0.6924118223539875,-0.9143057231843952,1.4921730770537105,-2.1219897694494008,1.2001676884009373,2.643189081057673
0.3805720806121826,0.8222308818341001,0.6918356321876562,-0.9142913032038954,1.4930629445520456,-2.121881237235943,1.200237184495157,2.644298824027007
0.38224005699157715,0.8222408497594557,0.6921974793398332,-0.9141027804751402,1.4932075756684293,-2.122077010213867,1.2001368032120774,2.6442104708035403
0.38390588760375977,0.8222718978737145,0.6910073471029811,-0.9151386645095532,1.4940992228267829,-2.1231936448112116,1.1978321830038114,2.6455546053379497
0.3855109214782715,0.8223108717455737,0.6911148610620089,-0.9153008550682965,1.4944175402913742,-2.123456063177944,1.1980588640006955,2.645821501068145
0.3919789791107178,0.8222243934975675,0.6911348869967924,-0.9152011230485798,1.4944569703111865,-2.123500558670143,1.1981538938124443,2.6461329991334877
0.39203500747680664,0.822240316664127,0.6911828991309882,-0.9153138469229182,1.494555476918579,-2.123583201719563,1.1982570096662064,2.646215036823932
0.3937070369720459,0.821798188795528,0.6915890287021375,-0.9142984713519612,1.4940132593348783,-2.1238022073243146,1.1974501781102502,2.6462919200781196
0.3968820571899414,0.8222259038494774,0.6917901274692052,-0.9144855615452097,1.493510396001441,-2.124000886958644,1.1975335557577693,2.646139260693615
0.3969888687133789,0.8220275538119354,0.6920085257392043,-0.9143532736072328,1.493446478222678,-2.1241818155566654,1.1973160277164308,2.6460197312016676
0.39858198165893555,0.8212875305665246,0.6919404612078328,-0.9149471783678711,1.4923783138207194,-2.1247780006830426,1.1967017064603818,2.6455334805596893
0.4001920223236084,0.821270132780918,0.6918297367993109,-0.9150454637871189,1.4923952360298716,-2.124627550779067,1.1967595589512279,2.6455211485944163
0.401961088180542,0.8213019367887596,0.6919630667299197,-0.9150046337311858,1.4922815747332105,-2.1242799172146642,1.1968043269322628,2.6452864104970817
0.40540003776550293,0.8213339536215851,0.6919801968568261,-0.9150793546394053,1.4921554829790682,-2.1242654302712465,1.1966285204604343,2.6452370288044964
0.40546607971191406,0.8213240049796019,0.6919947391651402,-0.9150897803918853,1.4921507072699782,-2.124188860218286,1.1966025494218602,2.6452385383690036
0.40854597091674805,0.8213571912328113,0.6920479909467571,-0.915113331412781,1.4921164479829279,-2.1241695263293483,1.1965744709287265,2.645236381482905
0.40860509872436523,0.8213436407989422,0.692062949946345,-0.9151432385138695,1.4921204842811735,-2.1241228305112965,1.1965474588472567,2.64524730733347
0.41187095642089844,0.8213694916262085,0.6921124576226637,-0.9151671055047987,1.4920874676852043,-2.1241110213778205,1.1965232759318318,2.6452659348742302
0.41203904151916504,0.8213542693120328,0.6921301349932742,-0.9151979310477699,1.492097078538596,-2.124070778450869,1.1965023176297163,2.6452817987397195
0.4136800765991211,0.8221014989057014,0.6926603299590668,-0.9143008946182392,1.4906951514114002,-2.124356370422578,1.1970867949572763,2.6456154262195586
0.41528892517089844,0.8224175541596118,0.6932912753816054,-0.9139165279443039,1.4912455727810567,-2.1240824800641356,1.1972415037419037,2.6451845043642592
0.4199070930480957,0.8236453900264707,0.6934027618475266,-0.9128484167626901,1.4915420700200666,-2.1223521238160066,1.1979991554229708,2.6453404702268686
0.4199709892272949,0.8238655125289106,0.6935393842618213,-0.9130873121051154,1.4916436155611974,-2.1225307365364072,1.198049983559711,2.645112551437481
0.42189908027648926,0.8240292200555605,0.6935946157055821,-0.913102776069428,1.491738779397395,-2.1225402544510543,1.1977897200101477,2.6449959544602524
0.42196106910705566,0.8240065138705941,0.693548483677649,-0.9130616119768987,1.4917179981341158,-2.122474327733369,1.1977521223868204,2.6450413223115268
0.42331790924072266,0.8242109455653723,0.6935405378469559,-0.9131109474989642,1.4917073687983817,-2.122280237863752,1.197474270053152,2.6449479712114474
0.4249730110168457,0.8247133179001521,0.6936330880195541,-0.9132600471972963,1.490814008681968,-2.122472870477963,1.1978456322430238,2.64508138987884
0.4265410900115967,0.8246320310657982,0.6939920606777069,-0.9130008213456154,1.490753260270658,-2.122666775856305,1.197704090984159,2.6450067939473616
0.42820191383361816,0.8247196483550573,0.6940150603912367,-0.913090948635633,1.4906315250995337,-2.122800458043362,1.1977752309303793,2.645008241400889
0.43299293518066406,0.8242247315520199,0.6942090916680173,-0.9133255757249569,1.4902832378755493,-2.123327767718522,1.1978879165916427,2.645139224262505
0.4350719451904297,0.8241187604199556,0.69417032635464,-0.9133265654602634,1.4903636701172296,-2.1232334117731053,1.197883289842915,2.6451623578439363
0.43671107292175293,0.8240743237299023,0.6941859961364307,-0.9133825056571959,1.4904234879222944,-2.1231634224531786,1.1980007682581901,2.6452404949208495
0.43828892707824707,0.8241057769567579,0.6942172339117655,-0.9133775914044211,1.4903936552843182,-2.123200239755264,1.1980129105221302,2.645253148743128
0.4398930072784424,0.8240612597309219,0.6943662580368136,-0.9134280163552256,1.4904171341748946,-2.1232404932729296,1.1980895087681367,2.6454449451819686
0.44155287742614746,0.8240567601886547,0.6943711798656272,-0.9134823745378555,1.4904318728739854,-2.1232082458386876,1.1980766670804712,2.6454756263230923
0.4450690746307373,0.8240725770992158,0.6944705781536001,-0.9135213762306084,1.4904110612065837,-2.1231875463729484,1.1980301709246477,2.645539339032593
0.44514989852905273,0.8244590174799522,0.6943092478331954,-0.9137101065554459,1.4899046362555475,-2.1233190212195545,1.1983389297510676,2.645679561920535
0.44669508934020996,0.824558472617357,0.6944951895060416,-0.913452843803801,1.489813992160774,-2.1233328602903385,1.198319464834991,2.645693752190122
0.4482998847961426,0.8249354097203664,0.6946692514729991,-0.9132679555317375,1.4899511451128515,-2.1228347033662582,1.1985478755010315,2.645563554168855
0.45139098167419434,0.824960302341862,0.6946602586646287,-0.9132637317153743,1.489906255272075,-2.1228447735204883,1.1985244572137974,2.6455837220073017
0.4514648914337158,0.8249833901762957,0.6946608244385006,-0.9133476097119612,1.4898786937567985,-2.1228389229565408,1.1983339752138493,2.645563288322017
0.4529740810394287,0.8250258594035844,0.6947204378095907,-0.913364208628836,1.4898296688216663,-2.1227350521702038,1.1983222624283467,2.64557613315767
0.4548020362854004,0.8257842364870555,0.6952584958419354,-0.9121938930808382,1.4886398967368104,-2.123025880274168,1.1983675621713754,2.6461162135990355
0.4567110538482666,0.8270976744878947,0.6958901976996636,-0.91153308677184,1.48997783199547,-2.123076644166529,1.1983379696931773,2.6464643042388367
0.4581899642944336,0.8273247548329038,0.6954862265990887,-0.9117315643940166,1.4903971370725109,-2.122865991001815,1.1984284409143326,2.6468790708530503
0.4597599506378174,0.8275083620439697,0.6956332244367901,-0.9116958287531359,1.4903387147378877,-2.123059302012603,1.198446079288149,2.6468790819215324
0.461306095123291,0.8276996023433661,0.695695553098031,-0.9115893133188849,1.490636434844021,-2.12318476816799,1.1984366942623068,2.647278757232659
0.46299290657043457,0.827666835247418,0.6957004451805617,-0.9116755106762228,1.4907041434460664,-2.1231729894222524,1.198488204666069,2.6473480368374065
0.46471405029296875,0.8282415641527173,0.6945360080637818,-0.9122263140578574,1.4895319011279913,-2.123243503145826,1.1989477307471612,2.6478818481211612
0.469419002532959,0.8279593092867478,0.6944640874954705,-0.9117271074186692,1.4893650249222066,-2.123308965305085,1.1987098972655188,2.6483579887504125
0.46947598457336426,0.8276616231314885,0.6941264404560263,-0.9120759231427104,1.489921356142193,-2.124651941309632,1.1986807993167656,2.650210209968773
0.4695279598236084,0.8275225122978812,0.6945226965389792,-0.9121294624902379,1.4904540460397737,-2.1248720660836673,1.1992022451238766,2.650452034824343
0.47096991539001465,0.8275026224635847,0.6945344036121879,-0.912149380626395,1.4904604317649233,-2.1250462831957253,1.199460341860801,2.6508730612330593
0.475740909576416,0.8274152403123093,0.69462488078057,-0.9122433051878397,1.4906497634390008,-2.1251289836875724,1.1995621449881828,2.6509874008734893
0.47742605209350586,0.8290344495109705,0.6950376923007187,-0.9132145296875368,1.4912497800852984,-2.1232003761150593,1.2018298374398144,2.649277144829239
0.4789578914642334,0.8286589162419434,0.6947939818647046,-0.9121273941263215,1.4904507866493504,-2.122626029847959,1.2016167855323803,2.649844562950586
0.4805319309234619,0.8290897323685215,0.6951428526107558,-0.9116361157474687,1.490180596301192,-2.1221166472371364,1.202260901513225,2.6498859142636655
0.48238086700439453,0.8291041991180939,0.6951201332128352,-0.9118232317190939,1.4903152544712917,-2.122066845165414,1.202332741232377,2.6497815850641673
0.483989953994751,0.8290878044886537,0.6951545930121198,-0.9118308959902861,1.4903549053763399,-2.1219414000221337,1.2023710163978367,2.649773123390006
0.4856870174407959,0.8290962484457065,0.6951877086278054,-0.911805100909907,1.4903368758196704,-2.121954162571104,1.202360236721227,2.649777309796617
0.48726391792297363,0.8291520501787688,0.6953924221105537,-0.9118943851770415,1.4902629178017333,-2.1217994021910402,1.2023085174716128,2.649846846684288
0.48888206481933594,0.8291175882386441,0.6953945558306084,-0.9119593400251624,1.4902770332701294,-2.121793057563131,1.202248280657171,2.649891745606816
0.4904139041900635,0.8291424836897159,0.6954772070906259,-0.9120035445462044,1.4902409122482856,-2.1217713811139776,1.2022197727414858,2.649962044569321
0.4920840263366699,0.8291242092796227,0.6955037397118289,-0.9120463913371636,1.4902572001028522,-2.1217273119884945,1.2022014894839603,2.6499872409063214
0.4938008785247803,0.8296861868914541,0.6944184263756359,-0.9118586580148292,1.4895939396382465,-2.120953707919693,1.2022972614774232,2.6505091268281538
0.4985790252685547,0.8327926080010085,0.6937182495511642,-0.9102925190193517,1.4910875114818598,-2.118803283161627,1.2004551760389452,2.6504042070782123
0.5001790523529053,0.8333449696781924,0.6938106199866908,-0.9104413591045287,1.4909270671470516,-2.118920549773181,1.199699535140059,2.649805253231316
0.5017590522766113,0.8332509476161454,0.6938233213964701,-0.9104089698121588,1.491005812587073,-2.1188456209873663,1.1996289118269414,2.6497625239366083
0.5018739700317383,0.8333247870401073,0.693742021089863,-0.9104983383226071,1.4909548648709576,-2.1184492895724136,1.1993551098182629,2.6494463694137167
0.5035040378570557,0.8334220472886754,0.6937621889941865,-0.9104940247310283,1.4908531230831925,-2.118500907837312,1.1993636993394725,2.649450557975801
0.5035579204559326,0.8339281942607546,0.6931927767435571,-0.9101801408899607,1.489817657425676,-2.118250108857185,1.199602680696042,2.6499216044289593
0.5053339004516602,0.8348630095978589,0.6933427491293901,-0.9092150374262674,1.4895345456654636,-2.1173748298846515,1.1993357127415274,2.6498002786576214
0.5069820880889893,0.8347440394729884,0.6934189088545433,-0.9093491182334854,1.489881124980541,-2.117273115278473,1.1992359888050368,2.649542643021491
0.509990930557251,0.8350858854294241,0.6932512355541142,-0.9094587702268397,1.4899143771879422,-2.1168108212230963,1.1988440577240609,2.6491566915303517
0.5100889205932617,0.8351810112342126,0.6932909952723615,-0.9093728621565745,1.4897679497531908,-2.1168515159773826,1.1987990091202303,2.6491724605432148
0.5117449760437012,0.8353697583591535,0.6932948421292232,-0.9094549333265924,1.4896193512726688,-2.1165339782778507,1.1983974979091245,2.648792583454395
0.5134460926055908,0.8353641081592743,0.6932897458888482,-0.9094115197576834,1.4895726310705533,-2.116515890084776,1.198378402153843,2.6488269284302803
0.5182979106903076,0.8360402637240447,0.6910320681505405,-0.9100984552666195,1.4901308638589752,-2.116080732077529,1.1979850642213106,2.6504243472500986
0.5214591026306152,0.8367863674429183,0.6915081941626733,-0.9101138653988161,1.4899115047113103,-2.1163701289462002,1.198058614821502,2.650382868379236
0.5215299129486084,0.8374383306716924,0.6916141557713215,-0.9098544292481998,1.4906460992090311,-2.117164167317008,1.1975427125028955,2.6511204432043614
0.5235750675201416,0.8372678347959073,0.6914308297081618,-0.9098852388224251,1.4908430140130766,-2.116958004372239,1.1975304220534198,2.651251668274194
0.5253019332885742,0.8375120990671597,0.6914369452960478,-0.909918548081679,1.4914538614190527,-2.117159773960481,1.1976770440774227,2.6518496462228773
0.5268368721008301,0.8374705078546514,0.691524512351666,-0.9098798409260621,1.4914133551986628,-2.1172355664800913,1.1977203888888843,2.6519740024119947
0.5299649238586426,0.837430448392196,0.69151986206067,-0.909940796489044,1.4914348751054256,-2.1172192751584307,1.1977701107460192,2.6520535870578104
0.5300679206848145,0.8374492341366052,0.6915499624677375,-0.9099413946150147,1.4914231953597927,-2.1172479448281276,1.1977767571253695,2.652060748582122
0.5315749645233154,0.8373787793673876,0.6916760464553281,-0.9100385716072773,1.491459201011811,-2.1172536561463735,1.1978410508000394,2.652295635429421
0.5330519676208496,0.8374089376575903,0.6917252998851573,-0.9100667268217278,1.4914511117132265,-2.117252427871526,1.197820806796294,2.652301109634686
0.5347108840942383,0.8373991144065869,0.6917453056928327,-0.910097001459673,1.4914546975117144,-2.117205492468405,1.1977934180588612,2.6523277653083106
0.5365540981292725,0.8379129644606921,0.6907537534960199,-0.9103760984706121,1.4904014502575509,-2.11735612908474,1.198206473243418,2.6528064276426817
0.538079023361206,0.8378411895927986,0.6908341399149451,-0.9098683311338849,1.490188488632494,-2.117470979643385,1.1979230764308824,2.6531131167957285
0.5395848751068115,0.8381762954333535,0.6906837233450993,-0.9098422044748747,1.4902929967324006,-2.118002742152629,1.1974605960052789,2.653605043686863
0.5411429405212402,0.8381797118075542,0.6905986968932712,-0.9100029068968253,1.490421056728167,-2.1179449811905644,1.1975101963326358,2.653590236787989
0.5428750514984131,0.8382348223184345,0.6905809555440994,-0.9100149366894532,1.490650068731476,-2.117953441384066,1.1974873212871333,2.6538164145436247
0.544543981552124,0.8387035499151289,0.6896279373160499,-0.9104664735420478,1.4896900060780967,-2.1179969777940677,1.1978634708090974,2.654252800209903
0.5462069511413574,0.8386291677276327,0.689599246934758,-0.9101655114462878,1.4896636663077982,-2.1180635824447758,1.1977730473043378,2.654628990874318
0.5477240085601807,0.8388674602856114,0.6896246648793657,-0.9103564879414563,1.4909980118447836,-2.119157728147136,1.1980858584493408,2.656086847660395
0.5507678985595703,0.8386953866444016,0.6896783739956633,-0.9101832883366817,1.4909679935608096,-2.1190947478543456,1.1983290789413086,2.6564224328306043
0.5523519515991211,0.8387052885473256,0.6897535001406102,-0.9103083441134417,1.4910314269552039,-2.119188882090872,1.1984990223698657,2.6564919285051083
0.552422046661377,0.8386148611297974,0.6898080328296554,-0.9102906030997622,1.4910581971845283,-2.1192305985104176,1.1985888860632838,2.6567051807083737
0.5538780689239502,0.8386184695424224,0.6898513088152584,-0.9103622716627398,1.4910985589668626,-2.119266462185916,1.1986416030823765,2.6567584638493393
0.5557971000671387,0.8385906270387309,0.6898983923029809,-0.9103648375895304,1.4911011554864666,-2.119270808220074,1.1986556611702952,2.656868228177537
0.5606029033660889,0.8408316613751093,0.6894614692569804,-0.9088942200255937,1.4902224361664853,-2.120323807601394,1.1977058494672514,2.659394484584753
0.5622470378875732,0.8412204792507704,0.6887622830751673,-0.9097342198882714,1.490834077977825,-2.12050451290284,1.1982603174722508,2.659045836954843
0.5645420551300049,0.8417549998360697,0.6876738491291613,-0.910250329640302,1.4897367740083771,-2.1207115524134044,1.1986905300598547,2.6595428129979295
0.5658628940582275,0.8427810754822259,0.6872699479088709,-0.909515663949127,1.4903193632768084,-2.121857322772885,1.1990258684721697,2.662292561582583
0.5676589012145996,0.8421360516529772,0.6875983254572611,-0.9093733246890617,1.490642255727946,-2.1219296215941568,1.1987324960372066,2.6620410920800976
0.5692260265350342,0.8422185581776068,0.68761643935979,-0.909848329829322,1.4910966675494228,-2.122125347789813,1.1989713550117325,2.66198703169822
0.5708329677581787,0.8420374548271288,0.6875573953350698,-0.9096517366204384,1.492717076731509,-2.1234030496816283,1.1999210468827557,2.664686671580125
0.5726890563964844,0.8420404443176028,0.6878752493182333,-0.9098556439808497,1.4928873221339045,-2.1236879448466572,1.2002933314041728,2.6646728179536416
0.5743529796600342,0.8431023657425439,0.6874159562969492,-0.9086423065643238,1.4907062652780851,-2.1240980211651985,1.2011474640011097,2.665657410184401
0.5774450302124023,0.8429610050431023,0.687811040620809,-0.908262828843733,1.4907230284969801,-2.1243115443044034,1.2008411768765206,2.6656793549273385
0.5792520046234131,0.8430171666208675,0.6887393239998993,-0.9087167167766351,1.4905558150074292,-2.1253750456103697,1.2006282701904192,2.666258556994448
0.5794010162353516,0.842873699816432,0.6882977395099878,-0.9090042473953545,1.4905656686189879,-2.125272752136382,1.2007647653144564,2.6665823922381726
0.5807220935821533,0.8419277642522299,0.6882282143935594,-0.909613164493203,1.4911746246459443,-2.126630798461132,1.200974905988751,2.667874344787283
0.5823819637298584,0.8420516412931397,0.6885682886515258,-0.9094007900193875,1.4913114456929546,-2.1266613219042294,1.2015724818734053,2.6682391520093613
0.5885660648345947,0.8434445413084243,0.6874424197584712,-0.910232902825641,1.490211605755469,-2.1281451879034736,1.2017612533392752,2.670384838051067
0.5901200771331787,0.8430655200468116,0.6875085902410991,-0.910084952671377,1.4904591767594086,-2.1280675488361895,1.2016010310688439,2.670430188983624
0.5901939868927002,0.8424194461856556,0.6873409464545741,-0.9104714794286235,1.4914489010369547,-2.128691425746688,1.2018827174057447,2.6714586217954244
0.5916039943695068,0.8426945050353554,0.6873375609962129,-0.9105306721126097,1.4912201644122354,-2.12883274067811,1.2020366122517057,2.6715443166386716
0.591667890548706,0.8426723673246478,0.6874551402370024,-0.9103998476744399,1.4912135919756488,-2.1289050368317177,1.2020284698341794,2.6715990853245954
0.5932469367980957,0.8426362392530876,0.6877215814116454,-0.9103393097435272,1.4914384088067354,-2.129161719418008,1.202532867450036,2.6721261809448285
0.5948638916015625,0.843294651641218,0.6869996931973598,-0.9106696410276851,1.4900861275813118,-2.1294143463224806,1.2030617487520738,2.6727345041961255
0.5964648723602295,0.8436492376183335,0.6874962954759302,-0.9098733814298724,1.4897823548180533,-2.12967936644733,1.2026553602441576,2.672973927020751
0.5981109142303467,0.844370692065429,0.6878208163327566,-0.9100332451011919,1.4905305375854487,-2.13070200138564,1.2021087364591383,2.673399635107848
0.6027538776397705,0.8443896365069953,0.6874145989554189,-0.9101466962339092,1.4904249848404636,-2.1304930183303714,1.2022230728339727,2.673702307398512
0.604377031326294,0.8443119410317539,0.6872434199270826,-0.9101766800209576,1.490795486422232,-2.13054409789076,1.202230959843003,2.6741692515731095
0.6061298847198486,0.8443455971171788,0.6873853804933626,-0.9101222049252397,1.4908316203129297,-2.130669887352712,1.2022154024733263,2.674160432269079
0.6075398921966553,0.8443818560770786,0.6874645565574214,-0.9101182950665067,1.4911250937450797,-2.130913294345731,1.2024204555564209,2.674730788282386
0.6105570793151855,0.8443244287418495,0.6875102770789386,-0.910181222072749,1.4911762707261633,-2.130904393052749,1.2024578739150402,2.674747321905747
0.6106300354003906,0.8443321863951693,0.6875564263719716,-0.9101990819900406,1.491150444755888,-2.1309257072465377,1.20247664809475,2.6747872579290712
0.6122839450836182,0.8443012319301079,0.6875834595206373,-0.910236136299737,1.4911706806435412,-2.130900567683706,1.2024793355107009,2.6748305556551784
0.6139090061187744,0.8470314125024271,0.6888227683316835,-0.9101847371484244,1.4891663625107738,-2.1319895877228348,1.2007765891016315,2.6747291934339144
0.6154730319976807,0.8461218353491464,0.6875032497190771,-0.9113570817743548,1.4903651483554925,-2.1324258324764385,1.1994191019505849,2.675310794030987
0.6170690059661865,0.8464588500726707,0.6872944638147864,-0.9115466254335953,1.4900135808019885,-2.1325548152959706,1.1996003706975085,2.675501300929679
0.6185379028320312,0.8464262948836986,0.687331696268437,-0.9113976654455193,1.489948733050714,-2.132729693358334,1.199468156886578,2.675680541348
0.6200149059295654,0.846342011187191,0.6871474305091619,-0.9117799612339241,1.490400622770714,-2.133383664953603,1.1993084628806152,2.6762637487506287
0.6215300559997559,0.8463330505753835,0.6871871622650689,-0.9116479673659578,1.4903427702804122,-2.1333709432449277,1.1993191274723367,2.676346015855933
0.6233179569244385,0.8463151970543414,0.6873240708642361,-0.9116589545848468,1.4904372476959586,-2.133332596774149,1.199605201044414,2.6765212687167113
0.6249520778656006,0.8475989882737898,0.6870811726764097,-0.9119285556509602,1.489946892374338,-2.1339726153940437,1.1985356409634984,2.6761339748835162
0.6279768943786621,0.8481206535949078,0.6863317108981157,-0.9121989920650008,1.4901382047164884,-2.1331940864048384,1.197612785736365,2.6757744077446883
0.6280438899993896,0.8480499823887943,0.6863904766724112,-0.9120148730538031,1.4901114051665025,-2.1331554920195637,1.1974853475656253,2.6757909258689803
0.6311590671539307,0.8483759082691865,0.6863828233248942,-0.9118066170377861,1.4897857350661246,-2.1328611347386546,1.1970245238285337,2.6755161346911245
0.6312260627746582,0.8484176237754056,0.6863296198726236,-0.9119605081010212,1.4898347941361605,-2.1328235238472146,1.1970605187852235,2.6754408860977357
0.6328999996185303,0.8484244226050789,0.686295505819452,-0.9120417275702319,1.489830324549134,-2.132657789709245,1.1969216992276963,2.675278432279862
0.636023998260498,0.8491139200591667,0.6854002087547749,-0.912708369541802,1.4884109725893582,-2.132921487423464,1.197478109589407,2.675915763100085
0.6361160278320312,0.8498650298013415,0.6860181603605169,-0.9119344764649805,1.487765374584918,-2.1332495493205554,1.197183709338329,2.675872456983357
0.637578010559082,0.8501068444910608,0.6860381687575401,-0.9121304690818491,1.4880387773877533,-2.133567818165178,1.1969341493210477,2.675886763035133
0.6391239166259766,0.8500998380278619,0.6859988466878619,-0.912097532729484,1.4881500339282698,-2.1335491277925502,1.1968295570599055,2.6760027549384717
0.6438169479370117,0.8501708108134316,0.6860405775222755,-0.9121073263339793,1.4881928623058218,-2.1335903481978793,1.196803340393038,2.676058901565767
0.6455190181732178,0.8510517320374985,0.6850080193612818,-0.9129603258497275,1.4863790051868817,-2.1339279104346316,1.1975153169560353,2.676874032824146
0.6471269130706787,0.8516895812350257,0.6855943544699233,-0.9115821337856354,1.4851449467542082,-2.134238750755473,1.1969960265107895,2.676824881665469
0.6486670970916748,0.8519303704137338,0.686053694092358,-0.911946177385652,1.4852166275828729,-2.1344822827064176,1.1970246759510434,2.6763166296842624
0.6502048969268799,0.8517788111269624,0.686153004808433,-0.9118591957482624,1.4850951149187614,-2.1346340690374843,1.1968828661943758,2.676312952236111
0.6517848968505859,0.8512727987709519,0.6860236665203654,-0.9122994113911399,1.484643245777444,-2.135011471621799,1.196663924225711,2.6762250078073313
0.6535639762878418,0.851188112062917,0.6861690645219969,-0.912314273304219,1.4844768349432778,-2.1349036224965143,1.1967653790043764,2.6761451388107744
0.6551799774169922,0.8540858444896429,0.6862206295397517,-0.9122787798390279,1.48418492249861,-2.1360122614635566,1.198102892470448,2.677283239351877
0.6567270755767822,0.8534371856139058,0.6854818083482119,-0.912012133007464,1.4845765144491374,-2.1351901254966412,1.197990351576172,2.677794689425428
0.6583139896392822,0.8541883676965412,0.6850221430320801,-0.9118397046351598,1.4862290943934888,-2.1354068452732275,1.1984847631351758,2.679589772307503
0.6598200798034668,0.8542592532769401,0.6854917167223399,-0.9116575385567246,1.4864286720153914,-2.13591415531339,1.1986133394188043,2.679913614110537
0.6615040302276611,0.8541852460472263,0.6853690533476388,-0.9119419404178658,1.4867014708168973,-2.135973928944768,1.1988626736432626,2.680138432563701
0.6647999286651611,0.8542629314602591,0.685426461573966,-0.9118672285733039,1.4866001221734682,-2.136082759709144,1.1988943020554907,2.680230489455217
0.6662609577178955,0.8548836387126634,0.6842230574216123,-0.912469226064347,1.4853199302494042,-2.1363206690387986,1.1993966980488024,2.680805138663581
0.6663200855255127,0.8555984211142308,0.6847404578172822,-0.9127389682465774,1.4853827982481842,-2.1365941723316686,1.1994368059374054,2.680541495437357
0.6678729057312012,0.856290190379631,0.6847601740680942,-0.912492766539748,1.4859075460398032,-2.1376288274338595,1.1987079968596586,2.6815389241821777
0.6694459915161133,0.8560434841418423,0.6846562990421918,-0.9125640960883685,1.4862287214985002,-2.137451744684773,1.1986692375851216,2.6815620238490316
0.6709530353546143,0.8560661161709138,0.6845304610843236,-0.9127053647090237,1.486609518847828,-2.137526362143803,1.1988124118065258,2.6819223363288653
0.672652006149292,0.8561509065818086,0.6846026127650033,-0.9126500901613988,1.4865501860607224,-2.137639441396421,1.1988349847774247,2.6819847516130464
0.6742310523986816,0.8569351936997359,0.6839446251357154,-0.9134117391018381,1.4849306141290033,-2.1379390627593917,1.1994704184003473,2.682453040395993
0.6757290363311768,0.8572085240737797,0.6845694493241914,-0.9123207365884057,1.4837999351864346,-2.138268647629164,1.1988699653463444,2.6819811940679945
0.67724609375,0.8565882239624809,0.6851169110473514,-0.9131569297203633,1.4828603114243588,-2.138229517297149,1.198171301577117,2.6798233808500074
0.6788229942321777,0.8568041896567352,0.6846759985599401,-0.9132083585048886,1.4823209666208454,-2.1380216602600677,1.1983077334596899,2.68010057741592
0.6804020404815674,0.8566872747694497,0.6844294133998499,-0.9130480191337925,1.481520864439535,-2.1373933401503686,1.1978982045756608,2.6797147953323828
0.685122013092041,0.8566365292953787,0.6846311672110356,-0.9130850470813513,1.4816828364562327,-2.137444944520673,1.1977968399710908,2.679456415931233
0.6867640018463135,0.8572757178535555,0.6841997964163977,-0.9137053874831897,1.4805543769071385,-2.1376890217088076,1.198314962372145,2.679235764613877
0.6882998943328857,0.8591798723655992,0.6844508929757986,-0.9133215478815767,1.4810351275760603,-2.1378740629691975,1.1964497907897882,2.6788324412841513
0.6900970935821533,0.8592639127943942,0.6842154769273335,-0.9136333145160545,1.4811951427465517,-2.137716294683455,1.1964640171219938,2.6787472584020517
0.6919338703155518,0.8596926142248437,0.6839046416572341,-0.9136474128095085,1.4814393541145618,-2.137364111241305,1.195703494738458,2.6785512304519856
0.6937720775604248,0.8604113389134842,0.6828428384860087,-0.9143436775618049,1.4799590265462585,-2.13763875221623,1.1962842239369704,2.6789336937562567
0.6957650184631348,0.8612553559325983,0.6835203536040904,-0.9143574670109615,1.4795344583813328,-2.137995825139677,1.195997265488816,2.6782744139086954
0.6974658966064453,0.8609606096993366,0.6834058908010422,-0.9145460569823965,1.4790949026604887,-2.138693793227939,1.1950020136371187,2.678184335956157
0.7008099555969238,0.8608363186908446,0.6832916791596075,-0.9146350859827432,1.4791882131888594,-2.138548925884872,1.1949661687706055,2.6781552683257437
0.7024459838867188,0.8608331314451975,0.6832431563160438,-0.9147918614739751,1.4789056146732096,-2.138401548045779,1.1946210900735519,2.677853288613566
0.7026100158691406,0.8609038670505148,0.6833151249068651,-0.9147525739315588,1.4788828006613761,-2.1382885733808297,1.1946217783488675,2.6778274496676966
0.7042438983917236,0.8615995896855831,0.6819641042628733,-0.9154289482903782,1.4774454354124034,-2.13855470776284,1.1951879418142284,2.6784740607649598
0.705833911895752,0.8625205623034893,0.6826337956133092,-0.9156195671149888,1.4773462578949628,-2.138906988391671,1.1952997986937133,2.677994532395737
0.7073700428009033,0.8635598467455068,0.6828115627887392,-0.9150338205424997,1.4778198860203864,-2.1397333100826237,1.1946601303530677,2.678805735361383
0.7089080810546875,0.8632255427310916,0.6826582378118528,-0.9150999047135223,1.4781833366426653,-2.1394517180509434,1.1945735015180883,2.6788197767289637
0.7104089260101318,0.8633536746337535,0.6824773512358557,-0.9152722344526567,1.4786962283994323,-2.139396230026705,1.1946164676284237,2.679073413642161
0.7119870185852051,0.8634884865308363,0.6825198631997628,-0.9152128521932447,1.4785798152324978,-2.1395016129030155,1.1946407786581308,2.6791501241996163
0.7138099670410156,0.8635726847702079,0.6825982491133377,-0.9151335189045022,1.4787172478352948,-2.139621007605222,1.1946536172433129,2.679364511694713
0.7153329849243164,0.8635668167176335,0.682569934526447,-0.9152095612064421,1.4788176724938016,-2.139615762255312,1.1947142078836777,2.6794709149816316
0.7183959484100342,0.8635587879079438,0.6826328383363653,-0.9151773137359469,1.4788388336401816,-2.1396564766591992,1.1947149158874844,2.679535113267897
0.7198960781097412,0.8635475308087708,0.6826370822877162,-0.9152238149579112,1.4788765126794243,-2.1396493027524235,1.1947433490982038,2.6795964611798118
0.7214210033416748,0.8635433505330232,0.6826802906943266,-0.9152185296304539,1.4788806293179333,-2.139664338935986,1.1947419277090985,2.6796377281901074
0.7214748859405518,0.8635368255286461,0.6826994992359533,-0.9152615187613553,1.4788966551668206,-2.139649763595711,1.1947527196689882,2.6796852175725108
0.7232339382171631,0.8635366897615858,0.6827402566688883,-0.9152647022035997,1.4788915312459299,-2.1396522069513537,1.1947432462886733,2.679715288234152
0.7309119701385498,0.8635341524324466,0.6827590389234461,-0.9153056864417416,1.4788966750429726,-2.1396286731686556,1.1947418546979984,2.6797473480177176
0.7309789657592773,0.8635365354286276,0.6827995465945749,-0.9153110873236876,1.478886903134368,-2.139625436436826,1.1947271815926876,2.6797721328202817
0.7310519218444824,0.8635354128573428,0.6828163750144715,-0.9153504799939419,1.4788889628468924,-2.1395989613519744,1.194721671737188,2.679797250328976
0.7329139709472656,0.8642424102075006,0.6813639890963575,-0.9160382790619203,1.4774267112326713,-2.139869385874551,1.1952976053491648,2.6804544403909176
0.7346220016479492,0.8670971684007668,0.6818012993656881,-0.9149465637942402,1.4735196490218903,-2.141021597115682,1.1939669338914225,2.680432460029798
0.7363169193267822,0.8663415519930079,0.680428170901447,-0.9159725115710613,1.4742768569332152,-2.140685153662563,1.1942992121792044,2.6797594423348614
0.7394790649414062,0.8659726760124734,0.6806009181596505,-0.9174483402466367,1.4741764921333937,-2.1418575875008226,1.1933694700932609,2.679988958820885
0.7395648956298828,0.8656807347515217,0.6806585237592124,-0.9171150262478385,1.4741921690220154,-2.1418214455667006,1.1931900005566713,2.680170544994652
0.741163969039917,0.8652684011411865,0.6805734342324774,-0.9170456999238219,1.4741360752189474,-2.1423505949196238,1.1932694815357352,2.6809522982569316
0.7430250644683838,0.8653828306154414,0.6805637749485656,-0.9172640474650564,1.4741917364752963,-2.1424206428931654,1.1933943830054259,2.68088296193843
0.744797945022583,0.8659258343050451,0.6795279073765138,-0.9177921962631809,1.4730682956293628,-2.142627908259537,1.1938374855114122,2.6813882948508563
0.7465150356292725,0.8670034289476086,0.6800444744007511,-0.9182091338755989,1.4734115375132104,-2.1430397619161994,1.193367122159871,2.681268079561381
0.7496459484100342,0.8679528900837542,0.6787246222588733,-0.918142137708461,1.4743743239678349,-2.144066435662671,1.191323210391234,2.683564627558838
0.7511990070343018,0.867813772889576,0.6791498066464879,-0.9182339612988422,1.4747926458724847,-2.14428899721328,1.1912231106529012,2.683103760106318
0.75319504737854,0.8679769659910732,0.6793484074678768,-0.9183296885763214,1.4752716452002765,-2.144536208540816,1.1915428036466185,2.6833338926891854
0.7532689571380615,0.8679969060128789,0.6792400943727398,-0.918287880610873,1.4751820813695242,-2.144501811218679,1.1915907310882885,2.6835077806040446
0.754828929901123,0.8686340391435918,0.677929726018708,-0.9189083090137474,1.4738628479561073,-2.144744875862631,1.1921117372955032,2.6840363415367188
0.758167028427124,0.8689209008812335,0.6776788889883683,-0.91975226851418,1.4744871927291952,-2.1450754677588044,1.1919842245214618,2.6835384023079403
0.7596979141235352,0.8688002946722627,0.6764964288458845,-0.9204541966643996,1.475115232307688,-2.1461400192174187,1.1900508567226342,2.6849925049805172
0.7613770961761475,0.868943345968245,0.6769567249361912,-0.9203767065068963,1.4752522934195385,-2.1463801415473145,1.190041816195489,2.6847710102538396
0.7614600658416748,0.8690193331279359,0.6771156607933576,-0.920273876103612,1.4753217146375999,-2.146603147047249,1.1903067313031348,2.6851018931209025
0.7629780769348145,0.8689830965736589,0.6770496751826396,-0.9203783925065936,1.4754136121913937,-2.146565726183587,1.1903633413092025,2.685126771648354
0.7648289203643799,0.8698658586638254,0.6765207327372599,-0.9212370236593918,1.4735851140148704,-2.146901618792612,1.1910858872101961,2.6858347053496674
0.7664279937744141,0.870052247510876,0.6771851178440065,-0.9200769620365208,1.4723537058033083,-2.147246705425007,1.190009715834037,2.6853888955625225
0.7710139751434326,0.8704486881556446,0.6773258088715519,-0.9206672321418874,1.4720369859062683,-2.147477130045251,1.1900614075002751,2.6848731802844408
0.7727370262145996,0.8689567036838447,0.6773224507148513,-0.9220752501303047,1.4704796625160046,-2.148535119447208,1.1883279421949409,2.683994253816647
0.7745208740234375,0.8697463992410002,0.6768599572596267,-0.9228415874638156,1.4688445120651936,-2.1488349900151005,1.1889739290981638,2.6843701804658524
0.7761108875274658,0.8707694784514088,0.677611615049938,-0.9220375529822661,1.4684540410786757,-2.14922457763831,1.1885705757170186,2.6838601866483094
0.7777299880981445,0.8711181531805524,0.6774405842875207,-0.922196417288239,1.4687628336973781,-2.1492356840871123,1.1881031358982583,2.683822494756885
0.7793850898742676,0.8711046328898274,0.6774723473915474,-0.9221577033380375,1.468772217086987,-2.149235030911099,1.1880731088758814,2.68381737420106
0.782526969909668,0.8712216239381352,0.6775343399429682,-0.9221081084687751,1.4687557670576197,-2.1491625013003426,1.1879693986215878,2.683783918251311
0.782588005065918,0.8712335512738325,0.6775077083543829,-0.9221434171612639,1.4687530770478616,-2.1491475326079703,1.18798169178911,2.683784628787296
0.7844769954681396,0.871221509423218,0.6775068654199147,-0.9221458238682063,1.4687613788504161,-2.149134802365321,1.1879719612716872,2.6837828366077954
0.7859640121459961,0.871945414137646,0.6760165536844787,-0.9228500899271554,1.4672624675153358,-2.1494094090771085,1.1885657901173157,2.6835910519539357
0.7875349521636963,0.8717275179944718,0.6755057055945491,-0.9244141944247543,1.4678351034273383,-2.1507786619274776,1.1867781003997102,2.68292049555386
0.7891249656677246,0.8718906421754845,0.6754939514001513,-0.9244649986297949,1.4676951511642835,-2.1508930594683773,1.1868206899495575,2.6829576905867007
0.7907910346984863,0.8718737282640685,0.6755379184061981,-0.9244083348706199,1.4676820806340425,-2.150953106213096,1.18675853492439,2.6829823437448903
0.7924699783325195,0.871865520749177,0.6754883042984469,-0.9245010356190686,1.46768248361132,-2.1511631743416837,1.1865874886534284,2.6831210937503807
0.7941579818725586,0.873415781269303,0.6768007139223672,-0.9261239981548327,1.4652861205824221,-2.1522900191054912,1.1851805300037466,2.680805767689265
0.7956719398498535,0.8721248445170213,0.6753726204246162,-0.9267459760848874,1.464640746037586,-2.1528613283933447,1.1836355204990314,2.6816292546768117
0.7972540855407715,0.8721898419095543,0.6753656003045029,-0.9268843467043236,1.4643973831233854,-2.1534297475337842,1.1835903311711071,2.6819143317888736
0.798814058303833,0.8721255054326549,0.6752596690361792,-0.9270251958084293,1.4644924491068136,-2.1533724269977186,1.1836379543631823,2.6819305859418012
0.8002939224243164,0.8719128319595855,0.6753106122101059,-0.927136701110579,1.4646275925813492,-2.153706820441658,1.1837713143858577,2.682326503445935
0.8018388748168945,0.8719486704159447,0.6753853863963002,-0.9271196588703916,1.4646845967734436,-2.1536401451520297,1.1838777701397076,2.682387131160624
0.8033630847930908,0.8719340673072975,0.6754377813808896,-0.9271793736324807,1.4646993527371455,-2.1536767338962632,1.1838498182950197,2.682469486898629
0.806704044342041,0.8719366675530693,0.6754532596219599,-0.9271944630298516,1.4646953589402125,-2.1536389846683055,1.1838639289097763,2.6824971596853047
0.8083240985870361,0.8719395602685283,0.675492020586993,-0.9272041040376974,1.4646930331420118,-2.1536364879565477,1.1838536556868173,2.6825102986737486
0.8083810806274414,0.8719372595570717,0.6755028106048071,-0.9272339212306306,1.4646899740390897,-2.153611277358901,1.1838484239090776,2.6825365537156407
0.8099830150604248,0.8719407651857946,0.675536895027465,-0.9272393115132198,1.4646823707004542,-2.1536093738263045,1.1838356956465959,2.682551351501887
0.8148670196533203,0.8719390121461281,0.675548733579237,-0.9272715996855748,1.4646823159689832,-2.1535848173854792,1.1838301777152378,2.6825725330653096
0.8180460929870605,0.874900423060703,0.6762058447725356,-0.9281313545196717,1.4622032684566395,-2.1547381446972227,1.1826369277015585,2.680886187700937
0.8181309700012207,0.8740892372905426,0.6753503388646008,-0.9281055062145689,1.4621192327034624,-2.1543874462599146,1.1822647479568813,2.6814713920517894
0.819767951965332,0.873324465415317,0.674941383094362,-0.9294575887141809,1.4617946322020043,-2.155455475801168,1.1810958491797423,2.6820476500256025
0.821336030960083,0.8729062513613307,0.6751853631267934,-0.9295307926150795,1.4619587195438326,-2.1564112497344037,1.1815688423277035,2.682969235861907
0.8228878974914551,0.8729576818740149,0.6752148073573251,-0.9295440166775343,1.4619889511003155,-2.156401851757216,1.1816311017275523,2.6829718516937144
0.8248028755187988,0.8737535896144089,0.67357347672647,-0.9303185171405536,1.4603399580558871,-2.1567028386284983,1.1822865156748992,2.683714978937027
0.82967209815979,0.8744945744781997,0.6741187423816536,-0.9307084537003668,1.4602540418069523,-2.1569829078148217,1.182621506707093,2.683286606137437
0.83132004737854,0.8743843465435247,0.6744447215021491,-0.9303603427447115,1.4604061405337998,-2.157149822507699,1.1824272364983401,2.683353312590643
0.8329880237579346,0.8747627604463617,0.6751564088922242,-0.9303281607596986,1.460931418524889,-2.1581913759395857,1.1825927256513562,2.6843916447919556
0.8330559730529785,0.8746894944200458,0.6747690839480982,-0.9306014064038947,1.4610002854932982,-2.1580462535856437,1.182764326807218,2.684618488253235
0.8346500396728516,0.8741066367886313,0.6746440881545175,-0.9309142439509249,1.461795373891017,-2.1589171856650617,1.1832186407514973,2.6857973775532535
0.8347179889678955,0.8764862846543233,0.6750153119379,-0.929045743739519,1.4561031880607505,-2.160113673225453,1.1823024866226035,2.6850823466618703
0.8363070487976074,0.8757567157380823,0.6735098183279044,-0.9302084865521958,1.4569765590504127,-2.1597862358680464,1.1832892591677917,2.6832179319596694
0.837939977645874,0.8741801450140114,0.6737207198153677,-0.9317725968775004,1.456036529936997,-2.160864103977336,1.1825290129114399,2.682847215258689
0.8395020961761475,0.8740572086765416,0.6737376048020716,-0.9314584996442601,1.455852595636117,-2.1608614023475194,1.1824443841876169,2.683082781009672
0.8411290645599365,0.8739296836723986,0.6737761213175293,-0.9314672886422717,1.4557282701642644,-2.1611121248728136,1.182597534112864,2.6833597323305414
0.8428308963775635,0.8739075688235629,0.6737662925069591,-0.931571861969108,1.4558059956547411,-2.1611218548191946,1.1826456458575558,2.68333499259361
0.8460240364074707,0.8745756215960234,0.672389896141558,-0.932219659311372,1.4544243504339749,-2.161372060619904,1.1831961712784704,2.6838546023177474
0.8462750911712646,0.8751352488012774,0.672642201129882,-0.9327626111957338,1.4548331553821345,-2.1615819183558442,1.1836386293792156,2.6834964508621253
0.8479619026184082,0.8764464223839333,0.6732070289431394,-0.9320240252746308,1.4568980925438182,-2.161698908280951,1.184417206199175,2.6846977572217496
0.8495800495147705,0.8763113699050722,0.6728699494643526,-0.9321264674128231,1.4570471281547084,-2.1618760116666857,1.184590175375392,2.6853871563311977
0.8511428833007812,0.8762364729751563,0.6730914150390169,-0.9320517579586148,1.4572537581511067,-2.1621574633419587,1.1846583646703002,2.685574202863323
0.852989912033081,0.8761629566346726,0.6730112840112595,-0.932125643869853,1.4573918986190122,-2.1621990282947627,1.1848336249264142,2.685856663587051
0.8578250408172607,0.8768965674499262,0.6720028060851952,-0.9328380043965804,1.4558729191309796,-2.1624738866674797,1.1854383285779033,2.6858549302458323
0.8594319820404053,0.8775876266566257,0.6726380758462244,-0.9334003425787825,1.4559192548084932,-2.1627967782639246,1.1850041989470663,2.685050819933733
0.8611979484558105,0.8775286663423236,0.6723932480684892,-0.9337697544097102,1.454837822516666,-2.1638283410053227,1.183134935459875,2.685697728746154
0.8646609783172607,0.8771762259575446,0.6724890943436852,-0.9339405111926945,1.4552051591500594,-2.1637888278805395,1.1830063019800556,2.6854585011586325
0.8647639751434326,0.877228201521599,0.6724196863622658,-0.9340978680772216,1.4552218505022378,-2.1638206902342025,1.1830641458406757,2.6854485814538926
0.8665509223937988,0.8779697041941553,0.6719895190213757,-0.9348177638049555,1.4536854450841656,-2.164098911056191,1.1836741521689045,2.6848666282040052
0.8682219982147217,0.8779119228700114,0.6726085265143916,-0.9349638930602886,1.4536756697068802,-2.1644126548456577,1.182939220090048,2.6839861702088093
0.8700358867645264,0.8773917204614511,0.6719477798921143,-0.9355216732898687,1.4518342068580123,-2.165127111964664,1.1811381408521269,2.6834666123711806
0.8715999126434326,0.8774052679345625,0.6718838072142144,-0.9358973637740633,1.4520259146784262,-2.165008848542745,1.18119175812291,2.683146614107421
0.8732008934020996,0.8774871429318117,0.6718609875707814,-0.9358549658338159,1.4511779780114988,-2.163920594837001,1.1805929619464626,2.6819941458290617
0.8749160766601562,0.877600158842176,0.6719048902756091,-0.9359195413543113,1.4511091753773622,-2.1640209238909267,1.1803982192498315,2.681896420834852
0.8764569759368896,0.8783368960475868,0.6715225863491299,-0.9366342553428177,1.4500448500227214,-2.164296168551622,1.18100716212248,2.6806964962433497
0.8780689239501953,0.8783601425179342,0.6712651559760973,-0.9385347361378207,1.4486343449091181,-2.1646285881167144,1.1782432317591591,2.6774840751932003
0.8796069622039795,0.8777195464382034,0.6711820040466143,-0.937770446330123,1.4484333856537015,-2.1640718932257923,1.1777490695761517,2.6778657527335383
0.8813068866729736,0.8780159860033766,0.670944742302108,-0.9371220618148094,1.4472175245547279,-2.162946133687835,1.1771292769525787,2.6773803557878715
0.8827869892120361,0.8782940776956442,0.6709659847921046,-0.9375736339509064,1.447325408650011,-2.163041202785637,1.177244720838468,2.6769716662174967
0.8846399784088135,0.8791014697821556,0.6701898705660375,-0.9383559868683327,1.4466129299505006,-2.163343122584324,1.1779134368701687,2.6755834368101605
0.8862519264221191,0.8798713563468961,0.6695064712551168,-0.9402342804094873,1.4460566237174914,-2.1635591118193296,1.1747616835794226,2.672818002985714
0.8877580165863037,0.8792202679552904,0.6695506595052433,-0.9394666493854678,1.4458728856154963,-2.1630680127826314,1.1741943520882832,2.673189310169751
0.8893299102783203,0.879504712241815,0.6693853884522352,-0.9394095396863661,1.4454430194738666,-2.1629368145914847,1.1742198196077285,2.673255672451085
0.8908848762512207,0.880317685102796,0.6694278245398085,-0.9388874141653556,1.4441549586723168,-2.1611744572403064,1.1729505632341006,2.671466702224088
0.8924570083618164,0.8802724451072341,0.6692373073514071,-0.9393171257347773,1.4441621291508477,-2.161091502029143,1.1726948300077582,2.671122425136752
0.8945920467376709,0.8802700462580497,0.669361667188946,-0.9391941703878526,1.4440231216249537,-2.1610877470472296,1.172481163387156,2.671004810939366
0.8965020179748535,0.880950458537604,0.6684102184300946,-0.939852383831242,1.442876229940005,-2.161341228717772,1.173044745084882,2.670478631538644
0.9013049602508545,0.8816635899013406,0.6682935601026315,-0.9416968921973331,1.4424015972225086,-2.162441407100453,1.1706480656747775,2.669605673616565
0.9029228687286377,0.8808618832676822,0.6678449154470637,-0.9416564976382931,1.4424383775003922,-2.162474306731018,1.1697827690608384,2.6699031624267193
0.9047229290008545,0.8809273032654973,0.6680769604947898,-0.9416563523989501,1.4424735043353314,-2.1626794287575586,1.1697058078360805,2.66975324264316
0.9064679145812988,0.8809097569135628,0.6680257112342997,-0.9417421340188746,1.4423515947880794,-2.1627994084683126,1.1694902259412185,2.6697659185965255
0.907991886138916,0.8809054885388664,0.6680100964843603,-0.9417750847429247,1.4423667275318943,-2.1627781917378868,1.1694941349503583,2.6697540543627185
0.9095430374145508,0.8809332663549897,0.6680795838889909,-0.9418282804467083,1.4422967836893332,-2.162628315746312,1.1694083616357445,2.669702217132324
0.9110579490661621,0.8809306192460445,0.6681166658357064,-0.9418848714966452,1.4422757535410597,-2.162644420259433,1.1693613495898876,2.6697626561493357
0.91274094581604,0.8809312626303254,0.6681583745834755,-0.9419042708637443,1.4422909334188627,-2.162608528779141,1.1693710932900323,2.66977245257587
0.9144899845123291,0.8810274212206773,0.6691569709434431,-0.9427026647908958,1.442382680426826,-2.1626276231371446,1.171371899537241,2.668615207046842
0.9160690307617188,0.881008728677115,0.6687937351896192,-0.9423232419394356,1.4417671603130888,-2.162366321322815,1.1715779538509743,2.6691440080394666
0.9177370071411133,0.8804499893266868,0.6693164698633933,-0.9421563244884573,1.4417113424083607,-2.1624706611420743,1.1727060860532148,2.669473915859701
0.9207770824432373,0.8803224782313548,0.6692384931485721,-0.9423569225723035,1.4418943748414947,-2.1627355710985454,1.17276447203691,2.669771102908026
0.9208979606628418,0.8803131079496299,0.6693362512270719,-0.9423095293787336,1.4419451314558431,-2.162790504310591,1.1728113886969618,2.6698457127361803
0.9225940704345703,0.880290532755067,0.6693305139207723,-0.9423541799970607,1.4419974316288462,-2.162788194729708,1.172874837102832,2.6699338862113957
0.9242749214172363,0.8811733071068619,0.6675081544230146,-0.943208897946332,1.4401724569046463,-2.163119367954189,1.1736085667966605,2.6700705431175997
0.9260189533233643,0.8819518020111223,0.668084682788433,-0.9439623269249113,1.4405188984071344,-2.163411203630281,1.1736477190632157,2.66902933228923
0.9280638694763184,0.8818581580961323,0.6689083352862284,-0.944800287045587,1.439801017859442,-2.164494564056778,1.172001912007523,2.669950743743925
0.9314050674438477,0.8813675506951119,0.6686318207799722,-0.945137716233042,1.4402223437252293,-2.1645334238204605,1.1719624437160536,2.670097979306542
0.9315030574798584,0.8808408952013318,0.6687311630007048,-0.9454741221208833,1.4401851971035724,-2.165798525677114,1.1720518091837102,2.6715084312623363
0.9330909252166748,0.8808083796765893,0.6687251281096869,-0.9457366852695408,1.4404434312578476,-2.1658360042612994,1.1721800639888877,2.6714168430114515
0.9347519874572754,0.8827192023597304,0.6692890550039178,-0.9454369775767963,1.4370149046033542,-2.1669549107950017,1.1723756065087736,2.6702728884999005
0.9362819194793701,0.8814111528497255,0.668461781266409,-0.9466674625792079,1.4369580479824284,-2.1669816773310067,1.1726425489969994,2.670165653750149
0.9379920959472656,0.8811965407416792,0.6685235859653704,-0.9464780233962413,1.4369596227092012,-2.166949656044463,1.1725429026406977,2.670229368757828
0.9442338943481445,0.8811527038855942,0.6684852255631321,-0.9464983557034716,1.43679849393503,-2.1669949934636574,1.1726039374420665,2.6703013356474017
0.94594407081604,0.8807030893746435,0.6685994508444294,-0.9467046738280206,1.4366307876545075,-2.167230412555125,1.1727652759023437,2.6702731407904228
0.9460079669952393,0.8815763000595597,0.6667967395296731,-0.9475482414565295,1.4360263486453158,-2.1675560114006824,1.1734911545690585,2.670006193659594
0.9475278854370117,0.8815008912109248,0.6656073131467822,-0.9493675874190147,1.4369873361811791,-2.1687286617812056,1.1721329646606935,2.6699863884838675
0.9492828845977783,0.8812231685542993,0.6658472580814941,-0.9489498478022962,1.4371986177457567,-2.1688267417894314,1.1718342521009126,2.670009765376719
0.9508209228515625,0.8814400710346632,0.6659518463605881,-0.9489264843294165,1.4371778698229645,-2.1690805631408745,1.1718249818985595,2.670107059450853
0.9524879455566406,0.8815589994543878,0.6656969403057172,-0.9489757631783137,1.4379048394311158,-2.1695095919408884,1.171697852273578,2.6709532873364292
0.9541659355163574,0.8824217415215643,0.6660179545045701,-0.9498084757929913,1.4365829559434427,-2.1698306619543586,1.1718642489765478,2.669501926687772
0.9557399749755859,0.8813378915146459,0.6655949827787523,-0.9516759656897312,1.4346239033643071,-2.17082879591325,1.168027264683508,2.6671822660050037
0.9573700428009033,0.8811236010273813,0.6653451908065846,-0.9512605970628144,1.4342693805450926,-2.170422989329937,1.1678397264809308,2.6674588358454367
0.959022045135498,0.8814969346256927,0.6653561020848541,-0.9512750861317291,1.4326691877997013,-2.168840022314567,1.1667278039133562,2.6653707347068325
0.9628050327301025,0.8815200505877158,0.6652366491069588,-0.9513988066507857,1.4327013060735763,-2.1688359359222913,1.1664021347346814,2.665318850617588
0.9629659652709961,0.88157617187507,0.6652679387316133,-0.9514113693835938,1.4326769159889121,-2.168815542914706,1.166377136955689,2.6652893935935067
0.9646260738372803,0.8822539743491259,0.6640663787148802,-0.9520645941133465,1.431539493679915,-2.1690661277176564,1.1669413175325194,2.6644181357034653
0.9662449359893799,0.8817212969665106,0.6643184474700864,-0.9527283341687066,1.4319656200156436,-2.1693223057090627,1.1663506428085797,2.6633651628005546
0.967810869216919,0.8803413430692677,0.6631400112304049,-0.9537615125341916,1.428881826770472,-2.169733187983302,1.1636865952345228,2.6620522663821062
0.9695649147033691,0.880552119464295,0.6633111676989986,-0.9541351162029511,1.4290666889847674,-2.1697526770894013,1.1637872249532852,2.66154797388262
0.9727640151977539,0.8809740982372617,0.6635289330894066,-0.9537823491705577,1.4284064920004051,-2.168104562248007,1.1635499101245776,2.660180876620974
0.9728269577026367,0.880989318190266,0.6633845434099209,-0.954017307167284,1.42804973417207,-2.1682785757855703,1.1628873358468623,2.659916604950239
0.9744629859924316,0.8815200077861148,0.6632934269656757,-0.9545284208117084,1.427846160188939,-2.1684761396799823,1.1631219059542606,2.659362061072994
0.976046085357666,0.8824145526805655,0.6631650649193255,-0.9550470326485393,1.4274885189210984,-2.167790760530457,1.1612441147886714,2.657434412558928
0.9776549339294434,0.8821773123703606,0.6630492905284446,-0.9546271840842887,1.4272976543613878,-2.167490754215928,1.1610409624396725,2.6576630495738933
0.9792208671569824,0.8823719358980053,0.6628972516909711,-0.9544880117369179,1.42671995000071,-2.1669242038448733,1.160712562498127,2.6573105705773816
0.9807960987091064,0.8824449651448419,0.6629649525152532,-0.9546503997110356,1.4267868580935918,-2.1669563361808364,1.160695359605806,2.657092271250817
0.9824528694152832,0.8825899232003229,0.6628546308678757,-0.9546477076349923,1.42620913924097,-2.166279696806187,1.1600545951534067,2.6563896145112986
0.9873678684234619,0.8833586541013202,0.6612688566700579,-0.9553878278186099,1.425140804291124,-2.1659552419072923,1.1606981253879531,2.656103170655182
0.9890151023864746,0.8820556818115202,0.6606898331037233,-0.9561655903405084,1.4257439475423233,-2.165750218999862,1.1602405887536111,2.6550666756288392
0.9906308650970459,0.8809465013186136,0.6600495099776441,-0.9577606062169517,1.4237843673821462,-2.1668855259604825,1.1586133206324483,2.653651671313293
0.9923040866851807,0.8809145743727557,0.6598436464892329,-0.9576803526143888,1.4230495307207645,-2.16640415099322,1.1584708486673505,2.6534263455557334
0.9946920871734619,0.8813739239135588,0.6590216145382264,-0.9581238442083451,1.42255354147153,-2.16651880606043,1.158835039458882,2.6532069377343395
0.9996058940887451,0.8805634275223941,0.6577659204087513,-0.9602159477703042,1.4211376850343054,-2.1670622366088788,1.1567153780746844,2.651598144844385
0.9996790885925293,0.8801423923725293,0.6579996711222712,-0.959636300955539,1.4212510048533922,-2.1669437815784334,1.156342740478196,2.6515819926486874
0.9997429847717285,0.8803676222713298,0.658409045318752,-0.9591067074787794,1.4205796525138885,-2.1662852484391335,1.1559698838361907,2.650842416465065
1.0029230117797852,0.8805294610297769,0.6582374357023264,-0.959367772699613,1.4205036840198746,-2.166251864917148,1.156084895598645,2.650791326224481
1.0029799938201904,0.8804442747892482,0.6581977874879223,-0.9594155001579796,1.4205593929305227,-2.1661385886314837,1.1560029798614175,2.6506868090280706
1.0046429634094238,0.8806385947067308,0.6581866470803606,-0.9594326794482639,1.419940474844467,-2.165703309838352,1.1553905896771104,2.650021353335767
1.0062999725341797,0.8806110314942079,0.658133125787709,-0.9595159595803037,1.420000155604356,-2.1656383609578014,1.1554035739530244,2.6499808362984827
1.009648084640503,0.8806822957206866,0.658193173476789,-0.9595142619279818,1.4198923217904182,-2.1654305106365506,1.155302099119631,2.649832034370494
1.0097029209136963,0.8806657685131689,0.6581913820871959,-0.9595725213068576,1.419864226789302,-2.1654343101348736,1.155236181215918,2.6498378204563595
1.0112390518188477,0.8806827187556855,0.6582636309443013,-0.9595946437394551,1.4198450951311217,-2.165378423835807,1.1552238464679752,2.649851360774762
1.0128250122070312,0.8806746321681285,0.658266298231971,-0.9596354117148436,1.4198407218056992,-2.1653675304273485,1.155201847722526,2.6498732524048614
1.01475191116333,0.8812147060318755,0.657154124179009,-0.96015398749965,1.4187295234358166,-2.1650742857536978,1.1556550625524253,2.6502612124473575
1.0178070068359375,0.8804028439254198,0.6566388732445276,-0.960853488656199,1.4190494877041175,-2.1648545201505374,1.155465797752724,2.6498798917693813
1.01790189743042,0.8786714602546176,0.6566068816571631,-0.9616132110070467,1.4164001866483777,-2.1659652693361475,1.1538777536965206,2.648913033825276
1.0210239887237549,0.8788435912445078,0.6563342758147716,-0.9620033701332344,1.4164874116180701,-2.1657802344463986,1.1541247414862599,2.648807334552641
1.0243630409240723,0.8787412504254752,0.6563645577719756,-0.9619582384272316,1.4166510742633271,-2.1656235660758942,1.1541021388358954,2.648732588324028
1.024604082107544,0.879125265968391,0.6564959195835389,-0.9618022471184148,1.4168302267067023,-2.164867224973559,1.1543397763421317,2.6483866965828486
1.0246849060058594,0.879646601627203,0.6557093815620281,-0.9620634890850943,1.415759564076919,-2.165061768599885,1.1543619055131384,2.648882032819056
1.0264079570770264,0.8775632048890454,0.6550034763397974,-0.9629396232596673,1.4112566521060808,-2.166091025131989,1.1515465180671018,2.6483363872506884
1.0315840244293213,0.8767986593005456,0.6554640694409588,-0.9633102665119667,1.4117212902997944,-2.166058651899854,1.1512148193111413,2.647336798157847
1.0332589149475098,0.8769584634992611,0.6553495409664494,-0.963591373117487,1.4117103800018036,-2.1660325233094593,1.1513412869685742,2.6472166470020926
1.0350189208984375,0.8772087770231305,0.6539406062110137,-0.9642479746173074,1.4116450291303226,-2.165891217214986,1.1515034041299317,2.6470084233589914
1.0367090702056885,0.8762941051095202,0.6524466556027322,-0.9666116267967538,1.4113079031494709,-2.166857598904364,1.1488007777788067,2.6457530121207418
1.038313865661621,0.8759826335556857,0.6527708159739903,-0.9658099585346748,1.4110555415742119,-2.1668390256407486,1.1483466559490594,2.64597400653173
1.0432400703430176,0.8762380487360192,0.6527780334499893,-0.9657805901158557,1.4107521359388475,-2.1668969807475644,1.1484013028186009,2.646002415057403
1.0432939529418945,0.8764338197035818,0.6529525220526137,-0.965539509436295,1.4102191359309415,-2.166583430014856,1.1481580829201175,2.645617956060263
1.0450260639190674,0.8762980829401849,0.6529156124728702,-0.9656110200700181,1.4103661487185373,-2.1664710306725876,1.1481031643406636,2.645515229487795
1.045093059539795,0.8748649491290732,0.6504603755798063,-0.9684755518092173,1.4074400889697052,-2.1664567516684534,1.146397248068933,2.64040945974997
1.0467450618743896,0.8740560007922684,0.6507805036299054,-0.9676484560820033,1.407590192661254,-2.1658643225584853,1.1455471824793049,2.640582143339704
1.0483429431915283,0.8730808774341507,0.6503492572201734,-0.9672842196215746,1.4050545636342913,-2.164756085701056,1.1438592837549169,2.639290150824161
1.049994945526123,0.873583248036995,0.6502119228984758,-0.9677673025515163,1.404958020926075,-2.1649438141645283,1.1442652837031626,2.638755976808129
1.0515739917755127,0.8734521213071197,0.650318485524626,-0.9678236235185004,1.4051455694574788,-2.1648596831365308,1.1441186943685517,2.6384734870984663
1.055042028427124,0.8738234406741332,0.6501553667377271,-0.9680809621703699,1.4041239389255882,-2.163488901621219,1.1429372060166727,2.636620077330767
1.055098056793213,0.8702595686651018,0.6481038189750089,-0.9722242594066275,1.398472397802254,-2.165017391287424,1.1375539076408263,2.6301093139365435
1.0568230152130127,0.8696982403018787,0.6483875869400361,-0.971261065932507,1.3980451726759342,-2.1643175922545916,1.1370725789496974,2.6306086229430146
1.0584490299224854,0.8701753218920633,0.6483595641611207,-0.9711767782675051,1.3975707955143262,-2.1641305813877882,1.137311341993803,2.6306050117831976
1.0606179237365723,0.8710757244739981,0.6491106829534603,-0.9702140130549618,1.3969807609604117,-2.161918349974061,1.1376869839195327,2.629099375152811
1.0622620582580566,0.8710382772657373,0.6486923841022998,-0.9707948649414545,1.3966744815276186,-2.16175247121773,1.1370150503283316,2.628506602647484
1.0640928745269775,0.869693608139334,0.6464673447218348,-0.9735050305412026,1.3955716475706157,-2.162072429138431,1.1334861388489244,2.624421474490896
1.0656960010528564,0.8692168078480991,0.6468274816501561,-0.9726170276135702,1.3951633555008187,-2.161859087032504,1.1327521819071702,2.62468604576246
1.0672369003295898,0.8696025461250881,0.6467684234306224,-0.9726031956627677,1.3946627097835642,-2.1618537379248575,1.132748801883412,2.624660228301172
1.0688130855560303,0.8702143839649525,0.6468052685196283,-0.97222962510235,1.3927665942545822,-2.160200027939254,1.1309393105035221,2.622477256814719
1.070570945739746,0.8700130395160117,0.6466770434765298,-0.9725235034449621,1.3930818770346651,-2.160008688344736,1.1309087355205087,2.6222278639911094
1.076807975769043,0.8701796015211805,0.6465730100040898,-0.9726203277892106,1.3923185049585105,-2.159259839634116,1.1301533212133261,2.621272322389903
1.0784358978271484,0.8702036012225792,0.6466258059923573,-0.9726453891917661,1.3923322189670653,-2.1592022068945655,1.1301311972447756,2.62120264146322
1.08001708984375,0.8672992718155634,0.6440398492389825,-0.9738432061120754,1.3912706788825842,-2.1579679089409813,1.1260811396169181,2.617838295514946
1.0817499160766602,0.8682160304227299,0.6447239607253391,-0.9730282528834688,1.3895317483616862,-2.1583106761573134,1.1252043935565261,2.6172046656724417
1.083338975906372,0.867413833447901,0.6440114624339561,-0.9752842924257442,1.387803299196577,-2.1580499978124905,1.1230053981526895,2.6139360731009678
1.0851309299468994,0.8668820787739429,0.6442957954584038,-0.9744902759340734,1.387561736783554,-2.1576834440893924,1.1224582749948082,2.614256322514499
1.0851969718933105,0.8650989038335262,0.6405453885209762,-0.9768874713515743,1.3828714613743873,-2.1580829203136522,1.1165542639893815,2.6126184530437007
1.0866899490356445,0.8643298316207116,0.6408651131970216,-0.9763781602037918,1.3831956581766645,-2.1581691579985627,1.1158007672600005,2.611976530487128
1.088243007659912,0.8645452601277956,0.6410305183961224,-0.9767735501598087,1.3831439370031264,-2.1583685580458325,1.1157903109537002,2.611490782671233
1.0898780822753906,0.8639158978375876,0.6408165504284391,-0.9772968032959017,1.3810849747704268,-2.157401326456275,1.1140593999064456,2.6092193607763816
1.0916938781738281,0.8644327122879057,0.6409274080497877,-0.9770226267355021,1.3811392651705443,-2.1566932487657633,1.1140962634854756,2.608955862195844
1.093398094177246,0.8644104481843508,0.6409069599246927,-0.9771603469395451,1.381119230208517,-2.1567024845837435,1.113918148116358,2.6088075326035707
1.0968449115753174,0.8631020491256587,0.6394200179485587,-0.9764967870790117,1.3801733078044154,-2.156022647705619,1.1126440223546348,2.6095080020079933
1.0984280109405518,0.8615044003864523,0.6381598569634541,-0.9792301144105777,1.3773489143707485,-2.1571079785946425,1.1085857499685658,2.6078243434032586
1.101607084274292,0.861352562158363,0.638419560623306,-0.9790521176832067,1.3767816317241532,-2.1573155848621726,1.1086931347785511,2.60788985330908
1.1031360626220703,0.8613417614968442,0.6384733237046764,-0.9790424804485925,1.3767883504404221,-2.157288860453423,1.1087233929421323,2.607905912449548
1.1032259464263916,0.8613246523233969,0.6385099551271807,-0.9791254433742105,1.376774424556274,-2.157282295604345,1.1086730154007913,2.6079630248483814
1.103295087814331,0.8613320092886442,0.6385350139745694,-0.9791163589395192,1.3767640621243995,-2.1572509578576784,1.1086831268937671,2.6079838235188837
1.1053168773651123,0.8613276069702938,0.6385420478268357,-0.9791236248904519,1.376774154896069,-2.1572503021580567,1.108681072383782,2.6079780229807588
1.1070239543914795,0.8613235554240085,0.6387472350520986,-0.9793276810273808,1.3767594586491214,-2.1570972025991595,1.1086164926935644,2.6081275057042244
1.1086859703063965,0.8613247400027153,0.6387715771434505,-0.9793195055150451,1.3767350830741159,-2.157103856940434,1.108592100955408,2.6081539768846973
1.1101689338684082,0.8613213132683237,0.6387929122663627,-0.9793703112972838,1.3767325993401602,-2.1570810755326724,1.108577769900821,2.608183756598535
1.1132850646972656,0.8613239941748819,0.6388394854453929,-0.9793818225510378,1.3767214637626437,-2.157060030987042,1.1085647297117653,2.6082126446965015
1.1133549213409424,0.8613263717293814,0.6388552516014175,-0.9794154477595614,1.3767232436772023,-2.1570516161845434,1.108559286647211,2.6082218027459874
1.1182489395141602,0.8588055346726134,0.6358125510679256,-0.9823177602481404,1.3728487002318037,-2.15716122862006,1.1039420097633894,2.6081955743676186
1.1198298931121826,0.8578761681507311,0.6366080825761442,-0.982947502202812,1.372716692578983,-2.1581113319305465,1.1028344647902713,2.6074259382553424
1.1214079856872559,0.8573315482674555,0.6360188797338847,-0.9831159442868835,1.3720836798673703,-2.1585781161012774,1.1026865719068804,2.6081715030587507
1.1231060028076172,0.8570028764300216,0.636129685558308,-0.9831784057445214,1.372277083579924,-2.1587940253501503,1.1026684084888707,2.608213639928277
1.1267790794372559,0.8538452636852296,0.6331595002297775,-0.9846923186881666,1.366006812236954,-2.1599341680891357,1.0992772178438814,2.6070188012603808
1.1282260417938232,0.8528323520238716,0.6335842891190553,-0.9841178360438393,1.3664412689805425,-2.1601462714562456,1.0982203007625786,2.60581782526184
1.1282870769500732,0.8530903967946162,0.6337563578811757,-0.9846414508549449,1.3664678350514345,-2.16035401615341,1.0984014554179697,2.605233290661054
1.129913091659546,0.8522227904150379,0.6338585499286143,-0.9852136424733269,1.3657323119713902,-2.1606268137614766,1.098058099328377,2.6044534006400872
1.131432056427002,0.8521529133252621,0.6338055986129402,-0.9850342462940652,1.3655674461120861,-2.1604934912333067,1.0979988114461696,2.6045695199836625
1.1332318782806396,0.8521032208856015,0.6339454860201615,-0.9851115458974051,1.3649303306356813,-2.160011930125103,1.0977858762098778,2.6039460630071236
1.1367249488830566,0.8507916715758069,0.6323927800659475,-0.9858311285727189,1.3650903986663894,-2.1590527393542533,1.0978418097429137,2.6037126192126663
1.1367928981781006,0.8483239574949382,0.6326581632799736,-0.9881196417234759,1.361708036640031,-2.1601572177177872,1.0950941735349813,2.600118929243125
1.138273000717163,0.8486386372177154,0.6319338825410826,-0.9880744902431335,1.3610282517453165,-2.1596634430404813,1.095359052064105,2.60054409064192
1.1413559913635254,0.8484712361569985,0.6319664676518251,-0.9878162547724105,1.361056650199934,-2.1594602015972186,1.0952376866071825,2.600597488111814
1.1414248943328857,0.8488973263891103,0.6320232953203978,-0.9873925371944272,1.360766235568227,-2.158324489232626,1.0951247843654779,2.6001962852239653
1.1431260108947754,0.8490296195783363,0.6320452327479936,-0.9876050953272703,1.360773583510495,-2.1584238264205946,1.0951651789070922,2.6000432162889404
1.144813060760498,0.8457299226054898,0.6267705080000531,-0.9903060312550869,1.3621028705974056,-2.1559728318847737,1.0949432649733082,2.595441992324551
1.1479768753051758,0.8467927023437697,0.6275641524780377,-0.988707268754674,1.3599793859743,-2.156366907131431,1.093537717494546,2.5953629224071544
1.1482760906219482,0.8464360835402023,0.628231936554805,-0.9900088306178721,1.35972321776412,-2.1574857891197023,1.0912439505095857,2.5941954365695916
1.1497480869293213,0.8461493776192052,0.6272773712390668,-0.9904155906220852,1.3589244001239915,-2.1579185666265706,1.0909701382682022,2.5949232376594207
1.1511991024017334,0.8463146519527944,0.6274754302086446,-0.9906422635444597,1.3589868342042857,-2.1581156090126656,1.0910070656159268,2.5947018871701584
1.15289306640625,0.8461757695153881,0.6275621697161635,-0.9907469831367819,1.3589701807213797,-2.158432154803395,1.0908942815125933,2.5947825432121485
1.1547129154205322,0.8412793124193549,0.6236833448257211,-0.9948449418370549,1.357728467455183,-2.155987670647406,1.0865050816198536,2.58065809648388
1.163295030593872,0.8422628248865097,0.6229044306670478,-0.9908948022730687,1.3521456024440488,-2.1561200749246026,1.0850931431494075,2.5821549221764357
1.1634190082550049,0.8420987284777907,0.6231306291546233,-0.9917061213875609,1.3528144836418674,-2.1564446002684865,1.085371078619266,2.580236089820477
1.1635189056396484,0.8419419429020559,0.6227214033181467,-0.9919607110326388,1.3526898582525428,-2.1561069296745585,1.0853685496532195,2.580168508416862
1.1672730445861816,0.8379970681280005,0.6188491638844621,-0.9960519034052723,1.3507282936130434,-2.147353564302294,1.080335553763185,2.565606724038531
1.1673870086669922,0.8407545305909052,0.6207731528817216,-0.9925434975589547,1.3456741491503519,-2.1483939488179855,1.0780353552955517,2.566985787129546
1.1689579486846924,0.8389856109883977,0.6200962222045839,-0.9934756500674722,1.3464459940383122,-2.1477081621748915,1.078097198532028,2.5647441458502573
1.1706769466400146,0.838356027869771,0.6198622589531405,-0.9946279526876938,1.3451001824779383,-2.147854299206839,1.0777605320285688,2.5630586389371834
1.172456979751587,0.8383148352874983,0.6197660538623933,-0.9945591965791691,1.3435184183978233,-2.1471823693275707,1.077223174757775,2.5622949056618913
