wycongwisc/urdf-loader-test-vr/sample files/sawyer animations/6_toys_base_0.csv
time,j0,j1,j2,j3,j4,j5,j6
0.002395153045654297,0.8285623043874126,0.6810078090817476,-0.889369222542263,1.488097589846799,-2.1290787461442022,1.2115541226770383,2.628458401433464
0.0030422210693359375,0.8285623043874126,0.6810078090817476,-0.889369222542263,1.488097589846799,-2.1290787461442022,1.2115541226770383,2.628458401433464
0.003226041793823242,0.8285623043874126,0.6810078090817476,-0.889369222542263,1.488097589846799,-2.1290787461442022,1.2115541226770383,2.628458401433464
0.003365039825439453,0.8285623043874126,0.6810078090817476,-0.889369222542263,1.488097589846799,-2.1290787461442022,1.2115541226770383,2.628458401433464
0.004620075225830078,0.8286075756321042,0.6810137174112298,-0.8893669666775518,1.4880229736600825,-2.129105284891412,1.2115517949467378,2.628462610281326
0.005899190902709961,0.8286075756321042,0.6810137174112298,-0.8893669666775518,1.4880229736600825,-2.129105284891412,1.2115517949467378,2.628462610281326
0.007501125335693359,0.8285429998629038,0.6809708733959343,-0.889461149643684,1.4880210713421111,-2.1291088706154144,1.2113703654052923,2.62841357545883
0.009105205535888672,0.8285896614462124,0.6809839017837097,-0.8894453084882482,1.4879503436090322,-2.1291222871715414,1.2113823445264122,2.6284219421275474
0.0103302001953125,0.8285896614914383,0.6809839017896122,-0.8894453084859946,1.4879503435344907,-2.1291222871980535,1.2113823445240868,2.628421942131752
0.01211404800415039,0.8285894690856266,0.6809749041422639,-0.8894607097837104,1.4879582139119851,-2.129117676564409,1.211381910946105,2.628419448945827
0.013842105865478516,0.8285762926987733,0.6808515910870924,-0.8896527211343291,1.4881418791249732,-2.129052759059321,1.2114048782764866,2.6284128574464827
0.015595197677612305,0.8287347733749308,0.6809056208961007,-0.8895215033856482,1.4882140557487757,-2.1291235498550405,1.2113332333050684,2.6286283866911875
0.017348051071166992,0.8286927178458685,0.6809076112017021,-0.8895548593446442,1.4883033113530442,-2.129092699138482,1.2113229680150241,2.6286138805725807
0.01911306381225586,0.8287343255607194,0.6809134019879383,-0.8896074662557734,1.4884091936157957,-2.129074285122382,1.2113263136593753,2.628734814880272
0.02232217788696289,0.8287485095954947,0.680984429936741,-0.8895970789519069,1.488412308272531,-2.1290952648465784,1.2113114318170155,2.628801398622054
0.027192115783691406,0.8287501370359028,0.6809914989021604,-0.8896485885251052,1.4884252381066814,-2.129069790013406,1.2113203330709883,2.6288448000567426
0.027273178100585938,0.8287403978553511,0.6810688239544079,-0.8895495304856379,1.4884183205689263,-2.12906655801325,1.211304689202995,2.6288503822909295
0.028828144073486328,0.8288089420928993,0.6811043240404443,-0.8895306989835088,1.4883804159807943,-2.129049570299949,1.2113620478486373,2.628857047960706
0.031809091567993164,0.8288058143335719,0.6810996009604114,-0.8895393127309965,1.4883938984752618,-2.1290423839880326,1.2113639889946222,2.6288563641646334
0.0319671630859375,0.8288727610765736,0.6812419125016733,-0.8894470699102132,1.4884067086541317,-2.1288787075819013,1.2114898390287616,2.628863809569786
0.03347611427307129,0.827105456087514,0.6809714788432271,-0.8876555878118929,1.4872800932201258,-2.1286426713779187,1.2095820062428517,2.629813087285952
0.03510904312133789,0.8247698622793186,0.6792128116047318,-0.8898527993371028,1.4860502528468735,-2.1297242530840608,1.2069248914186348,2.63158782015819
0.03672313690185547,0.8254427414045746,0.6796949614197111,-0.8905035147575976,1.4857859434546747,-2.1299799613974453,1.2073226198514804,2.6310592826924943
0.038268089294433594,0.8252758093389494,0.680081663978511,-0.8901632848341897,1.4858608745187392,-2.1301851482799736,1.2070243496878037,2.6310309084543957
0.03979802131652832,0.8252836485240973,0.6811099965158615,-0.8906034057671652,1.485632599070659,-2.131251593666343,1.2068499105920274,2.6315849792561306
0.041648149490356445,0.8251594728167957,0.6806760505487562,-0.8909022454085191,1.4856224425693767,-2.1311497264462864,1.2069997393621426,2.631885452759202
0.04339003562927246,0.8249841531249007,0.6809739801351099,-0.890524779855561,1.4855613741269356,-2.131290633320224,1.2069044810242509,2.631881402886367
0.04499006271362305,0.8246458441668753,0.6814722498030288,-0.890582202768845,1.4852852423807412,-2.1316730699746786,1.2075587676167663,2.6319450470323886
0.04668903350830078,0.8245641155367397,0.6813067849566421,-0.8906810686300417,1.485284388690374,-2.1315578294000317,1.2076474283790386,2.6320463183234097
0.049880027770996094,0.8241824307780922,0.681453705227933,-0.8908326167142351,1.485362168639575,-2.131747110512385,1.2080125665015078,2.632308446603376
0.04998302459716797,0.8242270853996272,0.681508298646971,-0.8908068354929496,1.4853442478976158,-2.1318199555637847,1.2080484689138,2.6324146642621127
0.05183815956115723,0.8241871282150007,0.6815111318574285,-0.8908165207460617,1.4853908623962735,-2.1318001193949923,1.2080578386566379,2.6324791738411317
0.05353212356567383,0.82410168286385,0.680618145160039,-0.8914419685376112,1.4858438341712414,-2.1312015818719767,1.2085116836264054,2.632489939485151
0.0552060604095459,0.8239578932250584,0.6807272691354183,-0.8913954575984568,1.486056657387203,-2.131202874110317,1.2084422612966954,2.6324493258556703
0.05833721160888672,0.8239416286959655,0.6808300893355773,-0.8915427064285151,1.4866808181264635,-2.131444091580642,1.2086531819087334,2.6328943410993175
0.05839204788208008,0.8240272897049162,0.6807802328232744,-0.8915273847809186,1.486550639915238,-2.1314715991778423,1.2087062483366011,2.6330007766602073
0.06324601173400879,0.8240181893805163,0.6808593266669277,-0.8914586677576586,1.4865429013341673,-2.131572764028979,1.2087889868299482,2.633250093080377
0.06331801414489746,0.8239707903564767,0.6808819199616406,-0.8914889458238698,1.4866256404061637,-2.131562148198553,1.2087866336878585,2.63323091992011
0.06337618827819824,0.8241948825810449,0.6805828702304357,-0.8917497568965392,1.487223010167041,-2.1311599017621456,1.2096411361756314,2.6338891134973643
0.06504607200622559,0.824439756417945,0.6808489681876962,-0.891634655445393,1.4871315483410417,-2.131429653931058,1.2097392571931924,2.6339585377446886
0.07157516479492188,0.8243332951310249,0.681045236642819,-0.891578305213206,1.4879688073670272,-2.1317530639753994,1.2105236890246895,2.6351203943422425
0.0718851089477539,0.8243280115757899,0.6811500772661667,-0.8916376570486966,1.4879044130642396,-2.1319667775226585,1.2105349244492982,2.6352189484561492
0.07331609725952148,0.8243712751568302,0.681407315329673,-0.8912643206345751,1.4877943302518895,-2.1321659812191953,1.2104287966860345,2.6353627160902873
0.0749351978302002,0.8246014287221002,0.6815898838854204,-0.8911375639522063,1.4880127927342717,-2.1325161647584077,1.2106159000750703,2.635851065259663
0.07809615135192871,0.8245608519377791,0.6814830319931899,-0.8912649862596829,1.488116904992905,-2.1324404563106416,1.210685566875487,2.6359052293712644
0.07816004753112793,0.8245186541913581,0.6816662050694888,-0.891287124231404,1.4885371867660224,-2.1327464095225794,1.2109885523108914,2.636597891135192
0.07968401908874512,0.8244044346493425,0.6818033505715824,-0.8914313921067999,1.4884633260407556,-2.1327115010963427,1.2110464529026292,2.6367069613739167
0.0815591812133789,0.8245021841639217,0.681912041362971,-0.891488688233432,1.4885123551678212,-2.132644643478901,1.2109347718775036,2.6367930167152958
0.08339715003967285,0.8234785149526678,0.6810826478958311,-0.8927655939921749,1.4878515744186411,-2.1333766051151724,1.209907474064161,2.6367665696311615
0.08548712730407715,0.823316878040008,0.6811913654565959,-0.8925989852174436,1.4879075557218144,-2.133357534953715,1.209789876970409,2.636758015308931
0.0870521068572998,0.8231840905280626,0.6813137248359871,-0.8926237569446372,1.4876893008493928,-2.1333317806876986,1.2097636926477824,2.6366712162286374
0.08867621421813965,0.8232053185925531,0.681291525468977,-0.8926633682355217,1.4876729113473555,-2.133325135321746,1.209781870397509,2.636671879590207
0.09018921852111816,0.8231849709190563,0.681319635411799,-0.8927515205247787,1.4876206015732605,-2.1332389913306993,1.20974710087704,2.6366564033419118
0.09238409996032715,0.823176153156813,0.6813435426440452,-0.8927301072388791,1.487619741161938,-2.133242681376358,1.20972999948425,2.636657025538721
0.09402108192443848,0.824186546278787,0.6812406226407025,-0.8923072341285933,1.4884105101997076,-2.1319556452383903,1.21051661087847,2.6369513954879356
0.09725618362426758,0.8240346226557631,0.6813950570068205,-0.8920761224322908,1.4885060387463616,-2.1319640798250807,1.2103550987438958,2.636955702681524
0.09733915328979492,0.824126745854163,0.6814273923155433,-0.8920388601219517,1.4884743400114984,-2.1320237700221196,1.2103320804066522,2.63699646892107
0.0988152027130127,0.8243017083962203,0.6813959179461193,-0.8920591279006302,1.4887069801780246,-2.1319945991935967,1.210189572190088,2.637171669953323
0.10255002975463867,0.8243098634338075,0.6814251936688274,-0.8920334773921602,1.4886886059378968,-2.1320083383711377,1.2101802407610696,2.6371856580107362
0.1026601791381836,0.8243658381283822,0.6820015526797379,-0.8923638188998616,1.488705017390201,-2.1317566214944175,1.2101706319470023,2.637660922529133
0.10466122627258301,0.824177830088399,0.6818238318096848,-0.89219639051913,1.4888036180116613,-2.1313404703075465,1.2102117194924669,2.6378341113906827
0.10618901252746582,0.8246493114323846,0.68212134573286,-0.8919176973813774,1.4891437123900657,-2.1307005453522208,1.210795195578343,2.637793160471728
0.10776519775390625,0.8246874354382735,0.6821067964451621,-0.8919028474825732,1.489076153349697,-2.1307301766437545,1.2107831299341798,2.637844375740277
0.10941219329833984,0.824684802939275,0.6821134826706986,-0.8919544798342557,1.4890747230762298,-2.130816215510722,1.210648519189412,2.637931471600449
0.11461615562438965,0.8246931594729958,0.6821325083294282,-0.8920092277358385,1.489093931326914,-2.1307683720628394,1.2106532799964207,2.6379679263719047
0.11661100387573242,0.8245319081792783,0.6821574007620369,-0.8920435952015329,1.489414492304022,-2.1306590784754995,1.2105362168493294,2.637878067171243
0.11832118034362793,0.8248641623841692,0.6819556916188427,-0.8921685749592692,1.4899676142425082,-2.1305098953317216,1.2102955814202307,2.6380176734793617
0.11991119384765625,0.8249960907396254,0.6819668300730231,-0.8921159698092787,1.489835671324657,-2.1305783363990787,1.2103057920290108,2.6380864628039475
0.12153816223144531,0.8251253839665762,0.6820302980224581,-0.8920375854150557,1.4898656649893598,-2.1306034057924745,1.2102167683507314,2.6381707212170307
0.12341713905334473,0.8244614715843417,0.6820231002405732,-0.8923581455297922,1.489105744357599,-2.1308936552528412,1.2099100041725457,2.6379435700314207
0.12505412101745605,0.8244907302864853,0.6820075254732431,-0.8924304405039392,1.4891110963383711,-2.1308708152475715,1.2099498291071595,2.6379108190966623
0.1266930103302002,0.8244838267973505,0.6820818401387684,-0.8924788945812144,1.4890782815033194,-2.130679356545823,1.2099951712629722,2.637796629892382
0.12817907333374023,0.8244779160972812,0.6821058337331891,-0.8924382833457365,1.4890499761699834,-2.1306853378832304,1.2099681973051144,2.6378093260079556
0.1315021514892578,0.8245004356137962,0.6821560783600354,-0.8924695609159395,1.4889730382656425,-2.1306584726532525,1.209897980003621,2.6378032454882665
0.1333470344543457,0.8244827177328575,0.6821789794529317,-0.892511724526582,1.4889823361703014,-2.130593869266425,1.2098642511335593,2.63780461497403
0.13341021537780762,0.824514767280776,0.6822202509501023,-0.892529362783385,1.4889441618161616,-2.130589527465795,1.209845951309271,2.6378192753125917
0.1351611614227295,0.8245383835145826,0.681822180080516,-0.89304164875244,1.4893602299229982,-2.130065961124801,1.2102197722143124,2.637766104700121
0.14186906814575195,0.8249768178743095,0.6821313903453029,-0.892541495397708,1.4900031981390423,-2.129318335606592,1.2108354665772827,2.637948294635536
0.14200615882873535,0.8251273680699988,0.6822121620454081,-0.8925097411397885,1.4900512530854473,-2.1294472894150935,1.2108351880668433,2.638114409191602
0.14206314086914062,0.825093185575802,0.6822341948902811,-0.8925336013969086,1.490161454316769,-2.12943219610598,1.2108255232779677,2.63820391828879
0.14211416244506836,0.8251331587811602,0.6823077398015047,-0.892556902031768,1.4901774447529648,-2.129467151583258,1.2108429205848563,2.6383229590532946
0.14539408683776855,0.8253540061122084,0.6828204817124813,-0.8918319595479404,1.4890792301980924,-2.1297400363069414,1.210636787189266,2.6383988956940745
0.14711403846740723,0.8239200887429825,0.6832759926528084,-0.8925032945484407,1.4878074987257892,-2.1301993988686787,1.2102651693227857,2.6372317505995007
0.14718222618103027,0.8241119012614228,0.6830786006234428,-0.8926818236301198,1.4876163473627857,-2.1301500966169673,1.2104229665127604,2.6372975230934674
0.1489560604095459,0.824056818228189,0.683040642829148,-0.8926379496071817,1.4875746742266769,-2.1300335813576488,1.210407168080568,2.637309993203546
0.15101218223571777,0.8241077134179343,0.6832001998778505,-0.8926714921739897,1.4873574297808134,-2.129737937770085,1.2103863968093105,2.6369646662588737
0.15280914306640625,0.8241094489707661,0.6831588379634039,-0.8926669630137816,1.4873104021404795,-2.1297092117883882,1.2103692300921614,2.6369999931608574
0.15913605690002441,0.8241322527602777,0.6831772395025514,-0.8927794907069667,1.4872201256523685,-2.1296468859470608,1.210129834544493,2.63692837587972
0.16247105598449707,0.8241758405925245,0.6832495746012526,-0.8927844606201994,1.4871771898185644,-2.1295397483599006,1.2101448177894343,2.6369466741222016
0.16440510749816895,0.8241647302512458,0.6832977018178978,-0.8928516032590614,1.4871834255135954,-2.129512183907784,1.2100893211727977,2.636962178240259
0.16449403762817383,0.8241852969095284,0.6833370698178094,-0.8928651059974024,1.4871439026862647,-2.1294878883864232,1.2100718449161154,2.637002935373408
0.16958403587341309,0.8241724693527761,0.6833701003301489,-0.8929090302047358,1.4871576585831436,-2.129445911833208,1.210049591794612,2.637021685974196
0.17121100425720215,0.8241957322076757,0.6834190812122053,-0.8929293854677047,1.4871236280752733,-2.1294361742123336,1.2100301917543979,2.6370568510191283
0.1713550090789795,0.8241795351626721,0.6834423267983373,-0.892965695197808,1.4871350156623593,-2.1293946775076256,1.2100104845182842,2.637080069086925
0.17141103744506836,0.8242036658389028,0.6834964239906192,-0.8929910836842309,1.4871048839301642,-2.1293865369891747,1.2099915696611734,2.6371132319789328
0.17323017120361328,0.8241870666094558,0.6835192155274848,-0.8930267499447037,1.4871162965176856,-2.1293453228278914,1.2099723174316692,2.63713730368933
0.17480802536010742,0.8240382938690854,0.6839334536332621,-0.8922073847709777,1.4863527034711683,-2.1295658603496297,1.2093854041389553,2.6372822713558683
0.1749420166015625,0.8235724022122622,0.6842681575853405,-0.8933279871964815,1.4851079922938153,-2.1305978121673417,1.2081425854610173,2.636456744042817
0.176591157913208,0.8234287546728302,0.6838665725484161,-0.8934198421009484,1.4849361557788467,-2.1303497005040666,1.2081656564010068,2.6366813746258386
0.1782701015472412,0.8230377671852768,0.6837562903156947,-0.8936965175298741,1.484730519093119,-2.130449638006615,1.2079426972246927,2.636552063049704
0.17992711067199707,0.823048783153794,0.6838184271238119,-0.8936386648335767,1.4846708526366539,-2.1304890187949326,1.2079185546214217,2.6365453877527654
0.18183207511901855,0.8229924068828481,0.6838874183817356,-0.8936999531241543,1.484500968581359,-2.130402842061342,1.2078997069632882,2.6364270257946645
0.18425416946411133,0.8229905225805294,0.6839257792688502,-0.8932274707124803,1.4842916601863627,-2.1303377007557174,1.2078800885262708,2.6367600834436318
0.18587923049926758,0.8234343345429838,0.6842699096469596,-0.8929017420977813,1.484781060319487,-2.1302202713513156,1.208548089571392,2.6371830978552926
0.18755102157592773,0.8232744582388672,0.6841969481444022,-0.8929876628781113,1.4849677279235018,-2.130306795765654,1.2085482348908492,2.63743006003273
0.18928313255310059,0.8233369274155052,0.6842603459023187,-0.8929835792196954,1.4849377498919933,-2.1304288479686297,1.2086127976767742,2.637545397704341
0.1945021152496338,0.8233184439482858,0.6842265662907153,-0.893031667270787,1.484974286655971,-2.1304005658568554,1.2086378061606537,2.6375619531241905
0.19458413124084473,0.8232657791844645,0.684331466702604,-0.893073954382355,1.485086594550763,-2.130501278723358,1.2087570994630004,2.6378272320743945
0.19465017318725586,0.8232413868574839,0.6843477132869394,-0.8927313731463071,1.4855393235644878,-2.1303951301680724,1.2083620266236548,2.638067610047381
0.19616317749023438,0.8233578866215298,0.6844114181467362,-0.8927349705572964,1.4856217336806068,-2.130442211633585,1.2083326155958187,2.638104456557692
0.1978161334991455,0.8233449645332241,0.6844155550373273,-0.8927331291387777,1.4856389937736285,-2.130433931886235,1.2083249387066903,2.6381062176990495
0.19944119453430176,0.8233597752742088,0.6844313525406474,-0.8927638347469002,1.4856868648127337,-2.1304091206423905,1.208311080673134,2.638159926104172
0.20420312881469727,0.8233733444827636,0.6844385443576281,-0.8927631659386034,1.4856730206442224,-2.130417692514857,1.2083130227449017,2.638166936151675
0.20786809921264648,0.8231948329075812,0.6845963465802769,-0.8926535222038294,1.4859218737916204,-2.130456468677764,1.2080755148822426,2.6380679942185843
0.2079310417175293,0.8233669921075424,0.684516370611139,-0.8928378016539404,1.4860357333688397,-2.1305791684393403,1.207953800856645,2.638038740204187
0.2096412181854248,0.8236240635531988,0.6841965655980583,-0.8927893623307532,1.4862198154671407,-2.1307232545425605,1.2072894940575267,2.638330445927517
0.21128010749816895,0.8236370525011263,0.6842556368333645,-0.8928259989474611,1.4863114360733838,-2.130741485215417,1.2072713126962191,2.6382570020431158
0.21481013298034668,0.8238217770836493,0.6842502899612137,-0.8928067631844264,1.4864016066549417,-2.130636440059009,1.2071714447767254,2.638274982452017
0.21497106552124023,0.8233496099358076,0.683991115304191,-0.8931594855548355,1.4867809547333335,-2.13087442877618,1.2069720036620901,2.6385697746202514
0.2166590690612793,0.8234669325053625,0.6839445559698005,-0.8932729673259807,1.4867209724032058,-2.1309308410324586,1.2070577357633367,2.638588229905223
0.22092819213867188,0.8234175034156709,0.6840777568831344,-0.8932997189793537,1.486803514910339,-2.131204795186689,1.2071245695199648,2.6387832827089963
0.22101712226867676,0.8234056283680502,0.6840437034423482,-0.8933189212017878,1.4868095581615115,-2.131181296164436,1.2071388985819964,2.6388071387132435
0.22119617462158203,0.8234057451017868,0.6840436566706525,-0.8933190349224276,1.4868094986182228,-2.1311813527579258,1.2071389840290239,2.638807157444588
0.22281217575073242,0.8231759188490031,0.6835837556752578,-0.8937406015352939,1.4872544505561747,-2.130616431236331,1.2074863056808975,2.6389172623697936
0.22449803352355957,0.8234100677481776,0.6842513938745305,-0.8932532500173964,1.4879626089559868,-2.130459559620801,1.20876829212556,2.6396530421497006
0.22620916366577148,0.8232624790157285,0.684167998905103,-0.8933025168886252,1.4880388230544546,-2.13046437348933,1.2087128220390548,2.639758908060402
0.22780203819274902,0.8231567245406767,0.6842064064691459,-0.8934811562857004,1.488092889371915,-2.1309055268632497,1.2086364704808632,2.6400419784132363
0.2311382293701172,0.823134471728208,0.684146281506008,-0.893511827279471,1.4881013394584583,-2.1308508084353535,1.208675328963404,2.640100778093581
0.23280906677246094,0.8230771433659273,0.6843234140864978,-0.893570869752123,1.488263242650916,-2.130894182561108,1.2088913608681167,2.6403673830463594
0.23437905311584473,0.8226443915663483,0.6842836734109375,-0.8934845997429226,1.4880527312153147,-2.1299286488439466,1.209065265582309,2.6399347760916916
0.2344341278076172,0.8227096071928403,0.6845509293472305,-0.8933626353310195,1.4879750047800135,-2.130079718200957,1.208989433363664,2.639779030321767
0.23596620559692383,0.8227366618093876,0.6846745256387943,-0.8933598240033266,1.487419768121182,-2.1297300238091537,1.2088404128877759,2.6392917815311927
0.23920822143554688,0.8227276586332651,0.6846259882469439,-0.8934688388629466,1.4873586306142452,-2.129534389090093,1.2086037877822056,2.639143434419959
0.24071502685546875,0.8227650307737037,0.6846329467500195,-0.8934961290361111,1.4873422941014893,-2.1295467161663804,1.2086153626519625,2.639129556387902
0.24079322814941406,0.8228280190688202,0.6847162795322764,-0.8935280258169791,1.4872857835453002,-2.129483463603472,1.2085456494505753,2.639069979668038
0.24244213104248047,0.8228037926387949,0.6847067497018557,-0.8935204310920332,1.4872896577705672,-2.1294548975262804,1.2085301336005367,2.639082048647817
0.24411511421203613,0.822809275682061,0.68529573646041,-0.894123402469059,1.4894902169400956,-2.1276494572425473,1.208703833138145,2.6383733576262336
0.24883604049682617,0.8239847886015734,0.6842004693835825,-0.8928978857822861,1.4903798830572381,-2.1270917046968494,1.2088845268607937,2.640643143861769
0.25051212310791016,0.8245839431215508,0.6844912790260316,-0.8934764381146209,1.4907979924135843,-2.127320174445632,1.2092611082002176,2.6401782172314365
0.2521400451660156,0.8252885386436077,0.6847298980362402,-0.8933293570695479,1.4921175841001768,-2.128074336404434,1.2092129683860746,2.641097506840483
0.25403523445129395,0.8248374658272016,0.6847004057090855,-0.8928301995750375,1.4919240871848212,-2.127765772286752,1.209128632996314,2.6413674322188894
0.25722622871398926,0.8241160955767914,0.6850359075758005,-0.8927098715179588,1.4910296744086977,-2.1272339755001184,1.2101516178896725,2.641249252574269
0.2587242126464844,0.8241962877132929,0.6851370251804174,-0.8929069230981904,1.491092969385024,-2.1273566414447638,1.2102260975614993,2.641088058713513
0.2602570056915283,0.8239976143899023,0.6852615482926904,-0.8930200298245314,1.4910014137736878,-2.1274334239260893,1.2102636756891547,2.641029429584927
0.2603600025177002,0.8239364706012614,0.6852687560934504,-0.8930560480869384,1.4909128621443681,-2.1274007258487293,1.2102972561646814,2.6410903537239077
0.26199913024902344,0.8239058824954576,0.6853378499102388,-0.8930805956301331,1.4909146747300541,-2.127404387653359,1.2102904372987946,2.6410917525563447
0.26526808738708496,0.8238882397167914,0.685376558324584,-0.8931360492100163,1.4908787170069553,-2.127362911693145,1.2102894680720049,2.641156220726569
0.2669050693511963,0.8238906066369452,0.6854387814229977,-0.8931540611616132,1.4908793665497682,-2.1273614364813005,1.2102683938284462,2.6411716639686773
0.2669961452484131,0.8238896933097191,0.6854635072875647,-0.8932064090523979,1.4908675261108035,-2.1273133393937007,1.2102545078592684,2.64122353167764
0.26850104331970215,0.8238979330532976,0.6855224334543856,-0.8932141033192142,1.4908553473584347,-2.127313453866154,1.2102313780614766,2.641243917014231
0.26999902725219727,0.8238960471279013,0.6855390222430522,-0.8932680529333359,1.490853261095836,-2.1272682437090613,1.2102209140635145,2.6412806806636233
0.27184510231018066,0.8239046754634408,0.6855964223735531,-0.8932706835589432,1.4908360911214151,-2.1272677007057443,1.2101963783271823,2.641304167208644
0.2733941078186035,0.8234148096509867,0.6850242807115985,-0.8933081556241925,1.4912221193877573,-2.126348218346915,1.210362533282708,2.6415740138178
0.27504515647888184,0.8239797613175667,0.6855859808718988,-0.8929133426435213,1.4917801716971708,-2.1255947560399213,1.211374252607939,2.641555022349368
0.27658605575561523,0.824023356820466,0.6855042085462961,-0.8928991810328497,1.4916572978178528,-2.125611272860635,1.2113776912150858,2.6416729596333655
0.27817606925964355,0.8239521353171856,0.6854662263114806,-0.8929605738901714,1.4916509218577736,-2.12579524769907,1.2112219903802954,2.6418794161905894
0.2796640396118164,0.8239369707049871,0.6854888443867131,-0.8929867197640023,1.4916996397081475,-2.1257923609308884,1.211225156326633,2.641862530719227
0.2813720703125,0.8239223517971249,0.6856225642322523,-0.8930796009155275,1.4917863979857848,-2.1257603264762475,1.2113062239298655,2.6421042493704765
0.28304219245910645,0.8235569411826863,0.6855813348244081,-0.8928017331862271,1.492092276322808,-2.1253282837536296,1.211270304339026,2.642234453761855
0.28457021713256836,0.8240270891456423,0.6857652021684527,-0.8923394863741448,1.4930304097628586,-2.124186190720068,1.212424758645091,2.6426812227871856
0.28615522384643555,0.8243023788083479,0.6858853673382297,-0.8923728827431894,1.4928521944410127,-2.1243782260877357,1.2124855148896423,2.6426918437036675
0.2908461093902588,0.824257843334424,0.6859748770508398,-0.8922948933232178,1.4928847139035586,-2.1244527757551412,1.212417025315523,2.642706001408779
0.2925240993499756,0.8242430157901247,0.6860413937170922,-0.8923652481045178,1.4929732230968769,-2.124838816365572,1.2123180867770542,2.6430246095020875
0.29433202743530273,0.8242415099743506,0.685976033432369,-0.8924349275844722,1.4929926491786851,-2.124787162638517,1.212365651970032,2.643054503769662
0.29748010635375977,0.8234152150188755,0.6855973450139057,-0.8926228491599065,1.4934164382646926,-2.1239649385887382,1.2123330112637245,2.6430270776757236
0.29754114151000977,0.8235372556881997,0.6855395869506719,-0.8928356883054739,1.493468698110829,-2.1239333625949985,1.2125038736758629,2.6429825084894794
0.2990450859069824,0.8234778791734264,0.6856001149434126,-0.8928096774382058,1.4935923905884336,-2.123863457205083,1.2125479765531417,2.6429701688342235
0.30057406425476074,0.8235873646387173,0.6858031891927966,-0.892696693617946,1.4937601734294406,-2.123666128212106,1.2129954623644723,2.6431679626132962
0.30239105224609375,0.8235008488103078,0.6859109249489161,-0.8928020969028783,1.4938441856901226,-2.123878096641095,1.2129754884995445,2.6434512832538357
0.3055880069732666,0.822647959643396,0.6859098040565487,-0.8926951423484654,1.4942087628841982,-2.1231069447321658,1.2127770325062177,2.6432411814809385
0.3056471347808838,0.8228804009081622,0.6857772171076646,-0.8930977576542571,1.4945064750107662,-2.122890239609168,1.21307792230228,2.643093818441553
0.3071610927581787,0.8235379817284545,0.6860070321100411,-0.8926233474860118,1.4953146823364694,-2.1219688078000045,1.2136148852261097,2.643202434940786
0.30868101119995117,0.8235761597938807,0.6861068728781007,-0.892484036538528,1.4952506550139388,-2.1220675808347984,1.2135390507078792,2.643249949685646
0.3102071285247803,0.8236850574795898,0.6861093911292195,-0.8925198452359163,1.4953046641537682,-2.1221632939083093,1.2134281093133918,2.643371438427307
0.3133680820465088,0.8236845671047845,0.6861209459736543,-0.8925520597603869,1.4953639686806752,-2.1221177974370913,1.2134085263164465,2.6434341029222854
0.31499814987182617,0.8237227130452406,0.6861769945076873,-0.892574654394829,1.49535112964906,-2.12211857753927,1.2133955072051545,2.643498880857985
0.31505608558654785,0.8227922354351157,0.6854501219053718,-0.8933298837344218,1.4958951093773558,-2.120961477193094,1.2134155897082286,2.6433317909446252
0.3166511058807373,0.8237681397792185,0.685568197428281,-0.8930799026270176,1.4978978278170045,-2.120969653850862,1.2134263192023726,2.6442588136361276
0.3182082176208496,0.8239809587330833,0.6855238282254638,-0.8931635832274512,1.4977764990043132,-2.1210754172961788,1.2135347384458284,2.644340545286172
0.3215451240539551,0.8243066658099715,0.685664364657416,-0.8930421417430885,1.4981015483438642,-2.1215499763177594,1.2136763124415275,2.6450521047596074
0.32160520553588867,0.8241461668441853,0.6856695856834012,-0.8930244540892793,1.4982560940180052,-2.121464236729938,1.213630889120993,2.6450475479086317
0.3230750560760498,0.8233203967944475,0.6854117006387898,-0.892615998310704,1.4978217013466868,-2.120650620579077,1.2136671426664987,2.6451678691863365
0.3246300220489502,0.8219202087784077,0.6865656054941349,-0.8931330690653323,1.4955015065642667,-2.1194047195780805,1.215126108104158,2.6426800154091317
0.3261852264404297,0.8216758965532581,0.6863209476549333,-0.8930198758148765,1.4949741805911232,-2.1191988687014347,1.2146025121232376,2.642615420630515
0.3323831558227539,0.8218280146026605,0.6863288804401626,-0.8932655633556016,1.4948481838268723,-2.119166640559005,1.2144989957791559,2.64230981268174
0.3324880599975586,0.8218135767621044,0.6862900036102053,-0.8932043291863203,1.4946512397089036,-2.1189844089231826,1.2143176099257555,2.642237448586622
0.3340911865234375,0.8218879064994691,0.6863205929556644,-0.8933031256966019,1.4945945777709504,-2.118921660982579,1.214245756000319,2.642097369162411
0.3371870517730713,0.8218963788545958,0.6863270953822256,-0.8932871791428504,1.494500010129254,-2.1188152247377743,1.2141407765868946,2.6420745302262505
0.3372530937194824,0.8219365539329122,0.6863626754544554,-0.8933545375184851,1.4944754578378208,-2.118769126556967,1.2140945378874508,2.6420206653107168
0.34021902084350586,0.8219424015871052,0.68639139370893,-0.8933570520539259,1.4944231390066345,-2.118705433253012,1.2140312620697604,2.642035863868715
0.3402891159057617,0.8219641569957736,0.686431961344147,-0.8934200825259967,1.4944154036219597,-2.1186670580714786,1.2140008734758565,2.64202400582322
0.34350013732910156,0.8219679368721247,0.6864741680712784,-0.8934264500162631,1.494378247665469,-2.1186269097905877,1.2139572705156365,2.642059685449866
0.34357118606567383,0.8219769861683462,0.686506438111028,-0.8934871137120539,1.494381525808513,-2.1185913390749023,1.213940141650731,2.64206800512902
0.3450601100921631,0.8219837001685907,0.686557400046635,-0.8934923274756729,1.4943508348905277,-2.1185694608305314,1.2139062507306209,2.642105218729031
0.34656405448913574,0.8219846651596959,0.6865761334793622,-0.8935452464749801,1.4943557148228255,-2.1185323555503506,1.2138953403330393,2.642123000311565
0.3481431007385254,0.8219933338180355,0.6866374943642644,-0.8935542817369749,1.494330889592719,-2.118518296678284,1.2138630341541572,2.64215692450949
0.3496971130371094,0.8219918595240352,0.6866501991870577,-0.8936047694734793,1.494334239170121,-2.1184789304800606,1.2138541664787394,2.6421802091431283
0.3529691696166992,0.8220007187321641,0.686715837292376,-0.8936141980815622,1.4943125107538338,-2.1184688093642414,1.2138224967459152,2.6422120822583937
0.3530261516571045,0.8219991338190461,0.6867258595016827,-0.893665016244149,1.4943157393641195,-2.118429208858451,1.213815293722619,2.64223647297772
0.35603809356689453,0.8220079479687338,0.6867922486750129,-0.8936737635470835,1.4942947339934065,-2.1184206556113923,1.2137840927429921,2.642267888053297
0.35610008239746094,0.8220063052209547,0.6868014188401981,-0.8937249130724361,1.4942981337964454,-2.118380991874848,1.213777521193502,2.6422925611441688
0.3576700687408447,0.8220150747093555,0.6868680467752585,-0.8937331589005935,1.4942772720388846,-2.118373087153766,1.2137464854169595,2.6423239158130167
0.3592641353607178,0.8220133789304938,0.6868767791135252,-0.8937845564418827,1.4942808387448854,-2.118333346023862,1.2137402231029877,2.642348658118723
0.36094021797180176,0.8220221295609558,0.6869435478626537,-0.8937923915385693,1.494259980781523,-2.1183258312081823,1.2137092317908116,2.6423799669385097
0.3624751567840576,0.8220203843445574,0.6869519351544845,-0.8938440094855458,1.4942636943124512,-2.1182859818097817,1.2137031729634635,2.6424047072992543
0.3640282154083252,0.8207632154513853,0.6874670567481342,-0.8925660755583451,1.4947667946465144,-2.11675406913562,1.212342927189013,2.642842453053695
0.36560702323913574,0.8195820817926368,0.6867828460404323,-0.8936197221538085,1.4951200903974402,-2.1176893719422716,1.2118975914678447,2.643591712189431
0.3671410083770752,0.8195204233246562,0.6870902010046938,-0.8937275492262564,1.495353641436319,-2.1179409261995423,1.2122159463696676,2.6437114132812063
0.36875009536743164,0.819541935479752,0.6869826743624379,-0.8937410022957473,1.4952652485332263,-2.117897715461668,1.2122758452685443,2.6438366749851907
0.3734550476074219,0.8194055387429937,0.6870163510456565,-0.893751938089168,1.4953421926816652,-2.117944104570226,1.212437838859768,2.6441487440810367
0.37514400482177734,0.8194062127404347,0.6870877327402553,-0.8937651815909757,1.4953869671678715,-2.1179942477718146,1.2124414715101135,2.644123189189974
0.37670421600341797,0.8193244675546265,0.6872401714103367,-0.8938399400016037,1.4954746721314107,-2.1181132946932775,1.2126034910046726,2.644491626349392
0.3782081604003906,0.8193117639725668,0.6872780377616354,-0.8938893045945506,1.4955079740861064,-2.118082729637632,1.2125907490956496,2.6445051790637035
0.37979602813720703,0.8193364385148414,0.6873310126628093,-0.893911533789017,1.495478034889321,-2.118076962947259,1.2125741960742886,2.6445441943766355
0.3831322193145752,0.8193194690973216,0.687362564177119,-0.8939552257210671,1.4954919514157468,-2.118032092277377,1.2125528980749407,2.6445757780021535
0.3846900463104248,0.818478839519696,0.6876119638926255,-0.893144724768304,1.4958283531990502,-2.1171840875894503,1.2118056400421016,2.644594435266676
0.3861680030822754,0.8183399162810807,0.6872568452162893,-0.8939110022635111,1.4963801921459574,-2.1166924023766103,1.2121153225977088,2.6444826090573663
0.38623905181884766,0.8193441096564291,0.6876749054223259,-0.8935902498304988,1.4987626976239907,-2.116884548814229,1.2126009465876426,2.645804368035679
0.3877451419830322,0.8195574980556928,0.6876987242058138,-0.8932934837795132,1.4993324641205967,-2.1176589498951093,1.2128861457928966,2.647360859771251
0.38929319381713867,0.819423467352875,0.6876431844220591,-0.8933085896546268,1.499424529853429,-2.117548887135302,1.212901502202008,2.647408272530396
0.3923342227935791,0.8192775505906155,0.6877493114671501,-0.8934114237084047,1.4995291805711237,-2.1175570358560525,1.2132045694653035,2.6476400283379946
0.39562320709228516,0.8192625266417971,0.6878486651600109,-0.8933905459505864,1.4995250680105865,-2.1176489718280846,1.2132023641031953,2.647747921809133
0.3956880569458008,0.8192513735634751,0.687851490562834,-0.8934616151523499,1.499548024467427,-2.117636457703114,1.2132384437344075,2.647827275643264
0.39577221870422363,0.8184293104123506,0.6877529914540962,-0.8932334929684416,1.4998761592459284,-2.1169595700116326,1.2129365633835154,2.6478113498474793
0.3972291946411133,0.8185099157920604,0.6875583472237161,-0.8936019502906112,1.500095675497189,-2.116775074815064,1.2131426563647472,2.647746792754508
0.3988180160522461,0.8186235063527999,0.6875828464927082,-0.8935472052323492,1.5005299222885717,-2.116419244379393,1.2133658304554282,2.647881081776412
0.400421142578125,0.8186477395543157,0.6876861795283628,-0.8934199457281029,1.5004908075442847,-2.116491541140704,1.2133226708167533,2.6479179225690945
0.40218400955200195,0.8187469826756268,0.6877540652158676,-0.8934029270078948,1.5005406326957107,-2.1165341090706975,1.2133504992948,2.6480413163671312
0.4037971496582031,0.8181095979126392,0.6877556979535339,-0.8929882104437888,1.500795364146145,-2.11614421289049,1.2130722577632962,2.6481939973344573
0.4055302143096924,0.818128859028516,0.6875341968638868,-0.8931737450616916,1.5009765899181589,-2.115950056922212,1.2132525701832544,2.648334784512039
0.4070930480957031,0.8184926103084063,0.6878323474981022,-0.8928562028249297,1.5019464981547348,-2.116007452746191,1.213879044561315,2.64925635593599
0.4088292121887207,0.8181854458975107,0.687842498555265,-0.8931340465745754,1.5019382512030193,-2.1164755933642483,1.2138418410321188,2.6496904885049037
0.41041111946105957,0.8182155805114755,0.6879438226300251,-0.8930890329162913,1.5020181928855927,-2.116281963046953,1.2140000783603957,2.6497369904122645
0.4151182174682617,0.8182233919657604,0.6879812238984945,-0.8930693445837808,1.502009767154617,-2.1163060196454486,1.213987833146919,2.649743459796143
0.41700220108032227,0.8173821678909924,0.687749601164759,-0.8927634306572789,1.5023449272110152,-2.1156702932150107,1.2135397294818904,2.6499355401541678
0.4186100959777832,0.8173876545675631,0.6874635255252307,-0.8931947930770675,1.5025719690107116,-2.1155895566176404,1.2136739575782354,2.649981402666021
0.4202451705932617,0.8171743687429737,0.6872458856565932,-0.893439561219154,1.5031660227983579,-2.1159930683946793,1.213551046491033,2.6506481590194273
0.42197418212890625,0.8173142979015079,0.6874211634966821,-0.8933833061320396,1.503192070896108,-2.116265625059687,1.213736462136895,2.6509596679301173
0.42371511459350586,0.8166533868850836,0.6876203115444598,-0.8924616932350165,1.5039642391291475,-2.114884916338494,1.2136759326241553,2.651363251976413
0.4268021583557129,0.8168039177844516,0.687986723028279,-0.8922658852513656,1.5039601776536078,-2.1151260695120526,1.2136625494098285,2.651294230887376
0.4300391674041748,0.8170171395204497,0.6881529661772289,-0.892102047331476,1.5041554524587972,-2.1150704271616805,1.2139816692342213,2.6516339553239505
0.43178820610046387,0.8169467143212922,0.6881715589403008,-0.892192673586559,1.5042910255841004,-2.1151027043671204,1.213996608431786,2.6517528332210913
0.43189311027526855,0.8169777500259364,0.688242489610732,-0.8922090228322973,1.5042837640537168,-2.115169657165979,1.2140241211182259,2.6518399657130725
0.431988000869751,0.8169653924823839,0.6882223860963561,-0.8922403911796359,1.5043015416424823,-2.1151449395409836,1.214037118645109,2.6518609247953417
0.43360114097595215,0.8164077171240995,0.6882336799239342,-0.8919948384949494,1.5045301602985146,-2.114998071634647,1.2136746936926026,2.651898378518623
0.4352250099182129,0.8162695887847021,0.6878896398667225,-0.8923271046646805,1.5043994942140957,-2.1150372908044637,1.2135528302858836,2.6519817932683454
0.436845064163208,0.8158560735133596,0.6878328110128097,-0.8927189877084893,1.5040680331098786,-2.115713442395718,1.2128688254211315,2.651875299707887
0.4399909973144531,0.815761181810004,0.6877568170406075,-0.8927081575086454,1.50407586335583,-2.115596263256072,1.2128504778229368,2.651919240657007
0.44005608558654785,0.8157269920284819,0.6877822017322236,-0.8927820564358234,1.5040111674220913,-2.1154933084261986,1.2128548841843205,2.6518663875975195
0.4418962001800537,0.8157296403485552,0.6878538250453746,-0.8927841408565921,1.5039487774239453,-2.1154746759805527,1.2128038954512954,2.651856350778943
0.4434070587158203,0.8157321530479933,0.6878593724461292,-0.892840293864239,1.5039329899373537,-2.1154226693344653,1.2127876094448897,2.651862794954974
0.44525718688964844,0.8157435606339035,0.6879398308196548,-0.8928617116727552,1.5038944838404587,-2.115390070467396,1.2127328369282013,2.6518820320660157
0.4469320774078369,0.8157785281543408,0.6883351517149193,-0.8919831636590642,1.5057332500015506,-2.1133414693491606,1.2130982702028374,2.6518917575994836
0.4484682083129883,0.816712244608389,0.6888231427706386,-0.8911672448184298,1.505860685471993,-2.1134821744650916,1.2132281562340916,2.6523619133408425
0.4502871036529541,0.8168994911190767,0.6887058157026544,-0.8911198200873991,1.5062230111186194,-2.113340142523772,1.2132512724623694,2.652763630517198
0.45224618911743164,0.8169113184964117,0.6887404620669274,-0.8910646685785604,1.506193013874552,-2.1133699504166654,1.2132346035293515,2.652806924944002
0.45864105224609375,0.8161868494050784,0.6887975479517614,-0.8904316753907112,1.506481582111399,-2.1128321100536307,1.2126762287759494,2.65289542917781
0.45870423316955566,0.815966693878313,0.6884796315336652,-0.8907753608956268,1.5065080366578198,-2.112587235116036,1.2127793797773092,2.652897034024008
0.4603872299194336,0.8151907442089869,0.6886127767672422,-0.8911498307398679,1.505896711096307,-2.1127708735657555,1.2127571890407864,2.6526036884297266
0.4620401859283447,0.8151938439993767,0.6887260242249504,-0.8911488489779718,1.505787761041583,-2.112625920332508,1.2128139908445632,2.6525771774058007
0.46384406089782715,0.8145099070003344,0.6890060342704833,-0.8904534023118592,1.5060598443846205,-2.1121667792367944,1.2122267959371311,2.652620866132376
0.4654860496520996,0.8144728503727163,0.6890430416728568,-0.890109508812009,1.5057644699710322,-2.111019432342878,1.2123033983148188,2.6521337241945573
0.4685361385345459,0.8146957948821915,0.6890260204593646,-0.8902674736815872,1.5056379981843369,-2.111112515709575,1.2123952733973145,2.652077596475456
0.4685990810394287,0.814711648563393,0.689116906960565,-0.8902333899736893,1.505613471120921,-2.1111447443610545,1.2123128369584584,2.6519859300498765
0.4701251983642578,0.8148096073333595,0.6890167821708704,-0.8903375595319791,1.5052034475058385,-2.1107496064754754,1.2118268706656998,2.651569727359132
0.4717271327972412,0.8148510123809706,0.6890745211090763,-0.8903654969596936,1.5052189111766787,-2.110781622557349,1.211828518547576,2.6515167742000587
0.47375917434692383,0.8149497778968147,0.6891725226171949,-0.8903664277554183,1.5051415605609986,-2.110609371155729,1.2117403386329857,2.651487069303579
0.47534823417663574,0.8149430532465988,0.6891821733009398,-0.890457364472449,1.5051418773079521,-2.1105869623497022,1.2116959644292897,2.6514941982730167
0.4769902229309082,0.8149494552971701,0.6892364120061988,-0.8904474171845268,1.5051083929762064,-2.1105816235915613,1.211659093571819,2.6515211306227515
0.4784581661224365,0.8149363512001182,0.6892386447759545,-0.8904665198027152,1.5051274119146067,-2.1105627361533896,1.2116535744558663,2.651518230159622
0.4801521301269531,0.8150274372875363,0.6898784193521749,-0.8909111112956414,1.5048446180568207,-2.110101150072547,1.2112390899651329,2.651981005354069
0.4817512035369873,0.8150359533232299,0.6898945808081415,-0.8909942928568799,1.5049088601840357,-2.1101034775629444,1.211260255563691,2.6519345027579053
0.4837470054626465,0.8142549888205788,0.6899295777027742,-0.8901995695234697,1.5052198165325585,-2.1092454793349416,1.21079319280573,2.652213419050228
0.485706090927124,0.8144884676850903,0.6896352329856312,-0.8904909113482918,1.5057441534789804,-2.108731088528668,1.2112288391127766,2.6523383155323716
0.48754310607910156,0.815733616691133,0.6902841722374933,-0.8893513112226646,1.5068197909917602,-2.1082716945448365,1.2120439061995756,2.6531822032576415
0.48914504051208496,0.8155679860169838,0.6901866006503206,-0.8894837949678588,1.5070806498405487,-2.108165226481399,1.212019971982312,2.653202800771336
0.4908740520477295,0.815564928619029,0.6900854432537905,-0.8896459089828921,1.5074225434313424,-2.1085471741999107,1.2119680191758289,2.6538269799471146
0.4924631118774414,0.8155720811187009,0.6902827498326406,-0.8896037158962763,1.5074821835500074,-2.1085375648673335,1.212145709812718,2.6539471233807923
0.4943110942840576,0.8148685930247687,0.6902773551037861,-0.8888884553476537,1.5077619678985172,-2.1079608116543205,1.2117526777256955,2.654289069657351
0.4958930015563965,0.8149322839293558,0.6900603157370663,-0.8889430709415818,1.5076992549287493,-2.107748333860086,1.2119763947738544,2.654495743081057
0.49744701385498047,0.815000182040398,0.6903981495925502,-0.888646929670913,1.5081821131231237,-2.1073422074108694,1.2128076699874726,2.654915294556941
0.5021250247955322,0.815014591586358,0.6905024971615977,-0.8886004851548865,1.5081744127152927,-2.1074730011407854,1.2127861487193656,2.654947779440567
0.5038142204284668,0.8142365111456182,0.6903005312796041,-0.8881612711062563,1.5084835138762396,-2.106962730268286,1.2123545345551905,2.655329302186298
0.5071430206298828,0.8140202102853703,0.6896376957225546,-0.8885907865312616,1.5105305096548283,-2.1072917511925575,1.2123004323681617,2.65700323591178
0.5087192058563232,0.8144747947113063,0.689702741307507,-0.8887304974028325,1.510212428801222,-2.107468484567456,1.2125750080920097,2.657128115460592
0.5102710723876953,0.8144967608635185,0.6899895267429227,-0.8884971796055366,1.5103147452547243,-2.1076995799963814,1.2125148540595618,2.65721061302903
0.510329008102417,0.8148171296659615,0.6902081570937032,-0.888371189666268,1.5114258326179282,-2.108600616966321,1.2131580187849207,2.6588626266784363
0.5135631561279297,0.8145631058880826,0.6902272037914857,-0.8885003268679654,1.5115269333683288,-2.10855400457778,1.2133217216169911,2.658998251686014
0.5136251449584961,0.8139251917483481,0.6904614948936558,-0.8878512242846023,1.5117569735243355,-2.1082993522885642,1.2128546701295326,2.6591815190694392
0.5150861740112305,0.8139104772846125,0.6903574115317965,-0.8877812898280852,1.5115879219637722,-2.10823360546797,1.2129385864195472,2.6593732346205616
0.5166420936584473,0.813535424112605,0.6907288704019358,-0.8878180199305027,1.5116064152469166,-2.108298298214686,1.2135847824027548,2.6596876188812626
0.5183072090148926,0.813494749755833,0.6907259944139724,-0.887937861049604,1.511673042293876,-2.1084514791248847,1.21349432938384,2.6599208091020667
0.5205550193786621,0.8135150718880029,0.6908872176772475,-0.887955704691343,1.511711943826275,-2.10837618961777,1.213579421075288,2.660036934397788
0.5225560665130615,0.8134844924335705,0.6909190803982093,-0.8880754844629326,1.5116908019240851,-2.1083873289448944,1.2134890937318819,2.6601342924025344
0.5242931842803955,0.8135063031820362,0.6909982279701371,-0.8880678287683466,1.5116704912213148,-2.1083518776506636,1.213489888548308,2.660168381539681
0.5259890556335449,0.8115583331156626,0.6903692850477781,-0.8883523530077387,1.5108671303760643,-2.107634485987595,1.2125981081881292,2.6597380608173835
0.5275921821594238,0.8116941490115723,0.6909943581780941,-0.888265232058946,1.510648511626999,-2.107977357342014,1.2124318552588773,2.6591231640913673
0.5291941165924072,0.8108983853011604,0.6909103428327096,-0.8885446644848154,1.509317138384079,-2.1078681881715653,1.2120825980794998,2.6585545288212993
0.5307900905609131,0.8109939419859681,0.690953471246138,-0.8887471857772893,1.509392404321608,-2.1078957566034364,1.2121508985045986,2.658387563280433
0.5323910713195801,0.8110160081165257,0.691046345087767,-0.8888002885543596,1.5093356060071648,-2.107679604673181,1.212073151571615,2.658126906114702
0.5340211391448975,0.811078740720725,0.6910445778672544,-0.8887863331703071,1.5091578660217801,-2.1075968999256074,1.2119799069282369,2.6581034063783435
0.5357491970062256,0.8110552714651013,0.6910778108710269,-0.8888418225898177,1.5091869613498492,-2.107513725583403,1.2119062055292789,2.6580254523979283
0.5374062061309814,0.8110587242301878,0.6910891600152025,-0.8888066313971055,1.5091479441265172,-2.1075079881798917,1.2118823069280273,2.6580432032450045
0.5389761924743652,0.8111358398666831,0.6912202105768315,-0.8889216621218462,1.5090296253436981,-2.1073372781420106,1.211689557557954,2.6579507395881685
0.5405302047729492,0.8111172833852712,0.6912343846528269,-0.8889326746857995,1.509018893331791,-2.1072881472264116,1.2116644650478559,2.658010541705266
0.546875,0.8111446393636137,0.6912928032132316,-0.8889743696622113,1.5090085201179833,-2.1072897802814707,1.2116543275029645,2.658032226121227
0.5469892024993896,0.8111264296238877,0.6913309785483583,-0.889014643029662,1.509007617569985,-2.1072319373786716,1.2116233140993238,2.658088919351116
0.5485601425170898,0.8111540606604177,0.691386000852509,-0.8890378809961222,1.508981747125308,-2.1072361545033194,1.2116092431934482,2.6581136729742743
0.5517010688781738,0.8111329806034951,0.6914156221376732,-0.8890802529022723,1.508992754791874,-2.107181985078052,1.211583086527908,2.6581519150720436
0.5518372058868408,0.811161975109428,0.6914684750310487,-0.8890992890331297,1.5089611358634274,-2.107186114090464,1.211568443151826,2.6581794282999245
0.5540831089019775,0.8111395865015256,0.6914983204730871,-0.8891436463605608,1.5089761467281233,-2.1071314853122622,1.211542054208546,2.658213656747659
0.5561871528625488,0.8111702180448543,0.6915504730973507,-0.889161550250385,1.5089421755694448,-2.107136688146324,1.211527817907819,2.65824136841793
0.5625791549682617,0.8111784919211071,0.6916315756308488,-0.8892236293863143,1.5089236810089006,-2.107087521091325,1.2114874135411722,2.6583018120093094
0.5627100467681885,0.811154528950639,0.6916598292147492,-0.8892682884048453,1.5089410138925001,-2.107031921721919,1.2114610508148145,2.6583340575663756
0.5628981590270996,0.8111867552895484,0.6917121061706909,-0.8892854410093624,1.5089053304712718,-2.1070385197269044,1.211447155249302,2.658361596881019
0.5645232200622559,0.811162213089154,0.6917397507108602,-0.8893301042442368,1.508923283600338,-2.1069825071671127,1.211420815829745,2.658393521259866
0.5661840438842773,0.8111949977260394,0.6917922285685407,-0.8893469876728353,1.508887055841919,-2.1069896904316696,1.2114070323713064,2.6584209928423688
0.5694382190704346,0.8111898043830864,0.69178262956287,-0.889372322432499,1.5088954549000755,-2.106967885241439,1.2114090936445387,2.658428069005359
0.5695500373840332,0.8113061408625507,0.6925286281121968,-0.8898556361348501,1.5086854474624511,-2.1066112709037936,1.2110549346300234,2.6589402788482395
0.5710370540618896,0.8112539190133985,0.6924868635659226,-0.889901795323605,1.5087406679404278,-2.1065404447004186,1.2110528607955593,2.6589452220406367
0.5730981826782227,0.8112804560910298,0.6929873158560429,-0.890370544239705,1.5086529696520545,-2.1061534303576375,1.2107878980940905,2.6593514298080954
0.5748310089111328,0.806621627951246,0.6926806963299603,-0.8874102993044032,1.5108752467968516,-2.0996968620224177,1.2069248673351594,2.657508548095036
0.5794401168823242,0.8076968760253793,0.6910936251911491,-0.8884432361653041,1.5091302015187527,-2.1001168162990447,1.2077727559173088,2.6566946144135803
0.5810930728912354,0.8085890145517652,0.6917236489005314,-0.8893006316388523,1.50974064737504,-2.1004648994911164,1.2078657193388653,2.655349460952375
0.5812051296234131,0.8098409820137707,0.6920970563239542,-0.8904754276252269,1.5123095349982056,-2.1021980285611184,1.205453303988634,2.658423288507435
0.5813050270080566,0.8086358192206723,0.6926465590864489,-0.8906768097856024,1.5124699986596342,-2.1037714801818574,1.2071308937474619,2.660543713674132
0.5828850269317627,0.8078060557163734,0.6929874948519138,-0.8898310089760795,1.5128002541535872,-2.1030352652893733,1.2063032829764795,2.660686473244823
0.5884761810302734,0.8077152254947357,0.6927790051051917,-0.8899618103338728,1.5128911274914274,-2.1026800873259943,1.2065124152341398,2.6607608400198792
0.5902671813964844,0.8078132654450014,0.6933309662174384,-0.8897085775454805,1.5129114091351177,-2.1022767829138203,1.2072756110217637,2.6607025645727544
0.5936050415039062,0.8077233873881152,0.6932957956425247,-0.8896799231062036,1.5129307560525236,-2.1022388724762324,1.2072194951202184,2.660751698917435
0.5953261852264404,0.8070246552894847,0.6935817612847593,-0.8889679654707687,1.5132080868256248,-2.1019022257105178,1.2065831052257248,2.6608630716686488
0.5954411029815674,0.8070537931701925,0.693599828422626,-0.8889317583152725,1.5137041502368587,-2.1017936857960304,1.2068212036860921,2.661308163695681
0.5970032215118408,0.807113072958314,0.6936491887082247,-0.8888764643740719,1.5136559174147528,-2.1019151312882736,1.2068763773991713,2.661553585348129
0.5985660552978516,0.8071158272790264,0.6936390851764298,-0.8889662044978486,1.5137208208481858,-2.1019076769083305,1.2069128902822646,2.6615399547706384
0.6003131866455078,0.807089458156861,0.6936503415749025,-0.889008598330555,1.513900336545272,-2.1019635435447155,1.2069186290591385,2.661828712568734
0.6020312309265137,0.8071253287012446,0.6936698913326679,-0.8890226624656038,1.5138799426896357,-2.101990418787429,1.206934918044198,2.661820292005932
0.6036431789398193,0.8066052410431851,0.693827411322063,-0.8884327455327279,1.5141065364404143,-2.1017586995239963,1.2066034808358905,2.6619929378914335
0.6069660186767578,0.806857862631102,0.693896494540601,-0.8878527229690193,1.5145456984298444,-2.101407507679599,1.2069720515590643,2.6626566659747057
0.6085381507873535,0.8070287143359022,0.6938720529387072,-0.8880348188952939,1.5145296068989005,-2.101489416536442,1.2070910294907253,2.662628722194679
0.6085991859436035,0.8071178592808295,0.6939637824364959,-0.8881230287356618,1.5147759324952677,-2.1016872267427265,1.2071986765891831,2.662806874258245
0.6101012229919434,0.8070517633297464,0.6939671565892644,-0.8880512369050401,1.5147918411258883,-2.1016593734618945,1.2071644871392078,2.662854000402408
0.6117451190948486,0.8070128289297417,0.6939668252330029,-0.8880304366543424,1.5148545001695475,-2.10168386103507,1.2072285205318098,2.663065616011953
0.6150891780853271,0.8070440046920706,0.6939823295375767,-0.8880695263807795,1.5148635181325538,-2.1017116492617687,1.2072523166890972,2.663052467569206
0.6165580749511719,0.8064017110811926,0.6939717807960408,-0.8874340171609747,1.515051386765777,-2.101368886032883,1.206875398537563,2.6633585535451783
0.6166231632232666,0.8063669775487124,0.693747083372851,-0.8875158253396954,1.5149510649109406,-2.1012877837229555,1.2069968806929832,2.6635806559528525
0.618211030960083,0.8056594773375032,0.6938134175192244,-0.8877709844924511,1.5152619433014602,-2.101804834782479,1.207589449979927,2.664414551815302
0.6203291416168213,0.8057160417611173,0.693958775857121,-0.8877009024643431,1.515249868517975,-2.101929059973919,1.2075993514015593,2.664404721031276
0.6224751472473145,0.8056985074298547,0.6940562392086317,-0.8876542804383762,1.515398642730051,-2.1019581902403024,1.2078564977829922,2.664727242800228
0.6241040229797363,0.805008667842048,0.6939852200935721,-0.8870510368022051,1.5156721224507628,-2.1015006031087244,1.2074522542801434,2.6650434456021386
0.6271851062774658,0.8049820547309076,0.6937022280933438,-0.8872426802830721,1.5157300656728177,-2.101371986831169,1.2076057724036433,2.6652619474742494
0.6272392272949219,0.804641648379799,0.69372260633038,-0.8873981061971302,1.5166890022195039,-2.1020028832245736,1.208188206817422,2.666503964159502
0.6321091651916504,0.8046927760042429,0.6938587508305517,-0.8872642901676568,1.5165933522818424,-2.102134480707663,1.2081935530640033,2.666550793323346
0.6337540149688721,0.8039505266340367,0.6941077244988736,-0.8865078434115086,1.5168874706925923,-2.1016993679635023,1.2074719472482018,2.6667902453547825
0.6353170871734619,0.8042344561581742,0.6938660554389641,-0.8863479467789823,1.518285263241669,-2.101751867909571,1.207555497172131,2.6678771703945414
0.6369850635528564,0.8045437879913616,0.6939971281473487,-0.8862552894214275,1.5182713668250183,-2.1021424625985867,1.2077415809385037,2.6682623581775453
0.6385281085968018,0.8044969907815758,0.693886740547985,-0.8864028898938909,1.5184097645950052,-2.1020565468143095,1.2078158722137686,2.6683059977704824
0.6401851177215576,0.8044583722563802,0.6940068648407165,-0.88636310080747,1.5188304666334627,-2.1023773527635115,1.2081194388473788,2.669004259324742
0.6417951583862305,0.8043952285167343,0.6940508503724756,-0.8864403726759102,1.5188364104583474,-2.1023811531262284,1.2081769173916441,2.6690304403234015
0.6452491283416748,0.8034581561270682,0.6934017899492003,-0.8854866302001486,1.5184591675702312,-2.101560186285439,1.207688613171722,2.669527200527751
0.645374059677124,0.8020367358110717,0.6928180119344098,-0.8861144012813237,1.517640498756662,-2.101725237030095,1.207946614112461,2.670018259724804
0.6485471725463867,0.802295813037608,0.6930929095179333,-0.8863625627080483,1.5175907151818409,-2.1019364237043385,1.2081249423502716,2.6697844551048022
0.6500401496887207,0.8019973923510949,0.6934645526193942,-0.8864104595269546,1.517310805194803,-2.102433472189822,1.2083245195182515,2.669821357279168
0.6500921249389648,0.8018059036423596,0.6933879455209085,-0.886406002735259,1.5174000217965817,-2.1022994991811714,1.2083092186191793,2.669877493498651
0.651745080947876,0.8016067667703299,0.6933722330413158,-0.8865465719163104,1.5174182783052166,-2.10230248165279,1.208484712732327,2.669994968289115
0.6538941860198975,0.8016461257129431,0.6934230090942545,-0.8865356652018533,1.5173709343952313,-2.102372766909131,1.2085087074023033,2.6700082023996603
0.6574921607971191,0.8014662112731501,0.6935618222671002,-0.8865980240813743,1.5173832843512698,-2.102496176221286,1.2086956752033002,2.670233114949858
0.6575570106506348,0.8014978123350006,0.6935868221441133,-0.8866378557598973,1.5174336194627454,-2.1024673850512614,1.2086808258016175,2.6703177705950747
0.6590650081634521,0.801493280232891,0.6936004809590451,-0.886633885598187,1.5174383681967134,-2.102470667673101,1.2086746747888832,2.670314877456408
0.6605920791625977,0.8014956148537632,0.6936653940395207,-0.8866688151988265,1.517422937535826,-2.1024641106781568,1.2086590456583095,2.670345377380061
0.6622390747070312,0.8014937585484144,0.693654772050475,-0.8866775755192176,1.5174204300523904,-2.1024505191444494,1.2086607116461454,2.670356046962967
0.6639890670776367,0.8013843730227017,0.6934226560489338,-0.8852289192085893,1.5180785230601521,-2.1012418206456047,1.2087169655537595,2.672175015942918
0.6656210422515869,0.8013783199064527,0.6939285725101717,-0.8852782675147002,1.5185669584089776,-2.1015218769555113,1.2086443617160176,2.6716256225877815
0.6671621799468994,0.8020488743439272,0.6942830451947049,-0.8849942389687624,1.519699464217627,-2.1019821320624867,1.2092358590921448,2.67259758119638
0.6687312126159668,0.801987725696971,0.6940908109028304,-0.8850103735596672,1.5196597929590943,-2.101876591650171,1.2092840110632956,2.6728001641625103
0.6702291965484619,0.801773685445125,0.694166002479201,-0.8851862225135129,1.5200769397376726,-2.1022839753179747,1.2095404926342204,2.6733632303326638
0.674835205078125,0.8017722060377352,0.6941837121016531,-0.8851044658947212,1.5200203483072137,-2.1022927734508463,1.2095413430477266,2.6734301338104745
0.6781411170959473,0.8008239367600696,0.6945723025136028,-0.8841376554742967,1.5203954211522606,-2.101324868091629,1.2085110728466448,2.673148736672857
0.6782000064849854,0.800657661171996,0.694230530201011,-0.8848280301625269,1.5208829996438373,-2.100884770914465,1.2085949145112855,2.6728166481427853
0.6797420978546143,0.8010939629577104,0.6940461348505208,-0.8847478052997809,1.52128814710123,-2.1006594000164025,1.2080517819319327,2.672774505399215
0.681427001953125,0.8012356744112406,0.6940883668262812,-0.8846857448949902,1.5211939525818239,-2.100646950595889,1.2079598958412412,2.6727418665880016
0.6846621036529541,0.8002787016580596,0.6944804110967062,-0.8839416351602681,1.5215727132928545,-2.1001051279153393,1.2069205668324923,2.67198732850017
0.6849520206451416,0.8002965492703842,0.6943126876538303,-0.8846909665014137,1.5221016169351542,-2.0998840953517104,1.207005919996164,2.67134594723374
0.6867232322692871,0.8005226479460334,0.6939195510670063,-0.8847257345762856,1.5223757528785349,-2.0996273461170696,1.2063381999478635,2.671311660524252
0.6904251575469971,0.8006237305880219,0.6940519128923551,-0.8846291345147164,1.5223389814604051,-2.0997292553218876,1.2062469500295878,2.671244542084105
0.6904911994934082,0.8010006115184771,0.6938864536395547,-0.8845853720870636,1.5223237430886722,-2.0994246027834227,1.2057849020735185,2.671065938778138
0.6920721530914307,0.8010165189287892,0.6939681178305341,-0.8845924707101464,1.522282380225277,-2.0994131179729814,1.2057377101590732,2.6709757095786273
0.693763017654419,0.8002316771210694,0.6942901969309041,-0.8842469061227506,1.5225924670790343,-2.099591898508089,1.2050142039972878,2.6704482792558673
0.6955301761627197,0.8002716336605626,0.6942889620177554,-0.8848467886533458,1.5224534264650647,-2.0998564322498043,1.2049740289059672,2.670076633984201
0.6971662044525146,0.7989908107678637,0.6938972878210204,-0.8855894395818241,1.5210260717967334,-2.1006643833775005,1.2037581032753646,2.669543055038278
0.6987180709838867,0.7989244679615508,0.6939678490498401,-0.8856750537159574,1.521173964037994,-2.1005754672558545,1.203768906866149,2.6693665767327532
0.701829195022583,0.7989658216387636,0.6940699140587218,-0.8855990196114732,1.5208522963025206,-2.1000593881546976,1.2038705717350373,2.668995119852668
0.7035341262817383,0.798978360166415,0.6941164216612273,-0.8856418571438238,1.5207934730006705,-2.1001063097985906,1.203681835051592,2.668873125535495
0.7051441669464111,0.7977128643542752,0.6939501439430567,-0.8856424609101938,1.5212943319615349,-2.098437448150439,1.2033882628761388,2.6684481704204464
0.7067232131958008,0.7981793268128682,0.6938722144368968,-0.8861760381497784,1.5216707187686884,-2.098224754052496,1.2038269513501545,2.668167392289973
0.7068350315093994,0.7992290340750701,0.6941707360980583,-0.8855675505915869,1.523161031757793,-2.096986357772056,1.204531140839651,2.668325017469223
0.7099080085754395,0.7992813453365168,0.6942735092854564,-0.8852301757247367,1.5229808656625088,-2.097117273723386,1.2043963782660638,2.668499137311554
0.7100222110748291,0.799541325228853,0.6942786494985311,-0.8852036632723421,1.5231557593052758,-2.0973151248320403,1.2042821768087038,2.66870666741058
0.711651086807251,0.7995299721949621,0.6942145899907852,-0.8852410065042453,1.5232005411454783,-2.0972583144883523,1.2042946850362573,2.6687515732315834
0.7133481502532959,0.798839662792774,0.694497912915537,-0.8845363170975608,1.5234730588708472,-2.0971277277816256,1.2035640371186258,2.6688060771772135
0.7180821895599365,0.7978278164405843,0.6943461933669083,-0.8849627250013099,1.5226849469445323,-2.097778239405225,1.202974849265914,2.6687449555584983
0.7198390960693359,0.7979230664433586,0.6943434596615252,-0.8851517892126687,1.5227034512456314,-2.097609249664325,1.203209784014212,2.6686440760990493
0.7216582298278809,0.7979562353594452,0.6943554611210382,-0.8850945821948013,1.5226169394048639,-2.097622388157561,1.2032124126085408,2.6686841904154206
0.7249422073364258,0.7968545676349066,0.6946714609835106,-0.8839716303531375,1.5218407593842094,-2.0973367270610965,1.202016480114471,2.6692686614654058
0.7250010967254639,0.7950571120334713,0.6945278732767157,-0.8844503460419202,1.5189066522537438,-2.097940682743362,1.201331570441064,2.6684909425185537
0.7265431880950928,0.7952106264057408,0.6944667209404931,-0.8850064245088864,1.519189182908015,-2.0978829211277468,1.2016163288897328,2.6680329854861506
0.7281432151794434,0.7948457482936243,0.6944329951357698,-0.885268135885311,1.5189556474643802,-2.09742355880608,1.2015849134925916,2.6674955153477455
0.7297260761260986,0.7948505223577794,0.6945475869311217,-0.885095041593239,1.5188054176046684,-2.0974895688325312,1.2014971007977144,2.66748289310537
0.7330501079559326,0.7948569596951659,0.6946356218318901,-0.8851712254566867,1.5183594446708883,-2.097300448285208,1.2012934694941022,2.667030256289272
0.7331020832061768,0.794837842335894,0.6945894423001162,-0.8852078938384634,1.5183781108211816,-2.0971655912142393,1.2012117543518246,2.6669861925473737
0.7348251342773438,0.7948966761309578,0.6945989484898485,-0.8852081156855091,1.5183092033902865,-2.097144326207041,1.201170903388027,2.6669758722031984
0.7378761768341064,0.7948961152290824,0.6946076044063088,-0.8852414222564458,1.5183149135579934,-2.097081732177237,1.2011219245839773,2.666945735655159
0.7394120693206787,0.7949300919407564,0.6946369962246604,-0.8852493271544836,1.5182772791101706,-2.0970756133107886,1.2010956489822866,2.6669399179077984
0.739469051361084,0.7949274680397989,0.6946277360708281,-0.8852669216254141,1.5182819721072436,-2.09705692058609,1.201094202921208,2.666940457830949
0.742631196975708,0.7949876312580241,0.6947549445314827,-0.885348682518911,1.5181934831172523,-2.096935662657768,1.2009520044504367,2.666946842731699
0.7442212104797363,0.794979113983561,0.6947615580868685,-0.8853889093963304,1.518204237268982,-2.096910547139732,1.2009567668900825,2.6669774916144244
0.7443790435791016,0.794979559035043,0.6948159364374663,-0.8853988397491732,1.5181954174740406,-2.0969105161437493,1.2009420812799727,2.667016318243177
0.7459001541137695,0.7949785589667006,0.6948362388318464,-0.8854427969917987,1.518197949740518,-2.096880641731418,1.2009359138923201,2.667049297859572
0.7506041526794434,0.794984067595458,0.6948905998793958,-0.8854550878779243,1.5181857459159132,-2.096874307520872,1.2009133357949513,2.6670781038586173
0.7506771087646484,0.7949841581459572,0.6949080676326166,-0.885496756524524,1.5181861625276596,-2.096842397578753,1.200904237817645,2.6671054623488626
0.7507340908050537,0.7949897703530878,0.6949568207626892,-0.8855055153133325,1.518169508270048,-2.0968328905622964,1.200880244789807,2.667134445374761
0.7522552013397217,0.7949898431092998,0.6949730101355522,-0.8855456183788798,1.5181711597355747,-2.096802369364103,1.2008712039757892,2.6671574948881713
0.753931999206543,0.794996355670194,0.6950196019738981,-0.8855560347353075,1.5181612115692773,-2.0967980554398546,1.2008507406703255,2.667175490658198
0.7571051120758057,0.794995618715357,0.6950323364709541,-0.8855911362174597,1.518160463528989,-2.0967679148460614,1.2008417544051944,2.6671993198340394
0.7571752071380615,0.7950012182190226,0.695070874015521,-0.8855952432715917,1.5181460504898912,-2.09676290405275,1.2008227256063013,2.667220049120013
0.7618131637573242,0.795001173487904,0.6950854550887473,-0.8856316628535005,1.518147833184734,-2.0967349916970783,1.2008142666953394,2.667240249473384
0.7653110027313232,0.7950072861393309,0.6951249353971378,-0.8856369692887914,1.5181357953361376,-2.0967318728267217,1.2007960190023144,2.6672576642462276
0.7653779983520508,0.7950071262750779,0.6951388063056365,-0.8856726059594009,1.5181360901636392,-2.096703059178584,1.200787221622843,2.667279566072302
0.7669610977172852,0.7950129391227431,0.6951773885248477,-0.8856769912906338,1.518123512808088,-2.096699708131037,1.2007689822591276,2.6672974618783143
0.7687151432037354,0.795012902954261,0.6951917875556008,-0.885712934176179,1.5181241181930087,-2.096671122654872,1.2007601292766665,2.6673189856417685
0.7702710628509521,0.7950188404296475,0.6952306328918031,-0.8857176230549811,1.518111666682566,-2.0966678328818826,1.200741888844034,2.667336738036361
0.7718691825866699,0.795018775528274,0.6952448436921802,-0.8857534923667062,1.5181121823464707,-2.096639168764169,1.200733061648239,2.6673583554669533
0.7736032009124756,0.7950246409973264,0.695283532459936,-0.8857580204132321,1.5180997269874832,-2.09663589071681,1.2007148449566167,2.667376084213091
0.7754311561584473,0.7912568002748287,0.6956143541583877,-0.8809123282494853,1.5178036939178892,-2.092185276185021,1.1960414914577042,2.670233982444784
0.7770810127258301,0.7921818079014425,0.6945135981130074,-0.8817975082169884,1.5159358223687318,-2.0925471842726244,1.1967703617362688,2.6701072039395384
0.7786281108856201,0.7930352588216297,0.6951987516139385,-0.8827350168110347,1.5165987451108576,-2.092930527737307,1.1970601720686755,2.6689022664576583
0.7802262306213379,0.7912368600570389,0.6973111897123268,-0.8877208590381861,1.518253238426169,-2.0952804527021374,1.1939957747900356,2.674107491461742
0.7818591594696045,0.7912211762719573,0.6991525799224524,-0.8868870746858251,1.517982072750505,-2.096766658327908,1.1951926840725282,2.6759420308968034
0.7837841510772705,0.790369721353325,0.698907532411428,-0.8860161855834465,1.5180924993400513,-2.096301078355914,1.1947743051104835,2.6763926495565817
0.785607099533081,0.7890402658164223,0.6982218682702493,-0.8857368788421228,1.5185173471950328,-2.0972815360919914,1.1959727752326,2.6789713862495548
0.7873392105102539,0.7895387693310821,0.6985532302430418,-0.8862572199681242,1.518758945738699,-2.097495373935356,1.1964041043183393,2.6786955863747335
0.7890031337738037,0.789293287427043,0.69958557661846,-0.8863429397311565,1.519682895366501,-2.0989120279059192,1.197517852146578,2.6802054006204097
0.7905941009521484,0.7889497627840364,0.6993320121161064,-0.8862520884796132,1.5197743456849513,-2.0986831913549264,1.197494149449143,2.680533965579465
0.7939670085906982,0.7883597386672053,0.6993577219022505,-0.8867006894437107,1.5204978527649335,-2.0995626029173544,1.1981901384128326,2.6817249105032577
0.7940330505371094,0.787185752202536,0.6997315006625623,-0.8861060907125939,1.5207609795159795,-2.0994379772702807,1.1968101229389627,2.6812194386851163
0.7972030639648438,0.7870311510035145,0.6996401795112036,-0.8860427403730723,1.5204023951189203,-2.099348771019443,1.196553211405607,2.6811673068880952
0.7972700595855713,0.787066424788236,0.6996280967423698,-0.8861971851266844,1.5203237225571138,-2.099289209044059,1.196512934956037,2.6810035674655244
0.7987620830535889,0.7870698023132048,0.6996550897934836,-0.8861684846030407,1.5201669734634586,-2.0991992202248175,1.1963845655146534,2.680917702575527
0.8003630638122559,0.7870819014209848,0.6996375868693757,-0.8862365880246746,1.5201543099322123,-2.099125333561989,1.1963549290587954,2.680871979378474
0.8051271438598633,0.7871036914545283,0.6996508189083979,-0.8862242767160584,1.5201194830315192,-2.099134522323163,1.1963456573984985,2.6808747035849207
0.8068420886993408,0.7861234916822037,0.6998104795025816,-0.8857292853021612,1.520508551684624,-2.09818760677967,1.1953301768736306,2.680495057854545
0.808650016784668,0.7860807722289264,0.6992995881024298,-0.8864489064120586,1.5210167569019453,-2.0978244848883074,1.195477345290866,2.68011031220638
0.8102412223815918,0.7860413916944837,0.6989996706906054,-0.8867253852759154,1.5210685417673513,-2.0978951600941755,1.194677694520894,2.6798690462203436
0.8119590282440186,0.786241714294318,0.699020168341489,-0.8866518278709619,1.520860738363474,-2.0978327922037887,1.1944943209520198,2.679751286991721
0.8136041164398193,0.7854891617064449,0.6993285003108212,-0.8860509912596785,1.5211599791184949,-2.097352758203236,1.1938144324457132,2.679593108104794
0.8167340755462646,0.7853352926210594,0.6990902380515066,-0.8865919185162316,1.5216227759015644,-2.097074055736573,1.1938935563588013,2.6794233584559177
0.8168001174926758,0.7855779447377882,0.6989424725314569,-0.8865299362248019,1.522136434626577,-2.097152143018738,1.193685561859058,2.6798648277045523
0.8183310031890869,0.785658540602624,0.6990322650439063,-0.8865028814458857,1.5221524644709552,-2.0972345984573804,1.1937263654362273,2.6799527888377797
0.8199841976165771,0.7856306491047469,0.6990609433131343,-0.886534069002052,1.5222311994694364,-2.0972255051330473,1.193739724344953,2.6799969181094982
0.8218090534210205,0.7856320405681381,0.6990736653954999,-0.8865106424577668,1.5222155476342842,-2.0972345930197522,1.193733976783355,2.680021820514607
0.8250632286071777,0.7848057377071219,0.6993120017676481,-0.8860679727442566,1.522543384104037,-2.09660319157015,1.1931839794330021,2.679761988953021
0.8251152038574219,0.7847007020637782,0.6990936453782041,-0.8865973822476981,1.5228082582447664,-2.096320722723203,1.1933923552531347,2.6795478375767283
0.8267121315002441,0.7843105182726271,0.6991581995765344,-0.8866755804577844,1.522516433377914,-2.095953556586429,1.1935296017848291,2.6792577036600154
0.8301591873168945,0.7843341001496913,0.6992817117565513,-0.8866977173666877,1.522255502972097,-2.095983672831096,1.1935172922985338,2.679103832066676
0.8316102027893066,0.7842407246181847,0.6992915152715862,-0.8867471217615445,1.5222650498102386,-2.095877329297632,1.1934637934132848,2.6790186503792324
0.8316991329193115,0.7842490808822667,0.6993203598660567,-0.8867100583001287,1.5222201148633439,-2.095891046132669,1.1934426632566024,2.679019972530638
0.8333520889282227,0.7833962466221687,0.6996165576648703,-0.8863599948643744,1.5225582968956668,-2.0952803046106725,1.192836460878386,2.6786354290812335
0.8349251747131348,0.783441542466863,0.6993857391733309,-0.8869394713330838,1.5229671225757742,-2.0949981982688812,1.193012923733893,2.6783651061389837
0.8365240097045898,0.7836110077291131,0.6992834531530367,-0.8868778515147444,1.5232463074602132,-2.094608654821886,1.1928295078662445,2.6782779932727108
0.837982177734375,0.7836804951319059,0.6993704183683096,-0.886768417317865,1.5231876348709006,-2.0946662246225185,1.1927620827754757,2.6782652784205876
0.8394930362701416,0.7840302164116545,0.6993234289022252,-0.8867403111731585,1.5232249193353522,-2.09440152613909,1.1924494101259435,2.678115343393599
0.8413500785827637,0.7839902873566409,0.6993881331406631,-0.8868093258922797,1.5230944762076866,-2.09436157806567,1.1923532838795237,2.678057706620851
0.8428971767425537,0.7824333598219284,0.6998088669430784,-0.8860850885426806,1.521150936252504,-2.0953921769524135,1.1905211564699159,2.6775347788534503
0.8474180698394775,0.7815294327200429,0.6993483012474657,-0.8873700514574077,1.5208456471394696,-2.095083099512366,1.1904419891546842,2.6767293218227532
0.8505361080169678,0.7813192123693405,0.6995713828164253,-0.8871271035131908,1.5209099723340604,-2.09511973291667,1.1902532597280993,2.6766385564417754
0.8506062030792236,0.7813710786644411,0.6996518413895411,-0.8871541116300861,1.5207234989213512,-2.0952072094357788,1.1902455340416027,2.6765301715098886
0.8523750305175781,0.7810257787993384,0.699609954468201,-0.8873505194356053,1.5202692724837699,-2.094932135706072,1.1900800285329596,2.6761256031416445
0.8542921543121338,0.7810647830645119,0.6997009343309152,-0.8873151484246076,1.520238120197019,-2.0949875404149263,1.190049021916122,2.676068046540314
0.8559942245483398,0.781127047965354,0.6997186446321741,-0.8873298221241247,1.5200342361271049,-2.094751220379074,1.1898803155634825,2.675887888752357
0.8608841896057129,0.7811414505689868,0.6997366713327441,-0.8873613904137707,1.5200506644767402,-2.0947622850918344,1.1898790353745994,2.675859679702656
0.8610470294952393,0.7811906777561746,0.6997941368244905,-0.887457967067087,1.5199811125938765,-2.0946677577521076,1.1896808594947814,2.6758517546621743
0.8626370429992676,0.7812040810617241,0.6998880379412855,-0.8874743225182573,1.5199688941287293,-2.0945909019812623,1.1897295632358051,2.6758914106376595
0.8642091751098633,0.7811892803919485,0.6999303635498461,-0.8875560535949079,1.5199631969602945,-2.0946061215834093,1.1896505843947804,2.6759488616816265
0.8643062114715576,0.7812153339661821,0.6999910174239826,-0.8875656168093893,1.5199429973600185,-2.0945429511311753,1.1896685233235431,2.6759877802243066
0.8659181594848633,0.7812055545915759,0.7000241946868914,-0.8876092609065317,1.5199536234148663,-2.094533216346349,1.189635961387322,2.676003743931652
0.8676981925964355,0.7802211668727352,0.6996827442472698,-0.8870086490179275,1.5203451430731456,-2.0934268293106153,1.1888163757293249,2.6764615061687334
0.8693840503692627,0.7796470891207381,0.6992797283465754,-0.8882154789114691,1.5224861783859298,-2.0932651106078697,1.188539276055651,2.6771519586329813
0.8711462020874023,0.7814852979915446,0.7002250909690444,-0.8869551391572484,1.523127119198505,-2.0943751310483565,1.1888966375270682,2.679161256525586
0.8728132247924805,0.780360171790793,0.6993106215986323,-0.8866695450177174,1.5235736632494516,-2.0928864848309217,1.1884630488407635,2.6797320241775564
0.8746151924133301,0.7804556512274229,0.6991591475962378,-0.8871981537672123,1.5239477180307408,-2.0927923523833996,1.1887429524137285,2.679624405148203
0.8778111934661865,0.7804441276988453,0.6991730111276717,-0.8871951205334716,1.5248104236338416,-2.092802982675146,1.1891119562883128,2.680237670528637
0.8778672218322754,0.7804933306298659,0.6992997484573985,-0.8869965834054834,1.52472165477879,-2.092966359016582,1.1890991040019478,2.6803778962562292
0.8794810771942139,0.7804447358830556,0.6994289054846514,-0.8870987547448994,1.5253624854921939,-2.0933491830662962,1.189529452014776,2.681118950670453
0.8812551498413086,0.7804677765113973,0.6994198688367554,-0.8870415962357459,1.52526471698814,-2.0933743376742258,1.1895425059966456,2.681203730578358
0.8832402229309082,0.7795138935822221,0.6998119953827346,-0.886062844456534,1.5253202324895199,-2.0927980213111184,1.1885051713485417,2.6817096764942856
0.8853611946105957,0.7796437003723691,0.6996502091405664,-0.8858541227769247,1.5248253079180927,-2.09276410750862,1.1886832180498288,2.6820843531341843
0.8868930339813232,0.7793466235267731,0.7001153796140076,-0.8855951700519632,1.5246919627343345,-2.0927651476236346,1.1894195431089358,2.6823580009437724
0.8916471004486084,0.779171458956677,0.7000903538107326,-0.8858221371585926,1.5248328458664697,-2.0928137422591075,1.1896267188830347,2.6825188869710135
0.8949401378631592,0.7782675391911947,0.700461661306682,-0.8848945192153381,1.5248903450383382,-2.092544748725248,1.1886434648841449,2.6829632718920213
0.8950071334838867,0.7760463113990176,0.7003427143888487,-0.8852873245986841,1.523264491069303,-2.0934939396870558,1.1884385629884693,2.6833360610249892
0.8968420028686523,0.7764231591638849,0.7002532362238495,-0.8856791858830669,1.5232257092564891,-2.093619105812361,1.1887632997827295,2.683172339335078
0.8998491764068604,0.776302019633862,0.7003463237134179,-0.8857636435571055,1.523384839391612,-2.0936058941383955,1.1887991801659399,2.6830602533149936
0.8999221324920654,0.7759137855869574,0.7005240839636558,-0.8859135954471343,1.5232220933030083,-2.0935795688813554,1.1892437166409198,2.6831303640440414
0.9031350612640381,0.7758819134776967,0.7006053365554054,-0.8859087308767837,1.5232040317622595,-2.0936735887193483,1.1892447912209962,2.683208299965697
0.9032011032104492,0.7758601429260388,0.700620631026024,-0.8859771918765343,1.5232296529739122,-2.093675386892613,1.1892806571772303,2.683280541601881
0.9048211574554443,0.7751543899618883,0.7006469647255874,-0.8853190799700184,1.5235098311074615,-2.0932484880218944,1.1886954823075704,2.683521789321383
0.9064681529998779,0.7750199038867791,0.7002741355256398,-0.8856972254262337,1.523865370265207,-2.093109168375703,1.1887584325971647,2.6837231267724313
0.9081752300262451,0.7750914662321347,0.7002148690646829,-0.8857453929939998,1.5246223975450486,-2.094232316465937,1.1885803202322731,2.6850503190386275
0.9096782207489014,0.774987292786636,0.7002065561166578,-0.8858172067145997,1.5247943220332856,-2.0941383207504174,1.188658668566277,2.6850595485839346
0.9113681316375732,0.7749253330648888,0.700448382453965,-0.8856984608693201,1.5248985134635387,-2.0941961850332476,1.1891538920433584,2.6854659735614947
0.91304612159729,0.7742904413264943,0.7007094560222898,-0.8850464367711455,1.5250258685841984,-2.0938636913806796,1.18873073271084,2.6855119043535116
0.9161601066589355,0.7742964562474026,0.7013786072981203,-0.8841172976001884,1.524020897740814,-2.0923955541755546,1.1892601049861506,2.684621756015652
0.917802095413208,0.7745323810182915,0.7012377317188668,-0.8844538703332245,1.52396127360104,-2.092430701070353,1.1894166953744862,2.6845333677349514
0.9178941249847412,0.7744565269428454,0.7012391329962602,-0.8845433039038216,1.524050133149327,-2.092399604432745,1.1893153377925783,2.6844080538514823
0.9194531440734863,0.77444899243077,0.7010520999816422,-0.8846932793647685,1.5236410540945373,-2.092308792155236,1.1887691040233987,2.6841189192253134
0.9211461544036865,0.7744988932575627,0.7011449484468916,-0.8847133004305635,1.5236680041532011,-2.0921636051071477,1.1887233149589633,2.683938423671804
0.922781229019165,0.773385380334024,0.7009107054550769,-0.8846835688038888,1.5241106477585946,-2.0913950176002416,1.1878188580402116,2.6838156247186404
0.925861120223999,0.7735252328551014,0.7004613735188194,-0.8853720649380316,1.5245950314822987,-2.0914789753678122,1.1879156261667527,2.6836766673686108
0.9273321628570557,0.7732681998772022,0.6997686421056458,-0.885932748959862,1.5252292082434837,-2.0924599295415187,1.1868023697018788,2.6844235927300892
0.9273860454559326,0.7733236729133895,0.6999071617755896,-0.8857859852981614,1.5251893643575487,-2.0925685453238154,1.1867913139397877,2.6844666118145395
0.9289071559906006,0.7734749271269188,0.7000638004029104,-0.8857028424821172,1.525502353248057,-2.0925846324371844,1.1871033888710627,2.6848553289742165
0.9334301948547363,0.7733713436954271,0.700075103320626,-0.8858121990348549,1.5255106379695356,-2.0927173093399585,1.1870525593539254,2.685002507586869
0.9351232051849365,0.7733848363590604,0.7001832014353294,-0.8858197436217151,1.5255184146702032,-2.092672283342596,1.187124941540119,2.6850985256139452
0.9383351802825928,0.7733590546483967,0.70020505210482,-0.8858781932706452,1.5255311062413885,-2.092672287738884,1.1870781337234653,2.6851454174216416
0.9383900165557861,0.7733789383235042,0.7002468659207263,-0.8858898577757228,1.525512266260386,-2.0926733461889007,1.1870737218105203,2.6851685968791394
0.9414942264556885,0.773363507128975,0.7002712807954542,-0.885920892863643,1.525524629111897,-2.0926360830155817,1.1870577806024485,2.6851979960157872
0.9415972232818604,0.7733842049449358,0.7003088411465075,-0.8859338232859595,1.5255014050615106,-2.0926409171120377,1.1870482939029126,2.6852197516714953
0.9447731971740723,0.7733682770229448,0.7003316191870574,-0.8859657899299205,1.5255139226804568,-2.092603287622915,1.1870297338978144,2.6852460548787875
0.9462301731109619,0.7733900456765086,0.7003689546037192,-0.8859783898574629,1.5254894826591299,-2.0926080125500723,1.1870198511517038,2.6852666732265664
0.9492430686950684,0.7733739828563051,0.700391053782106,-0.8860102837579131,1.5255020366351628,-2.092569510363895,1.1870006670898543,2.6852917755089645
0.9506950378417969,0.7733963184535753,0.70042836889705,-0.8860227101069015,1.5254769665829533,-2.0925743607034244,1.1869905615356184,2.685311865052758
0.9507482051849365,0.7733800428877793,0.7004500049628292,-0.8860545650893611,1.5254896806277225,-2.0925353538846685,1.1869710955777073,2.685336391196267
0.952329158782959,0.7734027813740549,0.7004873803425923,-0.8860668301136825,1.5254641803052098,-2.092540429473344,1.186960918376986,2.6853562198536864
0.9538722038269043,0.7733862363237869,0.7005086322610983,-0.8860986654244951,1.5254771482958003,-2.092501072103907,1.1869413379870308,2.68538042116785
0.9539241790771484,0.7734093221730636,0.7005461068562256,-0.8861107678983348,1.5254512880534188,-2.092506440248891,1.1869311641281493,2.685400109827638
0.9554641246795654,0.773392466609915,0.7005669958085312,-0.8861425953343496,1.5254645695969729,-2.0924667916160087,1.1869115477010552,2.685424095359653
0.9570200443267822,0.7734158877674434,0.7006045947379965,-0.8861545286135866,1.5254383679997978,-2.092472497886735,1.186901414123623,2.685443699322826
0.9601352214813232,0.7734123559628387,0.700598220320839,-0.8861727362786579,1.5254447433905889,-2.0924567763819524,1.186902646855958,2.6854492687125697
0.9616811275482178,0.7735045033793589,0.7011445091964755,-0.8865141629432939,1.5252906418617664,-2.0922141878156837,1.1866399809132693,2.685824250468212
0.9637320041656494,0.773464010371575,0.7011140434973923,-0.8865478956652271,1.5253348148160997,-2.0921598213493358,1.1866372127939218,2.6858288778208426
0.9654052257537842,0.7734714527584988,0.7013313773892531,-0.8867692480935021,1.5253062246916829,-2.091975854938548,1.1865161508998239,2.6860160453549002
0.9654710292816162,0.7734988606380409,0.7013667625793796,-0.8867498612778418,1.5252736253179187,-2.0920082961780366,1.1865100106465813,2.6860207678353665
0.96756911277771,0.7736247102057844,0.702550973243509,-0.8876715350808784,1.5250452715887046,-2.091274939341978,1.1859037509368524,2.6869305374010355
0.973203182220459,0.7736504540473573,0.7026485684199286,-0.8877342527420481,1.5249803826756374,-2.091264866674216,1.1858595427224592,2.68698355829975
0.975060224533081,0.7736414803546301,0.702709774477146,-0.8877744783406171,1.5249861610347237,-2.0911904899129903,1.1858236626339203,2.687037943311257
0.9751241207122803,0.7691733571797496,0.7037922215121686,-0.8849921754391584,1.5273069018739036,-2.0860390415473344,1.1817483039574375,2.683629197384317
0.9767251014709473,0.7701181907881164,0.7019229867238773,-0.8858858865390435,1.5254135156024051,-2.0864076818382493,1.182491452486224,2.684280772100395
0.9782590866088867,0.7709258521953614,0.7024797560028463,-0.8866498627253252,1.5259513881798366,-2.086722749463452,1.18305334022292,2.683241417164071
0.9798130989074707,0.7719502917534758,0.7035044110053462,-0.8868257984138875,1.5261583166424841,-2.087926295006566,1.182201781763173,2.6846043523203083
0.9814720153808594,0.7713677467423373,0.7033352373449531,-0.886859383508857,1.526528526288001,-2.0877703605011777,1.1820223409639399,2.6848025241952036
0.983112096786499,0.7695190609614933,0.7038918770203645,-0.8858494719674184,1.5265580754620127,-2.0853296039153673,1.1810953917611473,2.6843628894667493
0.9847891330718994,0.7695202471489792,0.7042041522930009,-0.8856614077932766,1.5263227827462802,-2.085509127168344,1.1810498113644676,2.68420211461918
0.9863851070404053,0.7689905269487111,0.7043377014754191,-0.8859101387573549,1.5255083070401854,-2.085038711519666,1.1812499019067066,2.6835712946782886
0.9878721237182617,0.7690420382441043,0.7044219582723237,-0.885895959930464,1.525401445779421,-2.085055487514664,1.1810921922972786,2.68345349697013
0.9894530773162842,0.7690606496051088,0.7043977506101955,-0.885987514771778,1.52540193725693,-2.084963200075209,1.1810379954587313,2.6833852346642852
0.9910831451416016,0.7690903119736986,0.7044077595056735,-0.8859708813768397,1.5253513822202511,-2.0849732270483288,1.1810280306105252,2.6833927859321465
0.9926822185516357,0.7682471594340758,0.7047542729906532,-0.8851035603002063,1.5256865233328822,-2.0843332027629975,1.180110107799342,2.6835579332971697
0.994218111038208,0.7680821147831239,0.704546079883362,-0.8851990883837713,1.5255908233958333,-2.0841043342884813,1.180216025176977,2.683657979336149
0.9959561824798584,0.767468649585914,0.7049359533757933,-0.8854831742865024,1.5250951440421103,-2.084047261087132,1.1806941025473732,2.6832953636066508
0.9976530075073242,0.7674102730822178,0.7049136048773951,-0.8853996929892587,1.5250671928358166,-2.0840077914744066,1.1806429278770587,2.683360989800754
1.0020201206207275,0.7674258343951365,0.7048962606790751,-0.8854120564163256,1.5250486010088677,-2.084006775611673,1.1806449135244703,2.683378819382423
1.002195119857788,0.7674422989290508,0.7048977980757827,-0.8854610617525419,1.5250438247826783,-2.08401418185993,1.1805453334196716,2.6834584783202677
1.0023322105407715,0.7674392659223767,0.7049175766975742,-0.8854648092208057,1.5250580121642903,-2.0840138928856424,1.1805416663144015,2.683448968447366
1.003925085067749,0.766749735412536,0.7049386919565914,-0.8847664185939478,1.525332321204661,-2.0834765951527787,1.1799464233036097,2.683624988274158
1.005669116973877,0.76675341143682,0.7046058513878002,-0.8850462196910663,1.5256062974625957,-2.0832030641512707,1.1799834407945853,2.6837059834178687
1.0071110725402832,0.7674040150613092,0.7044435552088332,-0.8848513711954971,1.5262691749868276,-2.0832255598370364,1.1795031403535474,2.6840935862817514
1.0088951587677002,0.7674743420316755,0.7045508345572011,-0.8848648384813379,1.5262947411950851,-2.0831717181972467,1.1795158856966514,2.68419447308071
1.0104000568389893,0.7674389774627289,0.7045510620599528,-0.8849111003776924,1.5262853434284749,-2.0831474636585723,1.1794857592456498,2.684233652104138
1.0149450302124023,0.7674408551976484,0.7045759681985773,-0.8849057746329143,1.5262865714066836,-2.0831589003244178,1.1794767477570374,2.6842294401979125
1.0166890621185303,0.7666906114029642,0.7048828512806056,-0.8841339006832464,1.5265848597718545,-2.0827332386449178,1.1786600491869899,2.6844136758654367
1.0197482109069824,0.7666162407598388,0.7046944216997638,-0.8841292568052791,1.5264008301316914,-2.082609747189056,1.1786720123748164,2.6845621734810465
1.0199480056762695,0.7661688048984964,0.7047455268245151,-0.8844213289500974,1.5260352012840952,-2.0826157536490815,1.1786217643681183,2.6843291968281933
1.0215260982513428,0.7661768610747406,0.7047766447267073,-0.8843712214040745,1.5259969263598483,-2.082619535246037,1.1786059543340162,2.684340731597657
1.023219108581543,0.7652962385587404,0.7051384198713995,-0.8834651748003247,1.5263469575412936,-2.082277909304485,1.177647380786114,2.684625244980495
1.0249180793762207,0.765428651292046,0.7053021095235092,-0.8831255680983684,1.5266448818044525,-2.0826257799875307,1.1778061383587648,2.685349694161131
1.0265371799468994,0.7653684989360454,0.7051904891103763,-0.8833322441653891,1.5269436198397228,-2.082611527903146,1.178008888621661,2.685630667800189
1.0280301570892334,0.765459665662157,0.7052574387122768,-0.8832822772755246,1.5268540957183427,-2.0827326667526433,1.1780393995034004,2.685690813127689
1.0312650203704834,0.7653779831184392,0.7054663204557857,-0.8833080019644756,1.5271788557974852,-2.083043529550106,1.178317062710085,2.686283629734787
1.0314040184020996,0.7653361422843046,0.7054814340681992,-0.883370234097513,1.5271808888976284,-2.083004528040154,1.178335953626777,2.686334009985466
1.033168077468872,0.7653367372988891,0.705523201986239,-0.8833686832561244,1.5271420667588698,-2.083003976946176,1.1783251174092253,2.6863815046387853
1.0347330570220947,0.7653231781740563,0.705533226576502,-0.8833785852108019,1.5271632696606332,-2.082996137841269,1.1783201635119527,2.686376604815018
1.039656162261963,0.7653052721869009,0.7056297416396606,-0.8834858492327682,1.5271687841252255,-2.082929761122704,1.1782934453819673,2.6864720421323565
1.039708137512207,0.7653237639766289,0.7056478229670863,-0.8834742748239066,1.5271421759965333,-2.0829450293345624,1.1782888756408012,2.686483148110484
1.041358232498169,0.7654307746353811,0.7062026592262984,-0.8839111012577523,1.5270991228410689,-2.082641262724441,1.1779957888486998,2.686852086502773
1.041795015335083,0.7654154637921302,0.7061880843749299,-0.8838704108322425,1.5270543384836985,-2.082621357728159,1.1779815502336204,2.6868989111730337
1.0431911945343018,0.7653719511298552,0.7063554307898914,-0.8839796585042184,1.5269455795084153,-2.0825673104959312,1.1779504809641101,2.686973972579916
1.0449011325836182,0.7627238000735114,0.7048097000348853,-0.8853526273100945,1.526409334543195,-2.0819496382274973,1.1765552445421488,2.6867673694623773
1.0464072227478027,0.7627652922601635,0.7054492801398821,-0.8846383801460755,1.5259506312251374,-2.0823141621342542,1.176111812886417,2.6861150397063764
1.0479722023010254,0.7629780132866036,0.7054749032199336,-0.8849318181707055,1.5257199350447017,-2.0824742187957233,1.176266542929582,2.6859849500069206
1.0495350360870361,0.7620862928155547,0.7058215447215418,-0.8855862071960039,1.524515234361062,-2.083223630382914,1.1761288602860898,2.685324278850137
1.0512111186981201,0.7618186932416687,0.7057488638788326,-0.8854673681047008,1.5246345501070293,-2.0829895178290485,1.176034177805155,2.6853859634064823
1.0529651641845703,0.7606156292682003,0.7057027570197661,-0.8846738707209699,1.525113868386662,-2.0813928007490308,1.1754039149739892,2.685242863484323
1.0573680400848389,0.7612721610793034,0.7052561990934613,-0.8854882567835661,1.5256853836512838,-2.0803735601334794,1.1760828020400897,2.6847947419766474
1.0590641498565674,0.7623685885845706,0.7061146407468908,-0.8847610555330697,1.5275332147928,-2.078829171458551,1.1767765350791917,2.684605526409185
1.0608220100402832,0.7636635565365698,0.7061760063800028,-0.8837645062572539,1.528429606851194,-2.079068550582007,1.1766070079862263,2.685840592502265
1.0625550746917725,0.7636865883815773,0.7059916530038524,-0.8839016780129463,1.5284659872829716,-2.078968811708734,1.1766827007624832,2.685952673552245
1.064197063446045,0.7629714956222412,0.7062359401975363,-0.8832828850451065,1.5287524006752902,-2.0786778628323375,1.1759800181639877,2.6859146442344746
1.0658690929412842,0.7612581187072407,0.7058148555938386,-0.8843816202868993,1.5282171868768997,-2.079330675104946,1.1755450018481453,2.6858534749809335
1.0674102306365967,0.7612100821692056,0.7059834777344791,-0.8845526550299075,1.5279712995731611,-2.079503181396107,1.1757694785664734,2.6857864499750628
1.069031000137329,0.760994331267321,0.7059900527470719,-0.8846272983626238,1.5279388225850485,-2.079416109455979,1.1758498549236875,2.685840933762922
1.070716142654419,0.7610266062501322,0.7059840832526173,-0.8846532091108071,1.5278996232074349,-2.079433896987018,1.1758759932083747,2.6858521537950364
1.0723631381988525,0.7609645499464969,0.7060923401623388,-0.884704750308991,1.527801754916877,-2.079478848695372,1.1759368598532507,2.6859195948926566
1.0741291046142578,0.7594085911586321,0.7069016092206099,-0.8843669075746351,1.525938018573303,-2.0787487278089487,1.1752020553564144,2.6837962638006005
1.076050043106079,0.7592677350219112,0.7066843610334688,-0.8846082028426924,1.5257604447833666,-2.0780537161621253,1.174771147334599,2.683162375747707
1.0777161121368408,0.7593615427097038,0.7066213533828131,-0.8846312250357263,1.5256329806702633,-2.0780448237603775,1.1747963428526533,2.6831976393685646
1.0792710781097412,0.7594978456903662,0.7066141082279477,-0.8845720412450979,1.5253377661514718,-2.0778413552234296,1.1745383495709947,2.6830034386057595
1.0810520648956299,0.7594556139537975,0.7066424043437539,-0.8845998155921871,1.5254169048893575,-2.0778101753429765,1.1745065790462081,2.682940157274996
1.0827572345733643,0.7586390819663454,0.706978220363497,-0.8837580390146907,1.5256080679238502,-2.0778641533976523,1.1736169165251105,2.6828122629241573
1.0859110355377197,0.7589714300685279,0.7072646407437313,-0.8835266863344027,1.5251347491929665,-2.0781266063328734,1.1736533449292648,2.68271267172749
1.0859742164611816,0.7589197781253344,0.7075744414140077,-0.8833876556927128,1.5244551719145587,-2.0772513331930536,1.1737195358988413,2.681720956041415
1.0892140865325928,0.7589704478068523,0.7073149851494928,-0.8836206091518041,1.5242672984968828,-2.077281046634029,1.1730410812029635,2.681461863680798
1.0892770290374756,0.7589698889108643,0.7073428478664459,-0.8835493626920844,1.524243299489355,-2.077229575226235,1.1730508116737914,2.68147118317889
1.0908360481262207,0.7590492333638349,0.7074453840864015,-0.8835148487460586,1.5242517806673612,-2.0770636293352225,1.173164463376255,2.681383791861339
1.0941510200500488,0.7590567916648256,0.7074303439105806,-0.8835098544074135,1.5242237378507735,-2.0770569938314263,1.1731603251139688,2.681401375876945
1.094372034072876,0.7583305033000816,0.7075625966060699,-0.8827612356328856,1.5244215336791882,-2.076604977179088,1.1725263653459832,2.681701782087652
1.0957942008972168,0.7583189245274652,0.7073848245599011,-0.8827464042223483,1.5241978286983555,-2.0764953184617965,1.1725978982058136,2.681866857140012
1.1007471084594727,0.7579482476700912,0.7074809752674669,-0.8828039277127044,1.5239022679497463,-2.076378037780799,1.1727924784696995,2.681779922174175
1.1027250289916992,0.7579481933830723,0.7075369749844396,-0.8828188410541765,1.523917283193556,-2.076415411984546,1.1727917372121515,2.681734263358106
1.1043121814727783,0.7570534043858163,0.7070187289998876,-0.8820880514787002,1.5242741914951847,-2.07530908989498,1.1721887287355677,2.6822115488757863
1.1059951782226562,0.7570126842345827,0.7067313046258307,-0.8824122993166083,1.5242178223002008,-2.075151928571828,1.1723855562331575,2.6822988478404985
1.1092970371246338,0.7567668571042,0.7067093058162303,-0.882479493547141,1.5243595553992824,-2.075100951578015,1.1723581963887235,2.6822950472574365
1.1093800067901611,0.7561509357646367,0.7066679644830661,-0.882882087867235,1.5242065133667984,-2.075472043118555,1.1725587194790477,2.6825263193357576
1.1110470294952393,0.756107346649203,0.7068274847351076,-0.882802447954303,1.5241942621804465,-2.0755719745347183,1.1726857398254351,2.682631717232797
1.1127710342407227,0.7551587902795455,0.7063911249862509,-0.8822155522320202,1.5245730162807822,-2.074571460626683,1.1718381186447429,2.6831207367305554
1.1143131256103516,0.7552150290442615,0.7059802809763797,-0.8829881605545526,1.5251159303942774,-2.074495560357896,1.1719588191000208,2.683194651286462
1.1160290241241455,0.7554520991554738,0.7055534985243601,-0.8830329935718942,1.5273780065325109,-2.0755409673537373,1.1711490811005911,2.6849529405599917
1.1192030906677246,0.755788131649361,0.7055389405123579,-0.8830093158202144,1.5270822191251825,-2.075710629186394,1.1713375432906077,2.68513796307099
1.1192820072174072,0.7561675557806369,0.7061108510048516,-0.8822353510064809,1.527778378347064,-2.0763582148850452,1.171983182395936,2.6864368576378324
1.120959997177124,0.7561117332233673,0.7059267779934527,-0.8825912773118108,1.5279684896988397,-2.076210559703112,1.1721244515479616,2.6864006002753302
1.1226871013641357,0.7558596032479757,0.7059164060613233,-0.8827117453628349,1.5280371827049775,-2.0761897672666993,1.1721996524798515,2.6865125112597856
1.124427080154419,0.7558604690520491,0.7059971539435275,-0.8826572738677915,1.528005880468434,-2.07626014792684,1.1721906971678153,2.6865243781916406
1.126089096069336,0.7556794775182112,0.7061726492930366,-0.8827790925372831,1.527984711173041,-2.076399186554597,1.1723752011224706,2.686799736278662
1.127662181854248,0.7557182372948542,0.706237462700127,-0.8828177652715448,1.528053734606602,-2.076328324120427,1.1723366000179236,2.6869146451652837
1.12935209274292,0.7557352587452618,0.7062963319923508,-0.882854055169142,1.5280422659362478,-2.076346980513819,1.172322504514303,2.686919389267801
1.132477045059204,0.7557343247022648,0.7062814947993328,-0.8828640570679643,1.5280320983392808,-2.076330002692999,1.1723250034986223,2.6869381287757204
1.1325931549072266,0.7557123535278871,0.7065334658531681,-0.883113017862772,1.5279945101820283,-2.076154946240163,1.1722020337387997,2.6871486622143816
1.1358070373535156,0.7549914370183692,0.7066921221307679,-0.882369446886799,1.5282219256296399,-2.0757883652683145,1.1714162496972056,2.6872938422960084
1.135871171951294,0.7531821601286923,0.7061255153006127,-0.8832042176804302,1.526902927394307,-2.0759468503495087,1.170382779373461,2.6867099972546553
1.1434531211853027,0.7535140480999408,0.7060950553437104,-0.8834422933447049,1.526705469443783,-2.076064476861127,1.1705814072869687,2.686645318500991
1.1435341835021973,0.753532007319703,0.7061363390248392,-0.8834923854869289,1.526744359881877,-2.076071905075953,1.1705790506180977,2.6865619246605363
1.14359712600708,0.75362903260379,0.7062950963600986,-0.8835267859707548,1.5263966220672094,-2.0755595615161915,1.1701855626444009,2.685811405819542
1.1465260982513428,0.7536962376769252,0.706243661577693,-0.8834839320398988,1.5262370727656416,-2.075553604475463,1.1702200062015533,2.6859038080454636
1.148071050643921,0.7536962559479337,0.706243702789095,-0.8834839823206196,1.5262371114186115,-2.075553612013917,1.170220004044637,2.6859037246698194
1.149280071258545,0.7536807330132737,0.70621113300337,-0.8835220721597861,1.526273390603492,-2.0755357848638125,1.170217967559271,2.6859155640201338
1.1493730545043945,0.7536808002480883,0.7062110817786622,-0.8835220293831255,1.526273230866388,-2.0755357784009045,1.170218001575288,2.685915655580106
1.1510250568389893,0.7536779091557124,0.7062065689883422,-0.8835269553344813,1.5262801838149613,-2.0755356910889016,1.1702153419358048,2.6859201717816403
1.1539721488952637,0.7536778936483862,0.7062065364511162,-0.8835269933862381,1.5262802200577457,-2.0755356732795796,1.170215339901388,2.6859201836091593
1.154055118560791,0.7536769590011568,0.7062048457407842,-0.8835288973799741,1.526282864815971,-2.075535985975634,1.1702142179145179,2.685922185568101
1.1552391052246094,0.7536769561130071,0.7062048412324231,-0.8835289023009948,1.5262828717618433,-2.0755359858883846,1.1702142152575699,2.6859221900798897
1.156771183013916,0.7536768233880571,0.7062045874127763,-0.8835291920228808,1.5262832745761046,-2.0755360553049984,1.1702140370665977,2.6859225124547956
1.1580231189727783,0.753676822454326,0.7062045857237196,-0.8835291939250135,1.526283277218261,-2.0755360556173637,1.170214035945728,2.6859225144547683
1.159534215927124,0.753676802193655,0.7062045466521132,-0.8835292386189696,1.5262833393894204,-2.0755360668504075,1.1702140082679175,2.6859225646260496
1.160858154296875,0.753676802061059,0.7062045463985412,-0.8835292389084085,1.5262833397918416,-2.075536066919755,1.170214008089901,2.685922564948109
1.1622920036315918,0.7536768007385506,0.7062045438446832,-0.883529241830758,1.526283343857182,-2.0755360676594132,1.1702140062783626,2.6859225682328494
1.1648762226104736,0.7536768002079766,0.7062045428202043,-0.8835292430030536,1.5262833454880542,-2.075536067956267,1.1702140055515728,2.6859225695507147
1.1660380363464355,0.7536768002078239,0.7062045428199119,-0.8835292430033873,1.5262833454885183,-2.0755360679563473,1.1702140055513672,2.685922569551087
1.1660981178283691,0.7536768002065026,0.7062045428173603,-0.8835292430063071,1.52628334549258,-2.0755360679570862,1.1702140055495571,2.6859225695543683
