wycongwisc/urdf-loader-test-vr/sample files/sawyer animations/7_tracing_base_0.csv
time,j0,j1,j2,j3,j4,j5,j6
0.00189208984375,0.34369202817089867,0.6720171403719163,-2.2907472466604784,1.14007141298886,0.4171576060327862,-0.4655235680807877,0.7170931508348279
0.005339145660400391,0.34369103497496567,0.6720185581577577,-2.2907513944994427,1.1400724485286036,0.41715530625956926,-0.4655229334090136,0.717095662614553
0.008980035781860352,0.3436913774555028,0.672018787631153,-2.29075113380608,1.1400718113357615,0.4171561224467988,-0.46552315615092493,0.7170970559256626
0.009063005447387695,0.3436864723052911,0.6720248517348493,-2.2907708433040135,1.1400748118951314,0.4171518392307337,-0.46551982365129063,0.7171248536426356
0.010689020156860352,0.34362074352377,0.6720443967470339,-2.2907411098926405,1.1400816795945392,0.41714323735862385,-0.4655133059158828,0.7171239108073285
0.012279987335205078,0.34346801149705275,0.6720060436840372,-2.2908171468809377,1.1400145198202165,0.4171980997480254,-0.4656636551300765,0.7170903671678803
0.013824939727783203,0.3435247136261685,0.6720306206846068,-2.290827577952772,1.1400570609646654,0.417245134658756,-0.4656001000485887,0.7170902964599247
0.015461921691894531,0.3435237413639742,0.6720486015169816,-2.290826008176131,1.1400490473000975,0.41724261179748284,-0.4656041306765198,0.7170869015222028
0.018906116485595703,0.34351268306862354,0.6720713778545488,-2.2908532368648467,1.1400683038580872,0.4172666558705879,-0.46560914172266804,0.717066878791847
0.019006967544555664,0.34350943270842077,0.672067547225822,-2.290848611872294,1.1400702554198003,0.41727592689649984,-0.46560852565261146,0.7170741397094
0.02221512794494629,0.3434022074364939,0.6718432494602934,-2.2909672051690646,1.139988540402316,0.41725572117697596,-0.465765039978582,0.7170540403737266
0.022285938262939453,0.3433365421672429,0.6718762275394742,-2.290923546457119,1.139988522671245,0.417245817257986,-0.46574950577491353,0.7170595818598949
0.026806116104125977,0.34331448518395363,0.6718659026350129,-2.290916982078936,1.1399379990800174,0.4172543262897474,-0.4657389150105234,0.7170752043010156
0.027024030685424805,0.3433245659149283,0.6718618717133422,-2.2909293500079775,1.1399353773645051,0.41724941874308774,-0.4657395299891536,0.717068229530524
0.028789997100830078,0.3433188383452652,0.6718608866095471,-2.2909303371933607,1.1399359121525152,0.4172446781748931,-0.46573468813379226,0.7170649580694393
0.028907060623168945,0.3433130632674987,0.6718471839753813,-2.2909455585127487,1.139900211236967,0.417226380585435,-0.4657025996924114,0.7170587743851972
0.030506134033203125,0.34402106445471936,0.6706442553801744,-2.290891575596844,1.1411107419940816,0.41560807368556263,-0.46641067700571426,0.7169635437793479
0.03209805488586426,0.3439371003518239,0.6705298685107202,-2.2903588621297164,1.141180247326255,0.4157861074012799,-0.4664881231177114,0.7174720344791767
0.035192012786865234,0.34521283972877653,0.6701288590219204,-2.28891738792001,1.142433392829157,0.4139352796395169,-0.46792038848518325,0.7186132506026953
0.036826133728027344,0.3451666646417989,0.670312777619078,-2.288864757390254,1.1423674245159967,0.4138186159583565,-0.46793421669813634,0.7185647568268637
0.03689694404602051,0.34518048330648166,0.6702686619155069,-2.288874274410273,1.1424075081068326,0.41371958677325665,-0.46790124880785255,0.71853828543027
0.038645029067993164,0.3453546146846603,0.6701768653936444,-2.2885370100580076,1.142297980324959,0.41327692615806166,-0.467795786719113,0.7187746440427353
0.04186296463012695,0.3446509146283612,0.6694081869937508,-2.287774401373507,1.1425283387397083,0.413807881849783,-0.46773058851549315,0.7196021647157956
0.041944026947021484,0.3450684529405972,0.6695734961654636,-2.287843330008082,1.1420288104644114,0.4142250829960024,-0.46813907385849607,0.7199088465186807
0.04341006278991699,0.3438004809614124,0.6697836835801732,-2.288466882128991,1.1417788798109436,0.41737004603764505,-0.4696854664220411,0.7204277911521476
0.048371076583862305,0.343230991833026,0.6698036833766633,-2.2886261638941927,1.1421827826315611,0.4170384878619353,-0.46940557548541917,0.7197310987291967
0.050148963928222656,0.34340700409607317,0.6706711478029402,-2.289575554177083,1.1438855012551588,0.4187670264296686,-0.46923378035110774,0.7176176984186177
0.05176997184753418,0.34356740345006237,0.6709583883305549,-2.289452370441556,1.1435259821980273,0.4192882171945485,-0.46951363194773066,0.7179148151926947
0.05330801010131836,0.34286147223524555,0.6712755628637078,-2.290049929750111,1.14397663482826,0.42179308231916346,-0.47018842975372704,0.7178798778602278
0.05654001235961914,0.3425088540207731,0.6716189797619937,-2.2902273046308768,1.144239632780111,0.42154560380219325,-0.47014155521014,0.717399945934255
0.05660700798034668,0.3424023474188987,0.6720037096985286,-2.291032165349141,1.145203857069385,0.4227789804945996,-0.47049394822226354,0.7164868826003267
0.058381080627441406,0.3423608066179913,0.67230585697504,-2.290875445208164,1.1449755646803481,0.4229738873059613,-0.4706392106154958,0.7165803921370074
0.059927940368652344,0.3425077058537812,0.6724301380175611,-2.291142409317945,1.145927068822864,0.42368302385388873,-0.4711853225321645,0.7164987641984074
0.06146597862243652,0.3423115027277267,0.6731125418620288,-2.291148389398657,1.1462763645816294,0.42399291746705825,-0.4715980731571308,0.7163225510103485
0.06600213050842285,0.34237406506155726,0.6729918529855503,-2.2913337330231163,1.146773231046162,0.42453024688838253,-0.4718414138284941,0.7163394183181048
0.0674891471862793,0.34217241913992313,0.6731423297119487,-2.2912411069033984,1.1468298105851862,0.4244931388016481,-0.47182270098041146,0.716299232882647
0.06758904457092285,0.34199240195229685,0.6737269826478045,-2.291664301881201,1.147668719059361,0.4251091839136765,-0.47236833832054037,0.715852378973871
0.0676729679107666,0.34207734215274593,0.6737101893822638,-2.2916001566702477,1.1476072871862506,0.4253249679802998,-0.47243125584605294,0.7160084683701251
0.0693509578704834,0.3425112774103785,0.6731295138589727,-2.2914196534079205,1.1482289528073593,0.4250855787764703,-0.473259600068903,0.716405588476376
0.07086610794067383,0.3424563401093288,0.6734609044844196,-2.2910761254551537,1.1486921165985624,0.42456731460981467,-0.47364588070073227,0.7164208263755215
0.07239413261413574,0.34248572175829806,0.6732459400850414,-2.291065365007454,1.1488318789907368,0.4246338018430209,-0.47363459887136017,0.716504906231855
0.07393193244934082,0.3425765733405005,0.6732893538018063,-2.290994542935286,1.1488355966214474,0.4246400185701469,-0.47373482200843553,0.7165870933632951
0.07548904418945312,0.34291014456910884,0.6733190871604745,-2.2906140223061677,1.1495707361828726,0.42420178863678487,-0.47433077099422066,0.7168430457110783
0.0770721435546875,0.34287978036748945,0.6733655032011725,-2.2905712068695854,1.1495556053345592,0.42420068129709865,-0.47433541289828596,0.7168590510128009
0.07884812355041504,0.34289319241798855,0.6733610895633779,-2.2905624768073376,1.1495576856090315,0.4242104144588271,-0.4743457926778006,0.7168755301705113
0.08190298080444336,0.34236808085036224,0.6738495908880429,-2.2896532316805738,1.1482783703171242,0.42440786902201727,-0.47479912864405,0.7170819073376604
0.08319997787475586,0.3413509512249207,0.6741763137596631,-2.290673781472051,1.1470912441325192,0.4257427720693694,-0.47327258687881124,0.7149636907181658
0.08336806297302246,0.34169861368947546,0.6739569989583767,-2.290784134822089,1.1469164827782292,0.4261101437446997,-0.4733873574432434,0.7151664007956886
0.08499503135681152,0.3415094432347806,0.6739261460269133,-2.290681323814703,1.1469130066004967,0.42627138135799525,-0.47333656438830607,0.7152547043377827
0.08974599838256836,0.34111408559021544,0.6739218599068267,-2.291036478669212,1.1465537050118135,0.4271976624214973,-0.4733276328047668,0.715170974622057
0.09143900871276855,0.3416343698619788,0.6727693355551644,-2.291229752764558,1.14704117540258,0.4272554179646305,-0.47299086189370726,0.7150967109975439
0.09303998947143555,0.34162909008241654,0.6730191942092525,-2.291087249640533,1.1477654692696222,0.42678197744357543,-0.4730197203488543,0.7149075958727213
0.09463191032409668,0.3430365730802219,0.6734783162905588,-2.28994541106214,1.149677914518363,0.4266566311025263,-0.4740259558093034,0.7158904253661239
0.09623193740844727,0.34298369480373164,0.6738008170795086,-2.290007051791412,1.1497169946527086,0.42633962666499664,-0.4741772487803008,0.7156500779419174
0.09807896614074707,0.34320112455406204,0.6738388830868203,-2.290032459848057,1.1504425279910306,0.4259507995088089,-0.4750166909607898,0.7155828184671357
0.09954309463500977,0.34270646400670307,0.6742553755311256,-2.2891848410886415,1.149353658173112,0.4261512905423264,-0.4751490950143045,0.7157780934572736
0.10106205940246582,0.3424869708667972,0.6754774380162234,-2.2901267561989185,1.149474858976246,0.42755308508734796,-0.47336538550557955,0.7144094773173468
0.10259604454040527,0.3427498436717492,0.6752872969024795,-2.2902333743182317,1.1493168502661908,0.42788761641423584,-0.47352012183347364,0.7145810900071847
0.10593795776367188,0.34252642482489476,0.675258564846155,-2.290152381581519,1.1493190009247318,0.42804134188250226,-0.4735246364166323,0.7146471587819306
0.10601496696472168,0.3418965872245636,0.675216431073113,-2.2906980023533854,1.1490198376061622,0.42907467025528706,-0.4740108268663428,0.7144536471765975
0.10809993743896484,0.34187691503765416,0.6753881357760632,-2.2908126682977974,1.1490584096429775,0.42900744850418565,-0.4739879294967621,0.7142710146578449
0.10970807075500488,0.34174678837707206,0.6752048681556332,-2.2908115235609263,1.149158455467275,0.42906514965936593,-0.473955716654254,0.7142986611653643
0.11138105392456055,0.3417256301022036,0.6751598057970456,-2.290887951574961,1.149038124789368,0.42916600266690236,-0.4740908966215317,0.71430879846468
0.11300110816955566,0.34130847752688304,0.6750967741867792,-2.2911135201905752,1.1488659895694222,0.42933958579893083,-0.47435001648819125,0.7141537841279233
0.11449098587036133,0.3413070282570674,0.675145891615615,-2.2911646589209194,1.148869039824391,0.42960456232056027,-0.4742847390306468,0.7141615202460776
0.11783504486083984,0.34127259162212137,0.6751381399524662,-2.2911940243087274,1.148908377941836,0.42958742296329305,-0.4742685099060109,0.7141194887404866
0.11811709403991699,0.3412204211715252,0.6752089943215605,-2.291303679120124,1.1489383486465063,0.42966861460516487,-0.47427773031456155,0.7140160270119768
0.11965012550354004,0.34180021802681343,0.6758896882324544,-2.2908026485421753,1.149930467675713,0.429729473558291,-0.4741281125012942,0.714211991398672
0.12127208709716797,0.34183393867766876,0.6759191503930527,-2.2909056287418053,1.1502064646922991,0.429635913806391,-0.4745615757031678,0.7141252058720245
0.12320804595947266,0.3418384970625996,0.6759856331204347,-2.2908309153831268,1.1501806777166173,0.4296977964477671,-0.4746118864100639,0.7141949283859579
0.12557196617126465,0.341926063817934,0.6760487267913564,-2.290784888460174,1.1504606222170206,0.42983891822268905,-0.47486281890393717,0.714273517533246
0.1280519962310791,0.3418737596643697,0.6760760984646467,-2.2907728778603182,1.1504961389890398,0.42981321227652847,-0.4748569835041004,0.7142496812484787
0.1298539638519287,0.34188370356786363,0.6757837941505401,-2.2908223239723635,1.1505475626056147,0.42993554359386843,-0.47486925156595644,0.7143350721943368
0.1346120834350586,0.3418313065390599,0.6757913839189847,-2.2908043678165804,1.1503907098508974,0.4299890536513437,-0.4749792121163054,0.7143876880773659
0.13628292083740234,0.34155449473527066,0.6755024394387044,-2.291016223777831,1.1501273855754732,0.4299976989831442,-0.47522511230354775,0.7143174628610969
0.13843202590942383,0.34149888218632374,0.6755359868973467,-2.290974770924436,1.150124810757596,0.4299960058171568,-0.4752002910634621,0.7143245243786267
0.14016294479370117,0.341362677795865,0.6758540517500331,-2.290682258453025,1.1496931431765145,0.4301184309757855,-0.4753246527138155,0.7144548681781646
0.1434640884399414,0.34097517103628266,0.6759243455870229,-2.2911279471837545,1.1493143510133217,0.43122657413947824,-0.475175714053804,0.7143062957116046
0.14513206481933594,0.34082638275858623,0.675957763605558,-2.2911760406057966,1.1494341797739978,0.4311115746105989,-0.47510868814341684,0.7141627043108988
0.14536309242248535,0.3408829053896503,0.6759938570961203,-2.291242041822859,1.1494158309339588,0.4311046341259635,-0.47513111819772064,0.7141134146363453
0.14840006828308105,0.3408401980123772,0.6760030546353972,-2.291264998168884,1.1494562977980054,0.43111206753132253,-0.47510917851491025,0.7140749129905187
0.15155696868896484,0.34069789456210553,0.6763054628892544,-2.291616070208687,1.1496413438555906,0.4316859652412691,-0.4750625497177806,0.7137839763146272
0.15165305137634277,0.341268407892086,0.6753443671776639,-2.2916859985326594,1.1505146655728729,0.4306606949876922,-0.4758413939302669,0.713801002990616
0.15301203727722168,0.34100498791271444,0.6753327534344147,-2.2913679887347564,1.1506406594726024,0.4306786989025324,-0.4757972427257199,0.7139886593471171
0.15449810028076172,0.3412148478654374,0.675354021318332,-2.291252935669391,1.1505997969434019,0.4306874783994594,-0.4759654877084513,0.7141604402863819
0.1545579433441162,0.3419738960295545,0.6752226278952004,-2.290028767948883,1.1517482488782875,0.4293466444841139,-0.4771312286506633,0.7150560788913378
0.1562669277191162,0.34203152670358317,0.6752481870224476,-2.290019426212894,1.1517515525725537,0.42911784204668685,-0.477087171853648,0.7150046564798475
0.15784692764282227,0.3420335957707407,0.6751991972076961,-2.290021027267044,1.151773219320414,0.4291196077047984,-0.4770733560785919,0.7150158513770575
0.15949511528015137,0.3417893596095849,0.6764660569806552,-2.2909428503704197,1.1504073655805303,0.4322426704214803,-0.4743039542819876,0.7138379240364255
0.16113996505737305,0.3409088559733812,0.6767749288033691,-2.291666860765632,1.1503795009070883,0.4323910178129978,-0.4747385890989569,0.7130294072352183
0.16294407844543457,0.34083805158210134,0.6765072881610704,-2.2915822942635455,1.1504890224297617,0.4327157911129845,-0.47467941204855174,0.7132363434238619
0.16481709480285645,0.3408885820864095,0.6766195111810774,-2.2915854236114286,1.1503866760616264,0.43284968598490475,-0.474740309180899,0.7132683662658723
0.16649293899536133,0.34052821097531544,0.6769119929285632,-2.291992533614063,1.1505571041201241,0.4341294404785258,-0.47486457440465313,0.7130967366702833
0.16814208030700684,0.34041546075145224,0.6770286211628552,-2.2920939790276074,1.150655176285596,0.43400868122923864,-0.47484871625313724,0.712898670774732
0.17300200462341309,0.3403018106075206,0.67720168488672,-2.2924498060175975,1.150998014873598,0.4345330912398559,-0.4749726171936496,0.7126373248695472
0.17307591438293457,0.34030713814667285,0.6773104334343534,-2.2924166790337437,1.1509312992332024,0.4345696207973372,-0.4750130678951375,0.7126560870076885
0.17309808731079102,0.34024583842172795,0.6774513889691134,-2.2924832758881752,1.1510549940964532,0.4350473120300331,-0.4751736425548648,0.712682019182251
0.17928504943847656,0.3401709943886586,0.6774576509462263,-2.2925165351225556,1.1511332781949652,0.434991664699223,-0.47514657908197006,0.7126047679041124
0.17938804626464844,0.340201040185291,0.6774829639178386,-2.2925511952012956,1.1511264909094603,0.43499020214988926,-0.4751671020686063,0.7125786126853966
0.18108892440795898,0.3401495387920117,0.6776189756829025,-2.2927003048466483,1.1512855558813273,0.4351290324278747,-0.4752454498324567,0.712430134746482
0.1826169490814209,0.3401201131038511,0.6776024259358215,-2.2926580051743723,1.1512967546355755,0.43518987210121907,-0.4752410820304813,0.7124788281992637
0.18420791625976562,0.3401124382159539,0.6776445557338784,-2.2926694684404114,1.151327849881474,0.43532095579030144,-0.475290690678165,0.7124958805684036
0.18583297729492188,0.34011342409840206,0.6776635478235397,-2.2927037155366152,1.1513452657473875,0.435305968221272,-0.47529921151085835,0.7124568040507085
0.18736600875854492,0.3400549276742644,0.6777800527716864,-2.2927758187104392,1.1514829590113815,0.4355632994471927,-0.47539898115462725,0.7124219471209612
0.18909311294555664,0.3400488357858578,0.6777851363966109,-2.292798736220472,1.151500671283395,0.43554256969829125,-0.4753979180138893,0.7123921438886522
0.19061708450317383,0.34002117387882125,0.6778440228731182,-2.2928323102933867,1.1515552352170635,0.4356255076964173,-0.4754383613533694,0.7123714150864725
0.1922590732574463,0.34002836083088606,0.6778371463187632,-2.2928388324412103,1.1515576213360992,0.4356289180894378,-0.4754398203650305,0.7123711347450613
0.19403791427612305,0.3400167692207691,0.6778633578527324,-2.2928662367755375,1.1515909624575655,0.43567087690543865,-0.47545699185480084,0.7123628280413551
0.19568705558776855,0.34001515589716286,0.6778652743933659,-2.292864409757899,1.151590094983701,0.43567186635247207,-0.4754573178664428,0.712364257689199
0.1972501277923584,0.34001557898543977,0.6778647725777609,-2.2928647979330705,1.1515900692518155,0.4356728512408664,-0.47545776287945074,0.7123651350677682
0.20082902908325195,0.3400125653014411,0.6778679668275194,-2.2928688876102297,1.1515915800874936,0.43567595847565305,-0.4754610297387649,0.7123686218889171
0.2008960247039795,0.3392476703608436,0.678227984177774,-2.291950285532326,1.1507035283621148,0.435641714545634,-0.47588760987000234,0.7127917900746418
0.20243096351623535,0.33756589770522427,0.6760180575709681,-2.2921246735746914,1.1490019291339804,0.43466658116573825,-0.4780603313389614,0.7131566515624126
0.2040269374847412,0.3379252246469006,0.676229677221618,-2.292209824123807,1.1487611042708858,0.43458414327895867,-0.47809794465982713,0.7130833929985255
0.2056131362915039,0.33789962319416905,0.676431644522453,-2.292067721456009,1.1488620706468948,0.4344233264456752,-0.4777633615687668,0.7130262124664228
0.20873212814331055,0.3386650281886308,0.6764371044479044,-2.2918359282128087,1.1490578612337348,0.43424578454265733,-0.47665786264289267,0.7131764259043039
0.20888495445251465,0.3386940216345195,0.6765773892816942,-2.2918144937320752,1.1489260294262165,0.43418974086889683,-0.47671098201245127,0.7131666175221884
0.21033406257629395,0.3384460364944646,0.6767586665827984,-2.2915127332234113,1.1489551291694096,0.4342615996442657,-0.4766605426457697,0.7133088344958501
0.21191811561584473,0.3385894592668658,0.6767986410139809,-2.291476177567827,1.1489550828170754,0.4343729051558141,-0.476718178079766,0.7133993995332352
0.2167830467224121,0.3388494398261787,0.6771690125971365,-2.291208498690274,1.1496477047419735,0.43464889293587156,-0.4768938826355848,0.7135710061386862
0.21684908866882324,0.3388298513201232,0.677154477247141,-2.2912999594974406,1.1497469451146645,0.4345791703204737,-0.47693602870405116,0.7134683749865111
0.2169051170349121,0.33869618295536286,0.6773131368152814,-2.2912936200001535,1.1500307266415681,0.4347508368339875,-0.4773757815299186,0.7134644536393567
0.2217109203338623,0.3387550446854591,0.677302939901785,-2.291332128409891,1.1500361681308067,0.4347659873283249,-0.4773910786008632,0.7134554975907803
0.22332096099853516,0.33883919792891537,0.677530214352779,-2.291406469560454,1.1503637092550127,0.4349606441545257,-0.47740938032460406,0.7133560599131411
0.22495293617248535,0.3387984684319949,0.6775257842294448,-2.2913732596427234,1.150362140706106,0.43499313004870377,-0.4774216345132554,0.7133868263385816
0.22688698768615723,0.3387375284433995,0.6774971599655467,-2.2914010457339073,1.150355113805562,0.43508486728661144,-0.4775511642258515,0.7134065745879138
0.228485107421875,0.3387410858486725,0.6775246587430445,-2.291416291379621,1.1503555443432787,0.43507080643437823,-0.47755732147398006,0.7133831875333797
0.2304520606994629,0.33859868163904977,0.6778450860433851,-2.291167838821077,1.150169175533101,0.434843582097423,-0.47752523888715537,0.7133313104095292
0.23222994804382324,0.33881688486288924,0.6778782635785056,-2.2911833709024405,1.150186650397141,0.43473182612866884,-0.477439462533732,0.7133160223851595
0.23374199867248535,0.3392406095112098,0.6779799168705384,-2.2907257550272746,1.1503175156219108,0.43428444045746856,-0.47692134496836014,0.7135615087914358
0.23531103134155273,0.33928303051167474,0.6777245004733538,-2.2907076388640393,1.1501799156315384,0.43387060675666805,-0.4770417705206553,0.713600620336481
0.23871397972106934,0.3392408599975472,0.6776990675184491,-2.2906478645195008,1.150190101278454,0.4338749307148216,-0.477011857374248,0.713644882879932
0.23878908157348633,0.339353346048733,0.6775678162558979,-2.2904357852986488,1.1500624973180193,0.4337144887136533,-0.4769070978074792,0.713858434279537
0.240339994430542,0.3393917114707646,0.6775915916511066,-2.2904907211370773,1.1500459078454537,0.433631175671159,-0.4769182844850257,0.7137958923395593
0.24838495254516602,0.33950327212229614,0.677317287422486,-2.2903123048015126,1.1498026288323677,0.4330556022883405,-0.47672587490046225,0.7139339263836054
0.24845600128173828,0.3394997472643443,0.6773333798729037,-2.290285583096465,1.1497789579436062,0.4330677997734029,-0.4767284776979144,0.7139577276630225
0.24854803085327148,0.33950152889143714,0.6773197378824805,-2.290283603240183,1.149779852308696,0.4330711442610791,-0.47672459945637535,0.7139650376039541
0.25000500679016113,0.33930488541139664,0.6771849375843393,-2.290144477927933,1.1499878114011293,0.4331783905456079,-0.47657654190849935,0.7140577743705938
0.25315093994140625,0.33946043859329544,0.677269371738299,-2.290100336174303,1.1500051308406156,0.43338003853596857,-0.4765609068235416,0.7141548137526462
0.2532379627227783,0.33964252924529115,0.6778101418232807,-2.290149324697135,1.1506622592710505,0.4338229347318051,-0.476319967116055,0.7139782623065043
0.2546710968017578,0.3394164303892058,0.6778922282032604,-2.290208017679341,1.1507165802035575,0.43427116590995735,-0.476806352664499,0.7140362322877508
0.25792598724365234,0.3394044953758291,0.6778242048470171,-2.2902857065622473,1.1508292878589768,0.43424098460609667,-0.47677123815920447,0.7139621847501547
0.2579820156097412,0.3394268487014227,0.6778851970715961,-2.2903133098070207,1.150829793088347,0.4342352632105787,-0.4767854852785396,0.7139252854896484
0.2597470283508301,0.3392754619260119,0.6781767568943237,-2.290044172318579,1.1507308030338355,0.4341191704210507,-0.47684173614478903,0.7139541735588908
0.2662160396575928,0.3401479848209666,0.6786034830276461,-2.2893951626659956,1.1520517555050067,0.43360435773485995,-0.4772432345594476,0.7143060769374233
0.26631808280944824,0.3401305237176247,0.6786375270404851,-2.2893638964670697,1.1519812400303444,0.43361970193710364,-0.47733457555863423,0.7143444681765784
0.267880916595459,0.33997350837782137,0.6784411406081818,-2.289410166959277,1.1519248060249787,0.4335955679006968,-0.4777548113161246,0.71439848443379
0.2696080207824707,0.33966544600449355,0.6785307983916625,-2.2895312758935273,1.1515203416147999,0.43375179204316705,-0.47776550343378094,0.7142975614841538
0.2712221145629883,0.3395806846927422,0.6783792075617682,-2.289717709142871,1.151484782267755,0.43386976385315584,-0.4776202762612152,0.714190456794892
0.2727959156036377,0.3395050600363909,0.6784355349211995,-2.289668309444489,1.15146389057632,0.43387369889125366,-0.47760026213389767,0.7141966650058749
0.27434802055358887,0.33935528694082184,0.6784179823940432,-2.289798594327062,1.1512408769671738,0.43417099402807885,-0.477410262493309,0.7141501748630876
0.27613091468811035,0.3393811266341688,0.6784419583378999,-2.2898475037597286,1.151234588233836,0.434135393124222,-0.4774204997830225,0.7141007880615614
0.2777121067047119,0.3393616946880059,0.6784379840614696,-2.2898492087679543,1.1512489664404861,0.43412844934906997,-0.47741060156926324,0.7140910601008351
0.28245091438293457,0.33936489353842675,0.6784436608862408,-2.2898607374973348,1.1512464017056112,0.43412669697086936,-0.477411218798957,0.7140808770314179
0.2825150489807129,0.3391613156715873,0.6781892000447689,-2.2898571179287255,1.1516039839969376,0.43384254970645203,-0.47710553320259463,0.7138980763201227
0.2825789451599121,0.34062597679361994,0.6792595726400857,-2.2890434354090052,1.153761375398937,0.43256044015021816,-0.4766451019763872,0.7137868810684959
0.2841019630432129,0.34098890969729534,0.6791372417960747,-2.2890047663307156,1.1535598238822415,0.43285720248552767,-0.4769094409917053,0.7140934410171725
0.28737902641296387,0.34081646783210157,0.6790692932632202,-2.2888341593421573,1.1536442468732238,0.43290860953835936,-0.47694892329363114,0.7142251350024862
0.28743696212768555,0.3407627957818596,0.6788682253364706,-2.2884135720430616,1.1539454632122617,0.4328814411118597,-0.478030905383283,0.7147388167156142
0.2905299663543701,0.3406226081405259,0.6783621820002629,-2.2885347012927237,1.1542489065897703,0.4328405326707077,-0.4777484685939395,0.7145221124476763
0.2920210361480713,0.3407985067665906,0.6784880992660645,-2.288705983194548,1.1542393634525523,0.4328007088369164,-0.4777171135028563,0.7142874328381073
0.2921121120452881,0.3406956309264919,0.678870444709619,-2.2892101176340787,1.154462152486722,0.43333625175385454,-0.47714327881261404,0.7137511186809392
0.2938680648803711,0.34060157296308635,0.6788732256192476,-2.289095247542742,1.1544086729772947,0.4335703464363297,-0.4771474116846848,0.7138958291829504
0.2954859733581543,0.34019258857909546,0.6790093226913374,-2.2897247478271514,1.154465196359333,0.43449028677668367,-0.47725577209236303,0.7134919393021966
0.29704713821411133,0.3401863916411835,0.679129792947157,-2.2896898053001458,1.1544135386395042,0.4345006146693034,-0.47727509969210824,0.7134931320462947
0.29869914054870605,0.34024380606368887,0.6794119704784723,-2.289754111686197,1.1546965591475697,0.43498574146089,-0.4772290372272028,0.7134542857084538
0.3017890453338623,0.3392733048631338,0.6786973038741876,-2.289428011106645,1.153881362296066,0.43355179344417527,-0.4790364059440399,0.7136062103755736
0.3018660545349121,0.33973681422359486,0.6784772371373721,-2.2888252200076566,1.153802744823637,0.4333554110916387,-0.47894320131881024,0.7142453526240062
0.30650997161865234,0.33983241113942453,0.6785967378886124,-2.2889595405951026,1.1537745736434255,0.43307697345315366,-0.4789835517873833,0.7140518614395572
0.308258056640625,0.3399558536963483,0.6783991449914902,-2.288852765614818,1.153814645858962,0.43249251791100435,-0.47893324545152366,0.7140709437684981
0.30989909172058105,0.3397239824754342,0.6774595387288099,-2.2889094013128335,1.1542101902226698,0.4325536484161995,-0.47840878602313397,0.7142027468255875
0.3114590644836426,0.3413080398289055,0.6778913344769762,-2.2879069969597507,1.1563736071894226,0.43110759153633244,-0.4785402434637823,0.7145864892308071
0.3161890506744385,0.34147587931918844,0.6780285252745827,-2.287792262876179,1.1561480119261442,0.43120274820034377,-0.47874825392655607,0.7147646107925907
0.3162510395050049,0.34137490188391933,0.6779197922619202,-2.287660340437256,1.1562257455350031,0.43122497513485303,-0.4787977652089301,0.7148892360706822
0.31634092330932617,0.34145520600788926,0.6777232558536613,-2.287252226467093,1.1564034910609262,0.43085549165643966,-0.4796606003845751,0.7153168787771589
0.3178520202636719,0.34152402039219504,0.677751501404502,-2.287331704525915,1.1564829487293489,0.4307047076275563,-0.4796664725085172,0.715207350885729
0.31954312324523926,0.3410485382815135,0.6779750592445505,-2.2869362325812337,1.1564825386152504,0.4306500754208583,-0.4795089447780468,0.7152604666024817
0.32244110107421875,0.34110327002368357,0.6780899986253967,-2.286926106684073,1.156385442238117,0.4306762278566366,-0.4795198332000087,0.715266585862874
0.32268810272216797,0.34106613296258836,0.6781044571787707,-2.2869037887017347,1.1563898986396075,0.4307433724724409,-0.47941391778640746,0.7152749928009872
0.32418298721313477,0.3411125729172955,0.6782072048950999,-2.2870754076280337,1.1563054946613827,0.43096767019877064,-0.479034353270249,0.7151326644969261
0.32743096351623535,0.341005258365283,0.6781696805696275,-2.287106436460557,1.1561996667329923,0.43109525243706,-0.47906488253320206,0.7151509476221865
0.3278369903564453,0.3410100300912879,0.678201330852765,-2.287130102253262,1.1561887279070215,0.4310740167078521,-0.4790682750345913,0.7151185923212756
0.3294861316680908,0.34061968064932024,0.6768544652164961,-2.287357025326506,1.1567552337598979,0.43134047473641196,-0.47803083886031794,0.7151317333958779
0.331104040145874,0.341786300582315,0.677183901486856,-2.2871293835957496,1.1588013963934323,0.43054397786418624,-0.4781764658797361,0.7146202672363998
0.33269500732421875,0.3420703676058207,0.6774277376388463,-2.286967542098108,1.1584882766379303,0.43076723636310865,-0.478433959895253,0.7148789128175614
0.33418893814086914,0.34195155317115267,0.677347607720084,-2.2867925696409435,1.1586230979564642,0.43087450507272307,-0.47844711821666985,0.7150355741256815
0.33580493927001953,0.34216751499148146,0.6775024805238619,-2.2863612329095977,1.1592423912283485,0.43108737304456085,-0.479213680123343,0.7154797624371496
0.3373279571533203,0.3422506424537007,0.6775989495570961,-2.286525829028447,1.15932412739789,0.4309152888341454,-0.47928803142391324,0.715283220431679
0.3390049934387207,0.34230655222097484,0.6778210520999913,-2.286489817197129,1.1599063347433338,0.43087421437970785,-0.47965777140852,0.7152175304664531
0.3410921096801758,0.342313038129494,0.6777950812085854,-2.2864204146624543,1.1599171010147635,0.43098750502776867,-0.4796892349501623,0.7153200340577947
0.34258103370666504,0.3422910185321856,0.6780148538484637,-2.286434684068505,1.160293019187341,0.4311257644681694,-0.48000700552410425,0.7152674487203969
0.34407711029052734,0.3423286366499749,0.6779925214171131,-2.2864489149816762,1.160291127159942,0.4311586343244022,-0.48001898886553723,0.7152832928031178
0.34899210929870605,0.34231502828276517,0.6779950423583865,-2.2864373716413158,1.1603010607712323,0.43117810008183993,-0.4800174763810723,0.7152929923985267
0.35056495666503906,0.34143501183110114,0.6784091383010433,-2.285749744251222,1.1598937594032348,0.4302944404212893,-0.4798113500938155,0.7147207633881971
0.3520989418029785,0.3416329072488865,0.6785507811768559,-2.2858476830143832,1.159642620446773,0.43020177028708856,-0.4798937441889548,0.7146065387361937
0.35363197326660156,0.3414565171489416,0.6783955189051141,-2.2859932971256463,1.1595555724932316,0.4300211679501774,-0.4797166354266643,0.7144336829823638
0.35532712936401367,0.3410799433571613,0.6778920229909227,-2.2860727989599843,1.1580685010956906,0.429958244570337,-0.4789979200354011,0.7145420360070366
0.356917142868042,0.3411862621590008,0.6777876165853675,-2.286235163880625,1.1581027950588967,0.42983470284101344,-0.4789397347149162,0.7144067119477238
0.3586289882659912,0.34124498838315653,0.6777617595112073,-2.286279429576596,1.1577883748121045,0.429482927282126,-0.4785450322685945,0.7142907948731818
0.3608701229095459,0.3411838039463762,0.6776804800619206,-2.2862143494742853,1.1578008485749443,0.42952004310538167,-0.4784949842020356,0.7143591307816612
0.3626129627227783,0.3412260573271446,0.6776758995726216,-2.2862032763377638,1.157730713042008,0.42952953516549175,-0.47849853634647566,0.7143935020918389
0.36612701416015625,0.3412266148211123,0.6773641565041169,-2.286062799621474,1.1572409431546655,0.429253795314018,-0.4781911932422194,0.7145743328530169
0.36772704124450684,0.3412107035930795,0.6773759338962722,-2.286105301575347,1.1572631629858499,0.4291497176036498,-0.4781627809976382,0.7144965803911603
0.36783695220947266,0.34134701495613357,0.6771773121455333,-2.2859683711480434,1.1570400776696506,0.42882979995507037,-0.47791501804421227,0.7146324823755827
0.36948513984680176,0.3413373921419363,0.6772078185091647,-2.285963406401052,1.1570201356966463,0.428807947323295,-0.4779236555648764,0.7146226978130084
0.37099599838256836,0.34132765486271693,0.6771914815512466,-2.285969118729072,1.1570209449216606,0.4287896805280957,-0.4779255015753332,0.714617028936335
0.37258195877075195,0.34130817650991263,0.6771533912853169,-2.285950325322574,1.1569596658573327,0.42873043075361816,-0.4779485735398227,0.7146417931229065
0.37412595748901367,0.34132475716833893,0.6771368197902131,-2.2859502508136282,1.1569597289672136,0.42869715533438485,-0.47792002037878945,0.7146419373973716
0.376007080078125,0.3413311765225632,0.677140622695629,-2.2859484407433754,1.156951244105459,0.42869786908943514,-0.47792267024137186,0.7146458529205787
0.3777730464935303,0.341344088284536,0.6771204536309051,-2.285925970504181,1.1569206648443788,0.4286758403800161,-0.4779079188792596,0.7146768097507984
0.3808131217956543,0.34133644104246036,0.6771181485377343,-2.2859283799374137,1.1569274433359644,0.428665381389941,-0.4779028655616618,0.7146697188090598
0.38088011741638184,0.34134058299787773,0.6771195400261397,-2.2859312991621628,1.1569245276121762,0.42866158684349726,-0.4779038846925968,0.7146677440559882
0.3823421001434326,0.3413448513191716,0.6771103759397403,-2.2859316359965636,1.15691290280914,0.42862892548952636,-0.4778930240975056,0.714668587617019
0.3839280605316162,0.34134231987076585,0.6771068915423939,-2.285925622589866,1.1569119890144037,0.4286324394342973,-0.47789095616482946,0.7146755407831724
0.3872261047363281,0.34134631417359557,0.6771015768534729,-2.285920331235897,1.1569027500753861,0.42862604233814333,-0.47788687005266967,0.7146854601516771
0.3873870372772217,0.341347001665609,0.677101791001496,-2.285922954150397,1.15690246816543,0.428620330340423,-0.4778859565241239,0.7146825969896586
0.395611047744751,0.3413507152348775,0.6770920930829325,-2.285916246665422,1.1568891005328337,0.4286037657710836,-0.47787680820192413,0.7146973530184997
0.3956749439239502,0.34134964541116053,0.6770921586995745,-2.285918335870349,1.156890421265879,0.4285993933031331,-0.47787567463184183,0.7146945356677704
0.3974640369415283,0.34135314701023284,0.6770835063613332,-2.285918751227292,1.156876692488497,0.4285725437653133,-0.4778637626246323,0.7147108760468402
0.39752197265625,0.34135288612796816,0.6770832598100057,-2.28591962055502,1.1568766310372482,0.42857300678624644,-0.47786338086582186,0.7147141932750847
0.40107107162475586,0.34067425025333203,0.6742005655271242,-2.2845322312091394,1.1606450199230942,0.42423695433917286,-0.47203195814421844,0.7070640820612475
0.4011390209197998,0.3417696448349488,0.674847129796687,-2.2825544859323963,1.1589452791906956,0.4252685430831716,-0.47304424084923025,0.7086832948813728
0.40264105796813965,0.34361065598106705,0.6760244614328175,-2.2804361136059,1.1614051818691058,0.4267273854135385,-0.4718350563202633,0.7096232255327662
0.40425896644592285,0.3445624886891431,0.6760420493803667,-2.2807029427462386,1.1620714139335662,0.42628247071615055,-0.4725108648392439,0.7087179547802692
0.4062049388885498,0.3451474304584096,0.6786280005389063,-2.28051882515062,1.1676690327205226,0.42759836407511226,-0.4760953339183133,0.7080472426049997
0.40949201583862305,0.3448279620462802,0.6792746493767029,-2.2807046948895375,1.168143806459451,0.4294502472657367,-0.4772604994742353,0.7082274927004203
0.40955114364624023,0.3440561394407641,0.6785324397714922,-2.2803527756423225,1.1685714193225238,0.4290654189971847,-0.47647514263632407,0.7078403713878683
0.41104602813720703,0.34413625451288904,0.6789858031363176,-2.280591728169357,1.1688895482564299,0.42886929263945855,-0.47633526580792934,0.7073935216648741
0.41414499282836914,0.34485053628923085,0.6800815406196353,-2.280577018286498,1.1700840356041813,0.4304775131768885,-0.4759566703346698,0.7074561626069689
0.4160900115966797,0.3445692954841151,0.6800216101848284,-2.2806291416387134,1.170304027646162,0.4303614001950387,-0.4759199237663857,0.7072976791453884
0.4192841053009033,0.34461679176485094,0.6800921627651096,-2.280781959329769,1.1702773940901419,0.43033805851308404,-0.47606810410873873,0.7071782190553868
0.4193389415740967,0.34406079757681524,0.6802127360800498,-2.2812353895575446,1.1705913277114033,0.43076753187875755,-0.47688685290790084,0.7068311492388598
0.42083191871643066,0.3434216486567291,0.6798630007860205,-2.281128270478234,1.170944132934437,0.4303799501513152,-0.476236912532442,0.7064684369779087
0.4208841323852539,0.3440845468167223,0.6800996770502423,-2.281389367255031,1.171380303246949,0.43016415982125417,-0.47596252948514334,0.7060895876216604
0.42398595809936523,0.3449396913044325,0.6812414494717907,-2.280695412386811,1.1724529954513172,0.43055643080494377,-0.47506505394884324,0.7063320880719836
0.42569398880004883,0.34490084202085525,0.6810339928623313,-2.2807918510222502,1.1726524476669802,0.43053875507056993,-0.4750424208141828,0.706277293763245
0.4276430606842041,0.3449373717370906,0.6810853442296156,-2.2808583617837113,1.1726761978409885,0.4305061412567798,-0.475146569428213,0.7062174722629982
0.42803311347961426,0.3447632919320973,0.6812548877872296,-2.280923671778516,1.1732965526228665,0.43071679273528013,-0.47601597231322434,0.7061776699952951
0.4309239387512207,0.3447829816554116,0.681322436804583,-2.280865773868308,1.1733260153647007,0.43081039727864234,-0.47598102265402875,0.7062264123667453
0.4310441017150879,0.3448393325747103,0.6814935122997688,-2.2809383239697976,1.1735586177778194,0.4309147654110849,-0.47589438859420424,0.7061138946929686
0.437701940536499,0.34487442253256895,0.681486276027883,-2.2809407374846167,1.1735374189334509,0.43096357402176383,-0.4759235021586446,0.7061441228666486
0.43939995765686035,0.34482445313142773,0.6815148115829109,-2.2809369758357128,1.1735615595702464,0.43111109176456547,-0.47601987566263065,0.7061822090790746
0.43945813179016113,0.34401553681632424,0.6806947312015105,-2.280632102861349,1.1740074464423402,0.4304732113058116,-0.47519723587940066,0.7056631538069812
0.4410860538482666,0.3444517122303874,0.6811726503930383,-2.2808837034326594,1.1744708376737605,0.43010465274675835,-0.47500142203486073,0.7052079603682244
0.442673921585083,0.34561684828538597,0.6820421404619257,-2.2800623085711544,1.1758959328525862,0.43087345207757527,-0.47445899815520115,0.7058361067650585
0.44614601135253906,0.34535291454054956,0.6820788501285588,-2.2801687498633494,1.1761373968400188,0.4305997088631554,-0.4744652783922291,0.7055634297039338
0.44620203971862793,0.34522175524022103,0.6821398328035172,-2.2804667580825906,1.1764683838807912,0.4304421653722135,-0.4750914554949947,0.7052726677927348
0.44784998893737793,0.3453005843870842,0.682200124321325,-2.2803631667105986,1.1763848113998865,0.4306181434231498,-0.4751794323108662,0.7054318732945444
0.4494941234588623,0.34454136658135776,0.6815542649253887,-2.2798001137665787,1.1768024648328717,0.4302337124244545,-0.4744080376547524,0.7051902095409915
0.45104098320007324,0.3445552495719401,0.6818326716626161,-2.279954267953012,1.176987173061928,0.4300159859564187,-0.4743425956983695,0.7048784206367085
0.4526660442352295,0.34498287166701347,0.6824172301510135,-2.279945500294349,1.1777791670570024,0.43066274675447314,-0.47414267707665503,0.7048549761644676
0.4561300277709961,0.34471033857407674,0.6824879479237397,-2.2802206162762464,1.177957952991411,0.43070155124662307,-0.47455867988793526,0.704591936841961
0.45619893074035645,0.3446624829417682,0.6824502681959205,-2.2801303164281546,1.1779877727849046,0.4308383319300631,-0.4745492801425754,0.7047017987915379
0.4577789306640625,0.34466754970103514,0.6826009054319344,-2.280143791303927,1.1781196406442038,0.4311412837961378,-0.47465858418748813,0.7047320438108822
0.45946598052978516,0.34467501497186365,0.6826186120410158,-2.280221541512915,1.178168439932642,0.4311117578372124,-0.4746768592382115,0.7046525221909772
0.46128010749816895,0.3436957940147379,0.6813229652647108,-2.28023091563603,1.1787065809470072,0.43029020567374654,-0.47368158306872904,0.7043008005146753
0.46286702156066895,0.3466954158070963,0.6814700794458491,-2.2782979710857307,1.1817264539968202,0.4263270697790813,-0.4754018089215561,0.7046777438437182
0.4645400047302246,0.34651646150768595,0.6809679922598733,-2.277751896658332,1.1820777243256881,0.4267255642617006,-0.47533974163272313,0.7053071237206883
0.46803712844848633,0.34737787319921193,0.6812277859476399,-2.276232530744199,1.1831397323696837,0.426605530460828,-0.4764965489681815,0.7067063970498673
0.4681050777435303,0.34781747757744164,0.6813128353946659,-2.2764488528653506,1.1833561560756465,0.426019150782245,-0.4767381255806326,0.706153988755076
0.46968698501586914,0.3479366555262453,0.6813378275373246,-2.2762499506472467,1.1841179881037485,0.4253987215420624,-0.47729403028489403,0.7061694232007324
0.47129297256469727,0.34705016337583455,0.6806540675035194,-2.2754947918503565,1.1846046776658095,0.4248473431155665,-0.47639343044225835,0.7057485208100189
0.47313499450683594,0.3470955514148637,0.6810183250819624,-2.2757348522344145,1.1847423653061653,0.4246689306557903,-0.47621396221901324,0.7053297684796818
0.47440099716186523,0.34744785069253625,0.6816326697801912,-2.276077124072997,1.1851695022744677,0.4259173624775902,-0.4753814246181718,0.7051556576876136
0.4792821407318115,0.34723615314439643,0.6816675179171636,-2.2760560570061465,1.1852523976470184,0.42586628903704143,-0.4753533179227214,0.7050824515685217
0.4810490608215332,0.34785848842793854,0.6823404719276694,-2.2761568626572743,1.1876401311199662,0.42469305805372715,-0.47267355008725015,0.7028026902417871
0.4827749729156494,0.34747548239928366,0.6823496299286446,-2.2752859200725353,1.187750566429637,0.4252639121098925,-0.4725507395012172,0.7036342112945206
0.4862101078033447,0.3478713697929295,0.6824094849230966,-2.275372221965815,1.1876661926432326,0.4255446747512651,-0.4727151176098275,0.7037636306727237
0.48629307746887207,0.3484408261881257,0.6836798247842872,-2.275079396491329,1.1893311180166377,0.4275502702444179,-0.4731708867304439,0.7042121469333565
0.4879341125488281,0.3480777783800735,0.6836748820408408,-2.275228427372579,1.1896934370441454,0.4272509890188449,-0.4731212015010098,0.7038254101183841
0.4895191192626953,0.3467745993904452,0.6819514174256437,-2.274972480881318,1.1904046018349332,0.4259457877791861,-0.471798288621268,0.7024437646030668
0.4911000728607178,0.3469185603721004,0.6820918958460654,-2.2751485639086333,1.190495126468233,0.42575905521358987,-0.4718677528814761,0.7022308506869229
0.4926340579986572,0.34707219123530303,0.6823551379961288,-2.2751079402975516,1.1911323491218135,0.42567173553964915,-0.4720362486763673,0.7021645813682629
0.494312047958374,0.34706094521631753,0.6823523899643903,-2.2750051416257104,1.19114943537509,0.42579293131386864,-0.4720894814865334,0.7022928141755174
0.4961519241333008,0.34709036478145383,0.6825576774113727,-2.2750640880812076,1.1917113541688689,0.42585868905826846,-0.47256914385764126,0.7022636036290715
0.49793195724487305,0.34710898005744745,0.6825994348115287,-2.275023399232984,1.1916708643259515,0.42591977710654444,-0.47259305030122467,0.7023180711495737
0.5011501312255859,0.3457253751502609,0.680770026051968,-2.2744113123479632,1.1924252015844161,0.4245344264359024,-0.4711886241886012,0.7013083715599185
0.5012259483337402,0.34835514025263076,0.6821290555399171,-2.2735238096767265,1.1948869821096124,0.42348108988796507,-0.46934667731403334,0.7007307956968598
0.5028080940246582,0.3485250605779745,0.6817392336364897,-2.2733009929750008,1.1950082639462247,0.4239439296858997,-0.4695620331872896,0.7012430133296975
0.5060849189758301,0.34859094772208365,0.6820549726162889,-2.272609454438813,1.196350606721166,0.4239141917933861,-0.47151323977518794,0.7018801349226057
0.5076179504394531,0.34871844122133033,0.6821835978783783,-2.2727517763670266,1.1964039814886644,0.4237932134487084,-0.47156420324100695,0.701720606798883
0.5077149868011475,0.3488352921255252,0.6824477249895667,-2.272805172926009,1.1969257141048613,0.42377828272657253,-0.47162303311220055,0.7015840319980745
0.5093920230865479,0.3473184794075169,0.6804434889420002,-2.2725799629974013,1.1977512744984375,0.42330460985364854,-0.4700864206012017,0.7008510239757929
0.5109610557556152,0.34904834306620564,0.6818401376669849,-2.272370943268087,1.2001226504804254,0.4232624218125575,-0.4683769204368904,0.6995117005850476
0.5140209197998047,0.3494424765220382,0.6817076341741357,-2.2723420407788963,1.199864757921503,0.4237377849502639,-0.4686625825852424,0.6999119508923991
0.5140900611877441,0.3491985665942253,0.6816691727547282,-2.2721824488012494,1.199966035640978,0.4238774022486397,-0.4686657785793916,0.7000278391372992
0.5155680179595947,0.3487548399495123,0.6818321812034325,-2.2722465098202145,1.200349740138949,0.4249537756921519,-0.469653633283363,0.7002830054047686
0.5173919200897217,0.3489159547072764,0.6820215498845762,-2.2724207547790294,1.2003904225186472,0.4247901980286845,-0.46973773174020417,0.6999952295705171
0.5221600532531738,0.34757810525432264,0.6802540777740401,-2.2717915341127033,1.2011159523385955,0.42345207235474625,-0.46838178252963636,0.6988854278384442
0.5237650871276855,0.3492302528873497,0.681776768356622,-2.271333126308893,1.203555296644475,0.4228102804903296,-0.46721211497918047,0.6980075082785328
0.525331974029541,0.34965442649882383,0.6814446587305192,-2.2713173879192783,1.2034787837454217,0.4233026667441756,-0.4674953942049884,0.698450322894217
0.526871919631958,0.34942112305056644,0.6814949576568338,-2.2710998165355805,1.2035864078216902,0.4233942460381216,-0.4675641264079745,0.6985802331343124
0.5287580490112305,0.3493491919942275,0.6816924343680958,-2.2709045538177843,1.2045632622261417,0.4240549726147359,-0.4690977971444455,0.6990139247380532
0.530480146408081,0.3494036253322809,0.6819300004443085,-2.2710667775029836,1.2046364874499254,0.42387412330269897,-0.46916512491136625,0.6987675017330474
0.5334501266479492,0.34951170504922663,0.6821944773639412,-2.2712528738297433,1.2053100643578891,0.4241163098768557,-0.4693546242555999,0.6986076945342693
0.536776065826416,0.3494170669299325,0.6822791881125462,-2.27114689930976,1.2053109885604822,0.42418230661531925,-0.4693775009078838,0.6986686449692551
0.5368609428405762,0.3493414342645457,0.6824157938904843,-2.271177488806321,1.2056614851266412,0.4246788856820507,-0.4697120699658258,0.6987771002807682
0.538377046585083,0.34938575694522334,0.6825154609492059,-2.2712532639431124,1.205650291356348,0.42462619751780356,-0.46975798391053536,0.6986887104925577
0.538578987121582,0.3493507515726692,0.6826630955510482,-2.271444973403276,1.2058967881329983,0.4246933400843041,-0.46985855338241606,0.6985085715347338
0.5403621196746826,0.3479514733883058,0.6808143814138178,-2.2705148087877727,1.206653609508815,0.42341934439537915,-0.46844062586644336,0.6975946896612217
0.5419080257415771,0.34844098065251317,0.680636525371064,-2.270701970653736,1.2070220640274318,0.4233077798065789,-0.46834350195667035,0.6973430883930036
0.5434651374816895,0.3492778430561193,0.6816060432695749,-2.270624496546968,1.2081187722174336,0.4232026436135718,-0.4678874870770203,0.6970854354645306
0.5451579093933105,0.3490749911445922,0.6815208414049845,-2.2704510163727423,1.208209567328589,0.423310227224205,-0.467853677287391,0.6972225962637182
0.5466160774230957,0.3491422085580951,0.6815344470471727,-2.2704351433173993,1.2081498438073044,0.42340338061270866,-0.467957542530867,0.6973016654066196
0.5502200126647949,0.34900472025326956,0.6815492518687135,-2.270389347638005,1.2083252787942131,0.42363228810362563,-0.46840921306220346,0.6974461459673263
0.5503649711608887,0.3478088012554311,0.6802887871999675,-2.2693586480869348,1.2089710403261624,0.42243652764361905,-0.46719756052798594,0.6961946240793248
0.5517489910125732,0.3482333596358847,0.6808712354097168,-2.269641290510661,1.2092601289459322,0.4220784634609653,-0.46682292977023343,0.6955480525326629
0.5549170970916748,0.3493317094112401,0.681928791953575,-2.2693383302452017,1.2103611226322795,0.4235084461014729,-0.4652930110802635,0.6958275906228047
0.5580360889434814,0.34899946133078663,0.6820183073966959,-2.269396201520113,1.2105191749727924,0.42329663079373836,-0.46528316261480746,0.6955867045364555
0.5582590103149414,0.3490785990055578,0.6820394527510882,-2.269531874737218,1.2104773529700832,0.42328875042107167,-0.46541137967243373,0.6954942752030036
0.5598671436309814,0.34849797517454933,0.6821003367395041,-2.270100018910128,1.2106007916794872,0.42358304536301716,-0.46615394800955684,0.6951068585810687
0.5599861145019531,0.3468931264461014,0.679980014275545,-2.269930083795518,1.2114664218701838,0.42270566282404054,-0.4645289030607687,0.6939939148640716
0.5657401084899902,0.3486268351043428,0.681360994433711,-2.2698096886720136,1.2137649066270586,0.42295809661323863,-0.4629268083569972,0.6929916920815632
0.5690600872039795,0.34886581342854556,0.681270625226979,-2.269740114560338,1.2135619362337968,0.42342893507801077,-0.46317944777287495,0.6933503740187126
0.5707449913024902,0.34841165805810664,0.6814268634382963,-2.2696909213679666,1.2137416414734878,0.4242053392681857,-0.46390288702003063,0.6935937090610536
0.5723509788513184,0.34833571487987575,0.6813863013980187,-2.2698704164796006,1.2139919343637526,0.42410375143835777,-0.4638758271968576,0.6933787704058464
0.5724680423736572,0.34816451988025315,0.6819482570659046,-2.2701760867900984,1.2145126430220399,0.4245139747678109,-0.4642250750506547,0.6930685538849934
0.5740220546722412,0.34826836047300097,0.6818615571582095,-2.2702113019604644,1.214519571320192,0.4246754622435114,-0.46427423373500104,0.6931556137867126
0.5756509304046631,0.3481686725802588,0.6821482631695924,-2.270246169742105,1.2147238738106225,0.4252551337122923,-0.46454145351712156,0.6932428900184009
0.5773239135742188,0.34808990411530133,0.6821135902044734,-2.2703083158319193,1.2148532878319602,0.42520744789056214,-0.4645069746902168,0.6931534348453559
0.5788669586181641,0.34800348171717915,0.6823276760496702,-2.270535071424972,1.215096445793976,0.42530099886665085,-0.46462285746840215,0.6929258193558712
0.5806620121002197,0.34807068097248756,0.6823280643016896,-2.270516908499947,1.2150493786548224,0.42542522765601437,-0.4646699786348601,0.693011903348114
0.5822250843048096,0.34799879383455695,0.6824279072244133,-2.270517489951737,1.2151498472503026,0.42568861312600487,-0.4647558337911358,0.6930688600002136
0.5838210582733154,0.3479751886536896,0.6824311584473041,-2.270579400271466,1.2152169189237392,0.42566021064244647,-0.46475352380896817,0.6929998754030138
0.5854611396789551,0.3478322989489104,0.6827322719540344,-2.2707429233264524,1.2154754500972944,0.4260342607476529,-0.4649422177774357,0.6929149134078273
0.5870480537414551,0.347873247747516,0.6826946013143392,-2.2707782115047883,1.2154856770120892,0.42605712306206,-0.4649511012703024,0.6929186954201619
0.5888221263885498,0.34781615218974554,0.6828037843850125,-2.270876707896045,1.2156174510798285,0.42627968130538374,-0.4650371011930371,0.6929246890710812
0.590440034866333,0.34780153354220195,0.6828233887078152,-2.2708842104895948,1.2156254882502193,0.4262618696910594,-0.46503634585423603,0.6929051634378213
0.5920591354370117,0.3477919737564862,0.6828355689026825,-2.2709169806379097,1.2156546703619466,0.42627066925260204,-0.4650430030352955,0.6928936478120592
0.5936739444732666,0.3477980384693266,0.6828419321062408,-2.27091659692202,1.2156476783261518,0.42627818255801186,-0.46504838184741326,0.6928996096124246
0.5952589511871338,0.34779310726395957,0.6828414159686803,-2.2709149163746982,1.2156514115836816,0.4262834385842467,-0.46504761699952296,0.6929039130536151
0.5978710651397705,0.3477726577586086,0.682882646920397,-2.2709550967771657,1.2156870204719332,0.42634117923754705,-0.465070315075008,0.6929305724109304
0.599890947341919,0.3477730300101865,0.6828855963003634,-2.2709661712303624,1.2156919901621226,0.42633318681305665,-0.465070658703349,0.6929218073456137
0.603018045425415,0.34774866210014543,0.6829316948895162,-2.271018801174601,1.2157191589519958,0.42635711214125543,-0.465081946899312,0.6929633116983641
0.603079080581665,0.34774836060584824,0.682925168641523,-2.2710222963232103,1.2157241117940767,0.4263573432614197,-0.4650799535403147,0.6929638629672865
0.6094739437103271,0.34774267472345183,0.6829334323456019,-2.2710436025765066,1.2157296357017162,0.4263462949942965,-0.46507673480221007,0.6929784881685919
0.6095421314239502,0.34774396887459375,0.6829342966212347,-2.2710422706527105,1.2157267430312895,0.4263502329147333,-0.4650776544956052,0.6929851941105102
0.6114640235900879,0.34770678875848465,0.6829818287997792,-2.2711763926586808,1.2157501802908541,0.42631202598841694,-0.4650537981717657,0.6931589096283365
0.6131191253662109,0.34770028470833414,0.6829925697434207,-2.271174881558676,1.2157486807399218,0.42630486756554276,-0.4650534600052534,0.693155259354885
0.6146349906921387,0.3477015930187948,0.6829920314387432,-2.2711797978456802,1.2157500827908585,0.4263019990857362,-0.46505325989600943,0.6931541325416011
0.616365909576416,0.34769208012999037,0.6830104033432955,-2.271211780434852,1.2157500084161303,0.4262817153783908,-0.4650472990014882,0.6931914122827518
0.6180469989776611,0.34769023192687365,0.6830048384310765,-2.2712119941887905,1.2157537193548966,0.426283584956911,-0.4650450956627251,0.6931944005405646
0.6197550296783447,0.34768625914918544,0.6830076069474142,-2.2712184548287317,1.2157536592702964,0.426285083570044,-0.46504205190513526,0.6932171653361323
0.6215550899505615,0.3436162272024305,0.6695690212007221,-2.2614021799195285,1.221222260906158,0.41615166833335104,-0.4606946783750138,0.6770471799640473
0.6247611045837402,0.3493515499049497,0.6734576579673661,-2.258099159564352,1.2239016625883798,0.4186716151015656,-0.45341061977960034,0.6738526268443237
0.6248250007629395,0.34825865900860636,0.6793159384743567,-2.2601781828816003,1.2333204393370774,0.4259195277413213,-0.4613769697219898,0.6726913036467533
0.6264979839324951,0.3483234353936404,0.679474254220767,-2.2606385120589465,1.2333394040053347,0.4271306208464563,-0.4607701203950015,0.6726039544846181
0.6304819583892822,0.34808215472391324,0.679544818995972,-2.2606071623718975,1.2334436888893814,0.42707733447539936,-0.4606665053678101,0.672498610785264
0.6305460929870605,0.3481096715730327,0.679643873116191,-2.2607795677861007,1.233417559820281,0.4271295944708723,-0.46068634081093024,0.6723647269214941
0.6325230598449707,0.34730938229044805,0.6802240197818386,-2.2618501014779318,1.2333887396503749,0.42889829590019224,-0.4603306898699697,0.6717413085331496
0.6356301307678223,0.3473125446218247,0.6804349380033563,-2.2619293090571655,1.2337643965714664,0.42898567687012457,-0.46061618566495627,0.6716802250591062
0.6357231140136719,0.34728996878847546,0.6804461991560201,-2.2618749664211073,1.233759703071191,0.42904847797162843,-0.4606268852044694,0.6717399969230968
0.6371710300445557,0.34727471404578353,0.6805123313423951,-2.2619355369038923,1.2339210999585937,0.42921298431374044,-0.4607412727320449,0.6717563044600827
0.6389870643615723,0.3472750730977835,0.6805504494199934,-2.26193773177291,1.2339086322430306,0.4292041710875771,-0.46075316116093973,0.6717441535780105
0.640800952911377,0.34597276798414067,0.6788294350036777,-2.2618262064089576,1.2346023933309003,0.4278989887087726,-0.4594358343055829,0.6699364639730759
0.6426799297332764,0.3462053053800814,0.6793157217452426,-2.2619397688164065,1.234771854757318,0.42756246827181615,-0.4593284108071972,0.6695450779635608
0.6442010402679443,0.347363663208744,0.6801543081679824,-2.261620043980326,1.2361914683424449,0.42815197470282046,-0.45855909622380187,0.6697482678895258
0.645820140838623,0.3471380148313578,0.6802377519197954,-2.2615444303381165,1.2362420774175853,0.4280815814654813,-0.45857424071198916,0.6696989453435184
0.6475980281829834,0.34713360694753,0.6802647727936378,-2.2616490207014883,1.2362201034073614,0.4280738680582771,-0.4587605979713564,0.6696401015687174
0.6540000438690186,0.3458237825659854,0.6785331269584255,-2.2615709259064434,1.2369190579681852,0.4267608740951183,-0.4574344059789854,0.6678481959039986
0.654062032699585,0.3460195522740843,0.6790508337069358,-2.2617492802792594,1.2372258081213463,0.4265159959160001,-0.4573949108692661,0.6674600851626841
0.6575019359588623,0.34690572170744643,0.6799089042766575,-2.261581073558501,1.2388039316318322,0.4275540791524212,-0.4572575499253543,0.6677212708697142
0.6575629711151123,0.3466381701233328,0.6800440294611714,-2.2615226605410474,1.23890885365447,0.4274502403942072,-0.45726396096593763,0.6676134384446704
0.659804105758667,0.345231115040051,0.678184661635092,-2.2618464154388866,1.2396569133530797,0.4260400059711093,-0.4558415811390216,0.6656506695052579
0.6614830493927002,0.3464178476420866,0.6783964681643654,-2.2617847161513227,1.2412625111330495,0.42503365315893415,-0.4566328010654164,0.6650388922620724
0.6630189418792725,0.34645079830840675,0.6781444265758835,-2.2614078918746388,1.2413366900297553,0.42549052181626046,-0.45671418332140556,0.665586020992988
0.6645770072937012,0.34662373627136384,0.6785350190285037,-2.2609478126014833,1.2420128541826907,0.4253960333832173,-0.45745034341522023,0.6658904185742561
0.6661310195922852,0.3467670345672292,0.6784539338065332,-2.261062079319351,1.2420667754056547,0.4253975480871688,-0.45750791805304436,0.6658609508513023
0.6694209575653076,0.34688943495382424,0.6786870959654323,-2.261105856105341,1.2426327119559397,0.4252410092058388,-0.45800134604839304,0.6657667843796515
0.6695139408111572,0.3458032334225789,0.6779913259651587,-2.2602674628984047,1.2432094074675817,0.42415321354105334,-0.4569039030338235,0.6647046766648919
0.6710000038146973,0.34610084637895483,0.6783009589507989,-2.260625918655516,1.243503561870216,0.42415525649210795,-0.45661334159823763,0.664076599993701
0.6727190017700195,0.3460024345078749,0.6793012369552934,-2.2610195979743506,1.2437568282139313,0.42638559122666386,-0.4557395857016687,0.664046503741827
0.6743209362030029,0.3457426725311137,0.679274584835312,-2.261186809927744,1.2440371162173118,0.4261719763630606,-0.45568559564205363,0.6636959060092211
0.6758630275726318,0.3454538985975182,0.6794485807583501,-2.2618512471052687,1.244235877257577,0.42642245417064484,-0.4560474074299828,0.66311247986409
0.6774740219116211,0.3454663647644672,0.6795755730875881,-2.2617149455683867,1.244090128696492,0.42669831693707194,-0.4561233513682585,0.6633034450540595
0.6806819438934326,0.34412670197297746,0.6778049063686541,-2.2620231198170346,1.244800313809654,0.4255638318777445,-0.454769513154605,0.6618613361446368
0.6807479858398438,0.34571237097958185,0.6788778943437465,-2.2619833477217193,1.247041657717763,0.4256230073157754,-0.45417776431909374,0.6610484413083212
0.6822681427001953,0.34582116906531996,0.6788047420845919,-2.2617332576864135,1.2469942101965632,0.42619089725234277,-0.4543904635858179,0.6615319216663268
0.6838889122009277,0.34546526481824985,0.6800025953775142,-2.262116768922621,1.2486910483653992,0.4271742557879851,-0.4561355272194942,0.6612689321219515
0.6855731010437012,0.34545296306252554,0.6798017467740671,-2.262118888856298,1.2488354125922592,0.42733114340146716,-0.4560725520494438,0.6613608271325246
0.6870880126953125,0.34550602835129723,0.6798812130203779,-2.262111116700649,1.2488083372055871,0.4274526389292398,-0.45610434951467077,0.6614055176301729
0.6888010501861572,0.3454416012797331,0.6804989184473645,-2.2624756116041063,1.2495404435400121,0.4285356930579668,-0.45614025758138566,0.6612471282530499
0.690464973449707,0.3442961155501002,0.678984123917303,-2.262185158902977,1.250145873913062,0.4273873770072979,-0.4549824113594638,0.6599554703447341
0.6920521259307861,0.34443435609293016,0.6794013612312358,-2.262378780514206,1.250326152962688,0.4270827489529673,-0.4550122372659769,0.6595808012742447
0.6969220638275146,0.3450344683404426,0.6799659601377231,-2.2623738381075817,1.2516013322359247,0.4274851626341617,-0.45499172990989634,0.6595778377390388
0.7002749443054199,0.3448580368043801,0.6802918355923786,-2.262262214083546,1.2517116062461398,0.427808767129862,-0.4554627769375871,0.6597041185505527
0.7018110752105713,0.34337816020274325,0.6783350655315075,-2.2626025711219095,1.252493034932497,0.4265940389544861,-0.4539669225413932,0.6580500571451167
0.7033889293670654,0.34450246943212987,0.6792905078065252,-2.262735099597899,1.254573690957862,0.42723036810970355,-0.45338291549631915,0.657395067705466
0.7049810886383057,0.34465592738683265,0.6794470964785772,-2.2626844218037143,1.2543971494131316,0.4275223754484064,-0.4535933569852038,0.6575769979333224
0.7050521373748779,0.3443074749502014,0.6797866372503754,-2.262803919596833,1.2549888471553743,0.42876163173521276,-0.4543306058114931,0.657815960373704
0.7065699100494385,0.344147331884923,0.6799658310936034,-2.2629805275202353,1.2552248595542108,0.4285812170541385,-0.45433072804119884,0.6574991456661374
0.7083020210266113,0.3438946331733396,0.6808393252001097,-2.2637899378867,1.256683844386914,0.43026574609758056,-0.45511761477832136,0.6571571831077476
0.7099509239196777,0.34249750587899896,0.6789917986426401,-2.2641105528325736,1.2574199099287091,0.42894645181410024,-0.45370633550840833,0.6558421729026934
0.7114579677581787,0.34406223641440326,0.6795894103968088,-2.2637158765729333,1.2595843219380412,0.4285255588168351,-0.4534506270191721,0.6556534478826159
0.7130119800567627,0.3442503836784325,0.6796992790687924,-2.263577089066763,1.2594511736319978,0.42873570566067265,-0.45366263925280803,0.6558936419095548
0.7161149978637695,0.3443552973721648,0.6797901032706175,-2.2631969277972703,1.2601133634061348,0.4290268325775853,-0.45438075823338203,0.6563529882407517
0.717872142791748,0.3442601296783807,0.6799024321368902,-2.263268721703758,1.2602878549795096,0.4288357798978302,-0.4544077307340069,0.6561594582235023
0.7179450988769531,0.34439020282763283,0.680084052731269,-2.263326496042215,1.2609826904692851,0.42893773815229475,-0.45493567776934835,0.656158764654523
0.7195401191711426,0.3430209191494721,0.6782730841055747,-2.26364046840403,1.2617025646450648,0.42802290518989133,-0.45355234479796047,0.6550070763209178
0.7210991382598877,0.34491224338544313,0.6792956072427977,-2.263532254197923,1.2639398982267498,0.42769394254423676,-0.4532269652664301,0.6542578089616246
0.722681999206543,0.34477849702956664,0.6790461030639371,-2.2632072528382237,1.2641343773218185,0.4281162913025392,-0.45323509093399195,0.654691635804541
0.7241849899291992,0.3448572349990273,0.6794970268198331,-2.2628686405926306,1.2646954053131791,0.4287006569995921,-0.4539957669165474,0.6551206811320148
0.7257380485534668,0.3450365793530157,0.6794838684444342,-2.2630805005858816,1.2648904693577574,0.42857983498764013,-0.4541106340635316,0.6548783899358951
0.7273910045623779,0.3449230418060429,0.6800209772728033,-2.263214430026367,1.2655736209925197,0.4288000112785766,-0.45469779170038255,0.6546995735826955
0.7291231155395508,0.34490147589683423,0.6798954044336868,-2.2631932283132854,1.2656725903241848,0.42892700459979455,-0.454685896706441,0.6547867952577204
0.7312679290771484,0.34480041755850266,0.6801501128875189,-2.263131016206568,1.2659778700648883,0.4294412047205972,-0.4549734585447953,0.65493994328044
0.7327649593353271,0.34489019203272475,0.6801853269323338,-2.26326751564114,1.2659963440466802,0.42939536357972447,-0.4550249133045942,0.6548371001961835
0.7342691421508789,0.3448287145087444,0.6801979033824742,-2.2632719607827356,1.2660576476635113,0.42938286188613234,-0.4550145094577492,0.6548032922169628
0.7389991283416748,0.34475367001234813,0.6804202533457131,-2.263476693237007,1.2663623035793834,0.42959334956524303,-0.45520785101090283,0.6546435880364965
0.7409319877624512,0.3433788749604622,0.6786020191935188,-2.2637923486155143,1.267082166268756,0.4289048485105531,-0.4538183362053042,0.6536196990658732
0.7425339221954346,0.343989231975317,0.678008004271695,-2.2639679762957936,1.2673697332837375,0.4289944626115101,-0.45401849753407836,0.6534652843454363
0.7440791130065918,0.344111728130351,0.6782681145743034,-2.2640752436291502,1.2674748234543236,0.42882107626480154,-0.4541194468020985,0.6532744134559847
0.7456150054931641,0.34454259946808236,0.6786945875065348,-2.264003326782919,1.2687109617131118,0.4289416178931647,-0.4545205528995879,0.6533037216812212
0.748769998550415,0.344429335904092,0.678800325122852,-2.263881190401661,1.2686948788832384,0.42897556259532577,-0.4545604048755964,0.6533554494211719
0.7488489151000977,0.3442523289922647,0.6788743214625551,-2.263833441499839,1.2690576760048329,0.4294004711008703,-0.4551397829188379,0.6535506523076028
0.7505850791931152,0.3433341064182396,0.6776600781625196,-2.264044124072551,1.2695392285292755,0.42854326792941,-0.4542116017812005,0.6525427956352188
0.7522170543670654,0.3435003906239294,0.6779201648287981,-2.26421858930137,1.2695356821604442,0.42838612415544763,-0.45426192324410497,0.6522080037479517
0.7552671432495117,0.34346905528036653,0.6782684720236125,-2.264853167669784,1.2699896164455304,0.4287706755118418,-0.4540575227775084,0.6516739500061525
0.7553501129150391,0.3432708180422779,0.6783096886957064,-2.2646606169413563,1.2700002125145247,0.42892874339829945,-0.4540169473007965,0.6518085308015517
0.7569739818572998,0.34334746802793337,0.6783295597718741,-2.2646994759798784,1.269952228309872,0.42904956862808297,-0.454069350745966,0.6518487180779997
0.7603380680084229,0.3430450267742829,0.6786778652425215,-2.264955450923536,1.2701558808207274,0.4299733463820467,-0.4542281891697727,0.6518191752962158
0.7618489265441895,0.34299940608850954,0.6786994237003859,-2.2650867294438184,1.2702796845954574,0.4298906947599613,-0.4542148436363322,0.651658250928405
0.7619190216064453,0.3412314790517373,0.6763609664147152,-2.265491873931527,1.2712037421353855,0.429057131289995,-0.4524276062152536,0.6500045339488528
0.7652630805969238,0.3420959473135728,0.6749293702841942,-2.265740192382856,1.2717698126688994,0.42952919992223487,-0.4528917723259647,0.6498879993419369
0.7653429508209229,0.34326633771390447,0.676427839983947,-2.265211634911913,1.273688205196017,0.42812507432727004,-0.4530694511919262,0.6489295481730031
0.7666809558868408,0.34380710580497065,0.6759220486509475,-2.265327191662886,1.2737518508477728,0.42863489821617007,-0.4533325086366234,0.6494628391078952
0.7683830261230469,0.34368434121832586,0.6761611320497929,-2.2649405891324226,1.2739286856223395,0.4287797124353505,-0.45343397972150085,0.6497040896217949
0.7715461254119873,0.3444600955615776,0.6767685129459838,-2.26454475725418,1.2761769909141232,0.4291808432520572,-0.45462320845128634,0.6501578363982551
0.7716200351715088,0.3444918753649044,0.6770186943319081,-2.264531575800194,1.2760213794255753,0.42912471143331676,-0.45479311934016725,0.6500945875698154
0.7731311321258545,0.34420053613664425,0.6773737520808824,-2.264790244024435,1.2766754807493546,0.42936304808090037,-0.45568097917572753,0.6498981332814862
0.7747020721435547,0.3441982223912453,0.6773008357368333,-2.264723357109628,1.2767446561836537,0.4295329486360215,-0.45566669200639204,0.6500258612487818
0.7761979103088379,0.3441958805895814,0.6776316326718962,-2.264691488263935,1.2770225297038462,0.42988729526762093,-0.45576506326569427,0.6500650200893613
0.7809739112854004,0.3442518725837661,0.67760764723506,-2.26477607997164,1.277051910053594,0.429894422909291,-0.4557950240545812,0.6500274708808511
0.7826080322265625,0.34415025081198164,0.6778114335285715,-2.2649762781084735,1.277284416572284,0.43004861864475113,-0.45600234008929313,0.6498565074092973
0.7841870784759521,0.3441096026014417,0.6777766550944504,-2.264922915381564,1.2773138536758835,0.43012762779446295,-0.4559877112126381,0.649922218103806
0.7857639789581299,0.34409417649201307,0.6778632463831405,-2.2649086848749738,1.2773690294167992,0.43033052588799353,-0.45605007512748885,0.6499811758933752
0.7874259948730469,0.3441172658982477,0.677878190223627,-2.264970582442472,1.277391188864303,0.43030880996835263,-0.456066686179011,0.64992784407815
0.7905580997467041,0.3440544986642713,0.6779978835180701,-2.265052988175887,1.2775126919649635,0.4304148785091216,-0.45613823832819966,0.6498509769400758
0.7921841144561768,0.344053577252644,0.6779727044472535,-2.265045677989304,1.2775260276891667,0.4304558524559437,-0.4561378286645873,0.6498781764886042
0.7922549247741699,0.34402035978011447,0.678031620356453,-2.2650506935083436,1.2775678483572066,0.4305583925893305,-0.4561763998506144,0.6498870063099927
0.793755054473877,0.3440361020792446,0.6780331737752855,-2.265073262851959,1.277571723167631,0.4305576157517994,-0.4561844874328939,0.6498739020334193
0.7967169284820557,0.3440156747768648,0.6780825192359378,-2.2651233495746386,1.2776256512801947,0.4305922162876621,-0.4562134424234641,0.6498269427148408
0.7968080043792725,0.34400458573178044,0.6780749953629195,-2.265108647769882,1.2776314131621198,0.43061479253616186,-0.45621103816788816,0.649845092542385
0.8000540733337402,0.34399824256865247,0.6780978974126667,-2.265111879993193,1.2776446290205103,0.4306670536306885,-0.4562309099705372,0.6498543729270627
0.8001129627227783,0.3440011083966741,0.6781010293736864,-2.265127186949114,1.2776530849212842,0.4306629796582466,-0.45623414945940644,0.649840601498599
0.8016190528869629,0.3439763267324671,0.6781580807661941,-2.265153804713319,1.2776974487405355,0.4307384088972096,-0.45627067818704026,0.6498238165046614
0.8032689094543457,0.3439750683149868,0.6781486235910019,-2.2651572427089492,1.277705504209894,0.4307409719721897,-0.45626807271831854,0.6498236690187883
0.804764986038208,0.3439675318436904,0.6781650974289037,-2.265174514130071,1.2777277671944247,0.43076594271777674,-0.4562807329761815,0.6498108282561715
0.808074951171875,0.3439677131358132,0.6781679119362949,-2.2651714743534446,1.2777250124531174,0.43077019405326517,-0.45628238701365403,0.6498142211071779
0.8081319332122803,0.3439670973870846,0.6781693848562793,-2.2651730406807054,1.277728969321776,0.4307802766113435,-0.4562855356402148,0.6498154218377743
0.8097150325775146,0.34001907176562207,0.6710639386933821,-2.2664039815158916,1.2805254235091759,0.42677761890050814,-0.45168556821599265,0.6435286263051773
0.8128139972686768,0.3406470882253694,0.673482200607013,-2.266380944080201,1.2824077459731704,0.4303350029086517,-0.4499939957849005,0.6435134144319121
0.8128690719604492,0.340947784742774,0.6737595436710173,-2.266574720955676,1.2823957068616125,0.4301398006170711,-0.45043809052611694,0.642915833124274
0.8144159317016602,0.3402146836123475,0.6738726038713627,-2.267499695961893,1.2832666524394436,0.43089831689556335,-0.4516974341805867,0.6417265461944179
0.8176500797271729,0.33992894824860415,0.6740015925665733,-2.2672147101105793,1.2833037910761282,0.43133385702100335,-0.45170111546517544,0.6419907536807902
0.8177199363708496,0.3393088147850283,0.6750747433144494,-2.268385400649107,1.2847682874942121,0.43434133754174264,-0.4525285052974418,0.6416426740243167
0.8223121166229248,0.33923866250828516,0.6754204259685364,-2.2684151769299126,1.2845983269682064,0.4341393965260091,-0.45268190621593457,0.6413803404485496
0.8239269256591797,0.33910848061145965,0.6759900844592837,-2.2690572864965954,1.2852876269626285,0.43464632154226435,-0.4529775155505261,0.6408649795963758
0.8255190849304199,0.3389306597243774,0.6759625577011603,-2.2688606736418975,1.2853342320656211,0.43483762286391675,-0.45294012829403474,0.6410394673660802
0.8270690441131592,0.3390123607624739,0.6759950043306465,-2.2688861643235505,1.2852848627131337,0.4349340426656839,-0.45300412029904813,0.6410812531713278
0.8287520408630371,0.3388430315852376,0.6762727395006474,-2.2689941061293246,1.2855507235553971,0.4356549775221579,-0.45328603964990294,0.6411645052684466
0.8326630592346191,0.33772883587412006,0.6747982300959242,-2.2692481961642876,1.2861287436044122,0.4352391860319045,-0.4521587565121416,0.6404187346420657
0.8341410160064697,0.3382520160372551,0.6746461263594296,-2.2694143220309,1.2863496876212999,0.43526341367067883,-0.4521972121342366,0.6401892946070273
0.8341970443725586,0.33811922116753884,0.6748152409436051,-2.2694538424114183,1.2865995271050472,0.4352075077238659,-0.4520962013809756,0.6400127186618465
0.8358709812164307,0.338451525770755,0.675833572735337,-2.2699065356076242,1.2878682146260827,0.43630724255824727,-0.45195097384891864,0.6397094017737366
0.8374450206756592,0.3379854680255036,0.6758580899365874,-2.2699340602795908,1.2878544510672192,0.4369478618914105,-0.4525187405293154,0.6399089689153592
0.8392360210418701,0.3373641159806148,0.6742104913508278,-2.270217950736795,1.2884998113122859,0.4366624846253388,-0.45125908244853924,0.6390060461679714
0.8412520885467529,0.3393614873561997,0.6757889655478999,-2.2699810508413085,1.2909535197368962,0.43645960774452597,-0.45071385528600794,0.6375412010024567
0.8444271087646484,0.3395525197725302,0.6753399374896142,-2.2698743600810025,1.291109675151546,0.4370234535942493,-0.45080842773681046,0.6380552975844697
0.8445069789886475,0.33943658194652854,0.6758707152737963,-2.2696581085969063,1.2918356220093772,0.43801187758500865,-0.4516318711051585,0.6384865299260543
0.846127986907959,0.33938320187815835,0.6761467039253586,-2.2698560956913756,1.2919933460255597,0.4378058615955214,-0.4517357109752016,0.6381622070872576
0.8477959632873535,0.33929342612017427,0.6770896120768123,-2.270426692962685,1.2935631401473286,0.4392803339313534,-0.4529875040759885,0.6380623673555891
0.8494069576263428,0.3384176562414221,0.6759310934010209,-2.2704782918474358,1.294016040074952,0.43887205827210246,-0.4521024691639462,0.6375958400289243
0.8509750366210938,0.33869618502246124,0.6759576877258616,-2.2707132144412427,1.2943302324649295,0.43870666468999875,-0.45219996212195934,0.6372723108550344
0.8542649745941162,0.33882588175969497,0.6769342843388064,-2.270694224099485,1.2954977600086035,0.4391442403891742,-0.45277532559375194,0.637175368159167
0.854341983795166,0.3387834683484044,0.6767573157917253,-2.2707095346149115,1.2956288805448222,0.4392517727058273,-0.4527587724064833,0.6372368405801241
0.856065034866333,0.3384384769260399,0.6769796019418394,-2.270766067244715,1.2959822704179302,0.4399883226205153,-0.4533967047603829,0.637397764356728
0.8592729568481445,0.3385610056797804,0.6770565643841522,-2.270914754929894,1.2959999588940792,0.4399138935114046,-0.45344443010244534,0.6372550961994237
0.8613040447235107,0.33849900250332327,0.6770625045774519,-2.270919293339091,1.2960781732252387,0.4398974906766151,-0.45341256360697996,0.6372154541561408
0.8613741397857666,0.33836712602684776,0.6750529548107472,-2.2712650268341,1.2968614691519995,0.43940609118973883,-0.4518769383282753,0.6360956920775693
0.8664610385894775,0.3390432027362047,0.6749429898781707,-2.2714574320719616,1.296935294297047,0.4392613786117628,-0.45234427454454695,0.6358437838636836
0.8682529926300049,0.33893141915419345,0.6748981087248191,-2.271429727353841,1.2972991636779945,0.43909004522156586,-0.45235245222824294,0.6357554023955985
0.8715939521789551,0.3383586922237312,0.6744141571974931,-2.2715788208486414,1.2976368414520025,0.4387066420145755,-0.45203020493533147,0.6353081616228229
0.8716740608215332,0.3387281589278714,0.6745098466578838,-2.271780141432871,1.2978497939793068,0.43854641969107894,-0.4522490859770799,0.635005117325113
0.8753111362457275,0.338745131498222,0.6751636018373061,-2.2719446830877934,1.2991688716096716,0.43865743402983265,-0.45296308070216706,0.6347362807648756
0.8754041194915771,0.3387043827382727,0.6751273716248353,-2.2717471096366095,1.2992079195699444,0.43899381020480904,-0.4530497325856473,0.635026263419235
0.8772950172424316,0.3384837525884397,0.6759434027848704,-2.272090772218925,1.3004103901187658,0.43966303050307015,-0.4541022792850975,0.6347890799817937
0.8790040016174316,0.33774309984292783,0.674963693933412,-2.2722593432155804,1.3007927736465101,0.4397543252524026,-0.4533532696079982,0.6345230653468501
0.8805339336395264,0.3381525517392604,0.6748280731714454,-2.272436747959203,1.3009249470750432,0.4398570453562965,-0.453434420429947,0.6342393091032202
0.8820250034332275,0.3377573060158307,0.6758448003616182,-2.2733939373039034,1.301449756929797,0.44089308679611455,-0.45349543914253293,0.633053697405233
0.8836839199066162,0.3375515144038402,0.6755989953366057,-2.2732699751001437,1.3016286974495013,0.4411879860642201,-0.45339049224698275,0.633253135981814
0.8853960037231445,0.33763282122187127,0.6757017145563582,-2.273302389159797,1.3015178254972661,0.44140124429132793,-0.4534913762462421,0.6333246490212254
0.8874900341033936,0.3368879356897155,0.6763831576293197,-2.274026053389469,1.3020054422818228,0.4433968871783163,-0.4538843856330783,0.633167222537641
0.8892209529876709,0.33635153247569644,0.6752036012891494,-2.274227983800926,1.302463555005715,0.44297229647998027,-0.45298255852055513,0.6324536451953928
0.892441987991333,0.33718469873421075,0.6752562901858267,-2.274463878424153,1.3029409157180405,0.4427978639540054,-0.45316686879639456,0.6319925483359294
0.8925139904022217,0.33774632364894747,0.6765292601496042,-2.2743646774650075,1.304830756028517,0.4429225525898873,-0.4532322246937669,0.6316858154692447
0.8959641456604004,0.3376867193561354,0.6763855261806937,-2.274185469907763,1.3049562740959417,0.4432968896148413,-0.4533315943931276,0.6320025450579891
0.8962829113006592,0.33728314651092317,0.6773092938768306,-2.274272287867096,1.3061472524334978,0.44412433758138137,-0.4547440894032613,0.6320119600820335
0.8977200984954834,0.3374811605952117,0.6771790541805774,-2.274387995736025,1.3062112358603277,0.4442156646931019,-0.45477945540379616,0.6320056553653903
0.8993830680847168,0.33690333141533985,0.6762786065006973,-2.2745419674309177,1.306560050671402,0.44421835751810895,-0.45413540642674505,0.631735142438343
0.9009919166564941,0.3373755946198373,0.676265855315304,-2.2747620724121536,1.306888274080575,0.44424723354701096,-0.45419408672027106,0.6313825553783144
0.9025530815124512,0.337286964041574,0.677619943881905,-2.275401008562629,1.308093605051307,0.44510938620324236,-0.4542443501224128,0.6306843429754024
0.904094934463501,0.3371588619396921,0.6773918145795188,-2.275293649067508,1.3082445159359881,0.44544935412444386,-0.45421825379040803,0.6309194621093317
0.905756950378418,0.33676932794034425,0.6778679331611828,-2.2753669765367595,1.3084985670825202,0.44653018133086575,-0.45474386398788524,0.6311022496544147
0.9108569622039795,0.33696359432342643,0.6778812407053671,-2.2755748429254927,1.308634144240188,0.44646691345433015,-0.4548345714384732,0.6308397607290265
0.912621021270752,0.33669784228110483,0.678349055744924,-2.2759628341209117,1.3090987534025957,0.44685130607036533,-0.4550569425004758,0.6304751462143504
0.9158499240875244,0.3366661438327635,0.6782651168240943,-2.275902005987875,1.3091549431373997,0.44707818619830836,-0.45505932293154144,0.6306219879037346
0.9159619808197021,0.33635840643898235,0.6788214016456677,-2.2760862134184645,1.3095524319604595,0.4478622449967155,-0.45537004538286546,0.6305412644973841
0.9174680709838867,0.33646602611691745,0.6787665804824116,-2.2761984442410137,1.3095828510537242,0.4478874478134132,-0.45540327364550637,0.6305049006762284
0.9195749759674072,0.3364140111246298,0.6787869488222396,-2.2762268209133256,1.3096491413888562,0.44789132084396266,-0.45540176983202024,0.6304582022623927
0.921273946762085,0.3362055723321406,0.6777923394895603,-2.2763969288013137,1.3100340649816777,0.4477898120793492,-0.4550163018405868,0.6302681627636163
0.9228301048278809,0.3365119724909189,0.6778343957840247,-2.2765907304694903,1.3102366809282524,0.4475846036386852,-0.45520705041472354,0.6300613278715872
0.9244570732116699,0.33681648212357634,0.6783563713972037,-2.276220135331656,1.311523176395808,0.44714885910929536,-0.45610311669155784,0.6301279085512741
0.9277400970458984,0.3368340844264743,0.6782023223115093,-2.2761521382881935,1.3115974876621546,0.447314684044137,-0.4561336796757723,0.6302949718444225
0.9279060363769531,0.3367855364156591,0.6783304463973459,-2.275960439151041,1.3118494437247434,0.44747124777289854,-0.4565161528974308,0.6304860203102307
0.929887056350708,0.3366418301643362,0.6772144324850327,-2.276150802891039,1.3122816486596816,0.44739331300694096,-0.4561710208829498,0.6301544684009749
0.9314970970153809,0.3368815019523039,0.6772349852153272,-2.276307817751922,1.312232119305531,0.44724813550840653,-0.45639805734157035,0.6299125400312457
0.9330320358276367,0.33672027257359183,0.6771519556679799,-2.276367757302168,1.3123634673258355,0.4471753570145608,-0.4564180135358717,0.6298173595430101
0.9345879554748535,0.3362758000635116,0.6771075057858427,-2.2767143209774203,1.312435346034249,0.4471465456798523,-0.45713099251513906,0.6295640822585652
0.9362390041351318,0.33638154410958065,0.6771115826316715,-2.2766832832057715,1.312381055880129,0.4472878025252215,-0.4571688546012374,0.62967717457555
0.93790602684021,0.3364085946948088,0.677247919969381,-2.276584769580822,1.3125140720045403,0.44754614379111307,-0.4571673464286256,0.6297932125714754
0.9395360946655273,0.33639060195011844,0.6764322470240295,-2.276726885848006,1.312834579626123,0.44752622976803186,-0.45711083318193746,0.6296085985307586
0.9414989948272705,0.33647217908092825,0.6765262526892996,-2.2769268766076816,1.3128299190726815,0.44735921461131806,-0.457387178397744,0.6293400581994583
0.9445450305938721,0.33597043292818113,0.676413991097245,-2.2773350156817678,1.3131562450072662,0.4474908819687423,-0.45826608704470057,0.6291208052941686
0.9446251392364502,0.33588536055093504,0.6765108027771574,-2.2771970257352088,1.3131510503709618,0.44759120934467145,-0.45827994723066634,0.6292119042360762
0.9461910724639893,0.3358915097691587,0.6766926353290628,-2.2772095705699607,1.3135352541090435,0.44806951453430927,-0.4584624844424209,0.6293189469567738
0.9477810859680176,0.3359224432325243,0.6767921047838724,-2.2772703731176,1.313517094378608,0.44803140895771193,-0.4585169776664026,0.6292447465073169
0.9494969844818115,0.33618226441168986,0.6749287154179197,-2.2775881331682983,1.3142358441669366,0.44844457233813756,-0.45748774303653533,0.6288653459458271
0.9543609619140625,0.3365110082881814,0.6749194981548972,-2.2778334156422066,1.3144224618039602,0.448050367286185,-0.4579587373538574,0.6283171661339868
0.956092119216919,0.33593976738045617,0.6748732371291509,-2.2781224103500572,1.3150684156263102,0.4480273958277692,-0.45925305949402423,0.628138193303663
0.9593551158905029,0.33590602416613285,0.6749631811527752,-2.2779328680282434,1.3150845830448241,0.4482357124736917,-0.45931498383507546,0.6283307532337425
0.9594149589538574,0.3354811365521932,0.6751454372341016,-2.2780366616536125,1.3151554005873527,0.4480547298941092,-0.45940475976663747,0.628026046334202
0.9624969959259033,0.3345786657402662,0.6748630040924324,-2.278945487426572,1.315253551145047,0.4488473260802497,-0.4605028635286395,0.6273275357053161
0.9625530242919922,0.33462216616334267,0.675126233359907,-2.2788451910946503,1.3150807766007981,0.44897038928525307,-0.46056980541764037,0.6273974366514168
0.965644121170044,0.33469184893925963,0.6756763371012684,-2.278966677275143,1.3154719276736704,0.45017816955708395,-0.46041344082765545,0.6275317529044181
0.9657111167907715,0.3344809978878409,0.675711619177892,-2.279025807763221,1.3156359323958078,0.45003999905305425,-0.4603701671424193,0.6273456374670394
0.9671750068664551,0.3345460648810354,0.6757541349282568,-2.2791330348022556,1.3156194367818992,0.4500412518854581,-0.4604358609377842,0.6272805792192577
0.9688191413879395,0.33425982366585716,0.6759910419357531,-2.2795406077282663,1.3158804352434441,0.450356296519003,-0.4607451245304692,0.6269652642946622
0.9706830978393555,0.334198788812769,0.6759715539232815,-2.279435175473307,1.3159026795544193,0.45050065175892345,-0.4607226178961837,0.6270830644248789
0.9739630222320557,0.3341930091708306,0.6761667925490107,-2.2794782935263087,1.316047506380787,0.45087850829665294,-0.46078826009738266,0.6271168873669893
0.9740231037139893,0.33418991874183557,0.676197272280645,-2.279564244635484,1.316096841150966,0.45084248236596614,-0.46080843814347483,0.627024773946893
0.9758789539337158,0.33404640695628335,0.6764134023033463,-2.279673762402086,1.3162821470652635,0.4512719257244107,-0.461001982153356,0.6269935100607266
0.9775590896606445,0.33403771768697854,0.6763960141735965,-2.2797131573185343,1.3163328610540082,0.45125188701676244,-0.4609900517121397,0.6269512376217847
0.9810049533843994,0.33401932385679206,0.6764737777661837,-2.2797515658488368,1.3163978012792295,0.4512823286027528,-0.46100262894590593,0.6268896064938334
0.9825940132141113,0.3340406060190017,0.6764683486163563,-2.2797563383882298,1.3163900437556746,0.4513096025465117,-0.461013656017844,0.6269050151778015
0.9842140674591064,0.3340273400658492,0.6764702487064032,-2.2797471788737957,1.316397109334293,0.45132180925757626,-0.4610126058024911,0.6269103444272025
0.9857680797576904,0.33399977798196034,0.6765281483151345,-2.27977298822995,1.3164620975667671,0.451464452264116,-0.4610687780650991,0.6268999166494167
0.9877090454101562,0.33399914693305055,0.6765420118027567,-2.2797885115615433,1.3164689324593528,0.4514506212393287,-0.461072810171538,0.626876271981153
0.9877760410308838,0.3339931166795136,0.676563518799807,-2.2798117980749106,1.3165110008485787,0.45150983295195335,-0.46109618129101565,0.6268504285547437
0.9897260665893555,0.33398445144280303,0.6765701144702522,-2.279804604507297,1.3165108861112567,0.4515103332302788,-0.46109560230780494,0.6268505231031695
0.9913589954376221,0.33397678329271097,0.6765812335812298,-2.279801276287561,1.3165233934370044,0.4515494503497822,-0.4611112251393992,0.6268437684701338
0.9929909706115723,0.33398030614882723,0.6765831146614353,-2.2798078914236766,1.3165252103312604,0.45154651394022693,-0.4611132088461881,0.6268363607592878
0.9978139400482178,0.3339775637982352,0.6765886451880457,-2.279809549297326,1.3165332580824811,0.45155245901221575,-0.46111651372903245,0.6268239158786334
0.9994649887084961,0.33397723229892823,0.6765868276982417,-2.2798070105473,1.316533994119251,0.45155786937597775,-0.4611169212055923,0.6268261150976662
1.0014259815216064,0.3339724755467853,0.6765977394665581,-2.279800856119899,1.3165459581549908,0.4515838833307081,-0.4611293919186933,0.626802222674185
1.0031089782714844,0.3339759113988034,0.676595282331588,-2.2798027300288966,1.3165459863443785,0.45158582171897893,-0.4611302742833235,0.6268023158702565
1.006417989730835,0.3339783600910293,0.6765928563641074,-2.2797929532213996,1.3165473504976812,0.45159967516367705,-0.4611350459486537,0.6267917276329673
1.0078949928283691,0.33397685875539335,0.6765939862930247,-2.2797931278733183,1.3165486034273395,0.4515974886236495,-0.4611348692709293,0.6267879190379478
1.0082449913024902,0.3339795199726366,0.6765902704074165,-2.2797885441821366,1.316551141672217,0.4516023490126239,-0.4611376976952678,0.6267738713574709
1.0100281238555908,0.3339800282515037,0.6765920151603291,-2.27978663937183,1.3165490996389086,0.451603537067824,-0.4611386341822708,0.6267742729234432
1.01475191116333,0.33398280220332044,0.6765886932839199,-2.279779088891372,1.3165478757460325,0.4516110053520256,-0.461140797318254,0.6267693401501077
1.0148179531097412,0.33398114145800056,0.6765890012471619,-2.2797787727207264,1.3165491904342765,0.45160943093538947,-0.46114028008084856,0.6267666799211011
1.0165729522705078,0.3339830957201106,0.6765873554337324,-2.2797765356470494,1.316550098198122,0.45161018122829694,-0.4611418009160241,0.6267571697802882
1.0166311264038086,0.33398386070933844,0.6765875134584639,-2.2797741119909665,1.3165484729533998,0.4516125060730191,-0.46114253599897087,0.6267580115953388
1.0197830200195312,0.33399515391318535,0.676573456180836,-2.2797511025184063,1.3165486949513971,0.45162902292302226,-0.46115030076864594,0.6267202389243927
1.0198819637298584,0.333991955288642,0.6765763898462197,-2.2797474976388465,1.3165477773085579,0.4516284697138379,-0.46114999993383793,0.6267198925392167
1.021630048751831,0.33503883214576946,0.6698854709162798,-2.280885278911286,1.31554590660883,0.4475702163302527,-0.4619696389916025,0.6187566720776103
1.023298978805542,0.33383119464584887,0.6704575506849071,-2.2789862141505672,1.314917101170903,0.4480907086165129,-0.4610670247841603,0.6193412316323698
1.0267231464385986,0.33003881749196573,0.6704974410639686,-2.280055381147854,1.3128831757260606,0.4512581500621554,-0.46172781626899095,0.616902559210913
1.0284650325775146,0.33088569286895914,0.6699735443600868,-2.280293620598732,1.3124283615085135,0.4520391613105518,-0.4623232104980375,0.6166883233223643
1.028536081314087,0.3310083650628555,0.6700344310052143,-2.2806319294987425,1.3131073621751734,0.45221506813975204,-0.46184873745453814,0.615886462160763
1.0317320823669434,0.33181141164624023,0.6695092664107527,-2.280859077221239,1.313618870183835,0.4522083797174861,-0.46189257942859074,0.6150041486231494
1.0332801342010498,0.3312987042059203,0.6706536184857248,-2.282196736868021,1.3143356882094828,0.4542466855327304,-0.46187345491647525,0.6126713381969775
1.0333540439605713,0.3308730874803874,0.6707579696437647,-2.281862326543535,1.3143437809777165,0.45457000638685796,-0.46180200941567084,0.6128893221771555
1.0347890853881836,0.3302444428346328,0.6711238476844946,-2.2823304772301594,1.3144425726724063,0.45659849456292534,-0.46210780882675884,0.6130730844874351
1.0428719520568848,0.33034182081465935,0.6714722039722244,-2.2825181690382674,1.3144676843782543,0.45638611581642835,-0.4622282053645502,0.6126262563130532
1.0444679260253906,0.33017061503739453,0.671823257893471,-2.2833350173429676,1.315024196955267,0.4569728957974036,-0.46235559372209795,0.6120400813035178
1.044546127319336,0.32993159214597667,0.6718746856386109,-2.283127936236931,1.315068740427549,0.4571270085934927,-0.4623021274814705,0.6121630352053503
1.0446360111236572,0.32955358382010586,0.6719825066478371,-2.2833321179339996,1.3153318927438347,0.4569122030011338,-0.4622892600019707,0.6115907769671108
1.0461039543151855,0.3290773170701113,0.6719994040115045,-2.284334241255349,1.3155198848950969,0.45816706143496727,-0.46279332390568917,0.6105536734667594
1.0478379726409912,0.3287601292221171,0.6725149874412636,-2.2843925278883406,1.315395366371023,0.45939701337629235,-0.4628747760403731,0.6106986033229442
1.0495150089263916,0.32831038582521055,0.6727465067127567,-2.284584757807922,1.3158333967901132,0.45859112364854876,-0.4626473466404364,0.6096150883786078
1.052659034729004,0.3287436893684098,0.6727012779424906,-2.284718785314584,1.3158348258591785,0.45866615673907124,-0.46277017151806144,0.6094228143240846
1.0527360439300537,0.3285936408906209,0.6726993844428951,-2.2849249550819786,1.3160844239971916,0.45868144308655345,-0.4626785775818546,0.6091804286742312
1.0543689727783203,0.32773154109820035,0.6742153630366179,-2.286125018212774,1.3166927206711903,0.46093072506739774,-0.46261868520172916,0.6083307335270686
1.056149959564209,0.32787159369935437,0.6740208576755097,-2.286236489634054,1.3167571748637215,0.46107187314962916,-0.46265942413506844,0.6083943686113777
1.0579640865325928,0.3277764733404342,0.6740475368800836,-2.286192656635793,1.316808011596987,0.46118075923632496,-0.46271962193277555,0.6084402570183921
1.0595300197601318,0.32859706878397155,0.6724017638187565,-2.286471764638073,1.317443165061124,0.4611073559000357,-0.46212078501871984,0.6072892709905388
1.0611701011657715,0.32843475220538987,0.672748258842338,-2.2866740181891765,1.3174138439065366,0.4608270910006802,-0.46221459525914327,0.6067151250097269
1.0627260208129883,0.32799066809054467,0.6727531106834806,-2.287603537078513,1.317305271417747,0.46171612887375224,-0.46245082982637314,0.6058823254509867
1.064582109451294,0.32775697541324045,0.6727534473262737,-2.287466254505904,1.3173779071743077,0.46183125982136186,-0.4623577064368401,0.6059436089536167
1.0660691261291504,0.3272429019947853,0.673166161742998,-2.2877630300159817,1.317425364901742,0.46338298675193357,-0.4622076304682854,0.6059993930600875
1.0676989555358887,0.327439513601231,0.6733169250246729,-2.2879229882355387,1.3174052608549773,0.4632385468089452,-0.46232352028660684,0.6057190967077525
1.0695009231567383,0.32807139328523793,0.6718010232128603,-2.28817805224161,1.3179891618833475,0.4629038975190367,-0.4617228373901277,0.6049618923461386
1.0711030960083008,0.3294647822432835,0.6727889619602616,-2.2882711525757182,1.3203648718592884,0.4622911771154375,-0.4624694336472577,0.6044927466242165
1.0727100372314453,0.3289775266388067,0.6730199921945961,-2.2877454277169496,1.3204707735911074,0.4623365620491401,-0.46243084951478003,0.6046734646032661
1.0742220878601074,0.3291692400952966,0.6731463850449328,-2.287679196956947,1.3204695217566462,0.4625299273999389,-0.4626813631586669,0.6048516440324787
1.0774331092834473,0.3293399543231246,0.6740752653974552,-2.2872557119815964,1.3229032666837914,0.46333215128229355,-0.464775629963638,0.6053828244409994
1.0775139331817627,0.3292515743125946,0.6742270022383254,-2.287339994686075,1.3229486028671718,0.46322744157913376,-0.4647921475468878,0.6052039090740888
1.0791699886322021,0.3292980554629143,0.67387273281879,-2.2874809640577554,1.323229895682823,0.46336779103361725,-0.4647586861920052,0.6050343836587603
1.0837841033935547,0.3283651109526316,0.674564964670317,-2.288464492654378,1.3235983294131632,0.4645812992369597,-0.46515942334210675,0.6035216703169416
1.0856099128723145,0.3286385844792488,0.6744823070567808,-2.288508120564995,1.3234604017014644,0.4650087510998867,-0.4652570001761221,0.6037786166036173
1.0872399806976318,0.3283510916594474,0.6749328114327525,-2.288531967209254,1.3235246984559255,0.4662618192832023,-0.4652952603629531,0.6040106053430975
1.0890130996704102,0.32817338649859845,0.6748932876726619,-2.2886888141889656,1.3237970669286256,0.4661289433116978,-0.4652166017754601,0.6037477311972094
1.090651035308838,0.32861172851166,0.6747003433868185,-2.28886145345919,1.3239681828755632,0.4661242916984529,-0.4654194729079724,0.6034507631767104
1.0936920642852783,0.32837138616386763,0.6747897985877636,-2.288971594536173,1.324170799523829,0.46605964872227656,-0.4654505889005726,0.603236789965137
1.0938589572906494,0.32748293943113976,0.6756537791373338,-2.2901990126740617,1.3253212054661867,0.4678341476664729,-0.4668031625997308,0.6026009469096939
1.0954821109771729,0.3274873496870663,0.6758510889683947,-2.2900323853954485,1.3252309745491564,0.46797953484711863,-0.46680437422741444,0.6027266614183243
1.0989670753479004,0.3277145914844547,0.6761875626776133,-2.2900037911980418,1.3255869560030569,0.468519265406023,-0.46662614143575004,0.6028211125422875
1.1005349159240723,0.3276172411337863,0.6761843844957437,-2.290028000578924,1.3256761913434907,0.4684785384373345,-0.4666072379655627,0.6027494828173566
1.1006050109863281,0.32764450764537945,0.676216667605893,-2.2900856770825433,1.3256740138852368,0.4684837232259087,-0.4666488422668084,0.6027106732813153
1.1022469997406006,0.32756396417300226,0.675597365696185,-2.2902096764647584,1.3259575644127408,0.46858624685000916,-0.46648353635525613,0.6026101356606501
1.1038470268249512,0.32765252757939684,0.6756781039711272,-2.290429010306864,1.3260022916690901,0.4686049412629637,-0.4665963185170083,0.6023797772257413
1.105436086654663,0.32657066767865794,0.6765362108849375,-2.2916670984713226,1.326652614067279,0.4703761202168112,-0.4671750630210233,0.601574832639732
1.1071231365203857,0.3267505251654692,0.6768533488570839,-2.291524704845566,1.3268040084333304,0.4708305684596515,-0.46715702529162023,0.6017698770672613
1.1089811325073242,0.3266732815521552,0.6767800210396354,-2.2915216172645887,1.326912068541124,0.4708377779769659,-0.4671112485052809,0.6017584799633021
1.1107230186462402,0.326571716492908,0.6770440272802108,-2.2917276375794104,1.327325272826309,0.4711257439916828,-0.46728526639896756,0.6015661474754139
1.112299919128418,0.32662107909860705,0.6770736334990222,-2.2917104151080037,1.3272659727887308,0.47119651629239934,-0.46732510766527385,0.6016210620361347
1.1138091087341309,0.32658780896183115,0.6770625181111672,-2.291686923563017,1.327285374207255,0.4712250406441221,-0.4673178318437469,0.6016399991806735
1.1169641017913818,0.32653277214272913,0.6771236785461857,-2.2916941288570754,1.3273443997211682,0.4714289924958462,-0.467400854622514,0.601669521386913
1.120384931564331,0.326552937968002,0.6771452866764472,-2.291739661369252,1.3273542357219525,0.4714081674693825,-0.467415600348887,0.6016248229738971
1.1206810474395752,0.3265243487650588,0.6771934570406767,-2.291781896715456,1.3274228509265233,0.4714486874898814,-0.4674361357014492,0.6015686168277271
1.1207449436187744,0.3264942464209554,0.6767728894082267,-2.2919083278851073,1.3277119331893645,0.4713459723608801,-0.46730507396894116,0.6014851713139452
1.1220171451568604,0.32666763314432473,0.676896366689855,-2.291940833245338,1.3278331304599948,0.47111037080300605,-0.46740554185410016,0.6013801761070781
1.1268839836120605,0.3271925436469275,0.6768780517444358,-2.2913180513261318,1.3285159461207507,0.4707195748490004,-0.46775538475657086,0.6018299391164074
1.128931999206543,0.3271336231407532,0.6769543236605675,-2.2913023653672258,1.3285235236518738,0.47060940195986245,-0.4677843475089727,0.6017625477691905
1.1323199272155762,0.3269290347279589,0.675969859866144,-2.291467276107112,1.3289000973156928,0.47060975462110327,-0.46754343170806256,0.6016637754076394
1.1323859691619873,0.32710060057359985,0.6759083458878344,-2.29162398152322,1.328847994206466,0.4704741649852419,-0.4677804370658112,0.6015289232650072
1.1339280605316162,0.32668021688833887,0.6755323972634582,-2.2918246096975787,1.3288247497091255,0.46987977092977,-0.46875959947047,0.6013350794559756
1.13555908203125,0.32660719830239227,0.6754725633045243,-2.2916317723907853,1.328852959067351,0.46999953708068054,-0.46870500099066903,0.6015125074905237
1.137157917022705,0.32668792448196105,0.6754921463881505,-2.2916275351981166,1.3288154788683715,0.47002362544487963,-0.4687334158323043,0.6015470719225532
1.1424751281738281,0.32668841525513886,0.6754850211587509,-2.2915690527898644,1.3288464702710647,0.4700269352226351,-0.4687177482837924,0.6015865764657061
1.1425831317901611,0.32689203177776555,0.6755255885629089,-2.291403672068029,1.328993335710552,0.469894689013229,-0.46872607361080576,0.6016667446107679
1.142699956893921,0.32527080971707256,0.6742975807605317,-2.292399037531155,1.3265439151296836,0.47040401474661064,-0.4690421346237858,0.6005661530930131
1.1452739238739014,0.32556593860568683,0.6746611197992762,-2.2922703552510133,1.32678628208084,0.4706198357177401,-0.4679830747128335,0.6004580547435143
1.145327091217041,0.3253979133993492,0.6746104732986937,-2.292459902977098,1.326520492324682,0.47080843102337083,-0.46779083407029115,0.6003178390893262
1.1468651294708252,0.32541825821733067,0.6746320214092498,-2.2924475799418027,1.326521931239243,0.4708491856139178,-0.46773628359732805,0.6003085910836895
1.1487669944763184,0.32541211894475613,0.6746302112021206,-2.292451136830781,1.3265272667926353,0.47084417162993375,-0.46773427566585885,0.6002998237012559
1.1504220962524414,0.3263042851663166,0.6730770632645839,-2.2927111432720935,1.327121821003564,0.47127191420580805,-0.46689529872572966,0.6000590610870664
1.1519780158996582,0.32606568944854203,0.6732024703464728,-2.292825516616949,1.3275532854588221,0.47087235433209457,-0.46679724017890284,0.5996352892506377
1.1536519527435303,0.32680459043509985,0.674048989198717,-2.292834194814154,1.329394647911495,0.47094833642278816,-0.467360428407089,0.5995003221655805
1.1556360721588135,0.3268096820280211,0.6742435805547635,-2.2926480318694384,1.3292629517720598,0.47114385127972,-0.46753364574322337,0.5996982235190027
1.1574010848999023,0.3267657226914361,0.674364555124173,-2.292654959288152,1.329855645431897,0.47173127363192874,-0.4682856395285262,0.5999420226163873
1.159027099609375,0.32661774585460596,0.6744670974479088,-2.2926287924243494,1.3299567662427516,0.47164711532795295,-0.46827277977794834,0.5998444033635946
1.1608989238739014,0.324602425434401,0.6731567623135395,-2.2930387214673655,1.3269993323572735,0.47087489885457695,-0.4703790970842292,0.598785606443997
1.1625900268554688,0.3244299374974146,0.6732003173618295,-2.292790862052675,1.3268078801208574,0.47127386002945637,-0.46970871082643023,0.5989383960945456
1.1657559871673584,0.3244068217501403,0.673144597874463,-2.2929500324990686,1.32689216065452,0.4711689934972551,-0.469617385235925,0.598761034326776
